; generated by Slic3r 1.2.9 on 2017-01-02 at 20:10:42

; external perimeters extrusion width = 0.50mm
; perimeters extrusion width = 0.85mm
; infill extrusion width = 1.52mm
; solid infill extrusion width = 0.85mm
; top infill extrusion width = 0.85mm

M107
M104 S200 ; set temperature
G28 ; home all axes
G1 Z5 F5000 ; lift nozzle

M109 S200 ; wait for temperature to be reached
G21 ; set units to millimeters
G90 ; use absolute coordinates
M82 ; use absolute distances for extrusion
G92 E0
G1 Z0.394 F3300.000
G1 E-2.00000 F2400.00000
G92 E0
G1 X19.426 Y10.001 F3300.000
G1 E2.00000 F2400.00000
G1 X19.521 Y9.904 E2.00529 F1800.000
G1 X19.688 Y9.788 E2.01324
G1 X19.881 Y9.729 E2.02117
G1 X20.093 Y9.706 E2.02951
G1 X100.825 Y9.708 E5.19098
G1 X100.826 Y110.292 E9.12985
G1 X20.093 Y110.294 E12.29138
G1 X19.881 Y110.271 E12.29972
G1 X19.630 Y110.175 E12.31024
G1 X19.502 Y110.082 E12.31646
G1 X19.388 Y109.950 E12.32327
G1 X19.270 Y109.696 E12.33423
G1 X19.241 Y109.424 E12.34496
G1 X19.241 Y10.576 E16.21585
G1 X19.259 Y10.364 E16.22418
G1 X19.293 Y10.235 E16.22942
G1 X19.384 Y10.062 E16.23704
G1 E14.23704 F2400.00000
G92 E0
G1 X101.528 Y9.005 F3300.000
G1 E2.00000 F2400.00000
G1 X101.529 Y110.995 E5.99393 F1800.000
G1 X20.055 Y110.997 E9.18442
G1 X19.746 Y110.963 E9.19662
G1 X19.500 Y110.893 E9.20665
G1 X19.269 Y110.781 E9.21669
G1 X19.049 Y110.622 E9.22730
G1 X18.806 Y110.348 E9.24166
G1 X18.676 Y110.119 E9.25196
G1 X18.565 Y109.771 E9.26629
G1 X18.538 Y109.453 E9.27875
G1 X18.538 Y10.546 E13.15196
G1 X18.564 Y10.244 E13.16386
G1 X18.629 Y9.996 E13.17387
G1 X18.736 Y9.763 E13.18391
G1 X18.881 Y9.552 E13.19395
G1 X19.061 Y9.369 E13.20399
G1 X19.380 Y9.155 E13.21905
G1 X19.746 Y9.036 E13.23409
G1 X20.055 Y9.003 E13.24629
G1 X101.453 Y9.005 E16.43382
G1 X101.995 Y8.302 F3300.000
G1 X102.202 Y8.343 E16.44208 F1800.000
G1 X102.231 Y8.530 E16.44952
G1 X102.235 Y108.378 E20.35956
G1 X102.231 Y111.469 E20.48061
G1 X102.202 Y111.657 E20.48806
G1 X101.995 Y111.698 E20.49631
G1 X20.018 Y111.700 E23.70654
G1 X19.610 Y111.656 E23.72260
G1 X19.247 Y111.552 E23.73738
G1 X18.907 Y111.387 E23.75218
G1 X18.597 Y111.163 E23.76717
G1 X18.435 Y111.006 E23.77599
G1 X18.223 Y110.746 E23.78912
G1 X18.036 Y110.415 E23.80400
G1 X17.921 Y110.101 E23.81713
G1 X17.869 Y109.882 E23.82594
G1 X17.835 Y109.483 E23.84160
G1 X17.835 Y10.517 E27.71714
G1 X17.869 Y10.123 E27.73260
G1 X17.965 Y9.758 E27.74738
G1 X18.123 Y9.415 E27.76217
G1 X18.337 Y9.104 E27.77697
G1 X18.601 Y8.834 E27.79176
G1 X18.914 Y8.608 E27.80688
G1 X19.073 Y8.522 E27.81396
G1 X19.239 Y8.451 E27.82103
G1 X19.610 Y8.344 E27.83615
G1 X20.018 Y8.300 E27.85221
G1 X101.920 Y8.302 E31.05950
G1 X102.076 Y8.497 F3300.000
G1 E29.05950 F2400.00000
G92 E0
G1 X100.397 Y10.475 F3300.000
G1 E2.00000 F2400.00000
G1 X100.058 Y10.136 E2.01881 F1800.000
G1 X99.060 Y10.136 E2.05804
G1 X100.397 Y11.473 E2.13234
G1 X100.397 Y12.471 E2.17158
G1 X98.062 Y10.136 E2.30137
G1 X97.064 Y10.136 E2.34060
G1 X100.397 Y13.469 E2.52588
G1 X100.397 Y14.467 E2.56512
G1 X96.066 Y10.136 E2.80589
G1 X95.068 Y10.136 E2.84513
G1 X100.397 Y15.465 E3.14139
G1 X100.397 Y16.463 E3.18063
G1 X94.070 Y10.136 E3.53238
G1 X93.072 Y10.136 E3.57162
G1 X100.397 Y17.461 E3.97886
G1 X100.397 Y18.459 E4.01810
G1 X92.074 Y10.136 E4.48084
G1 X91.075 Y10.136 E4.52008
G1 X100.397 Y19.457 E5.03830
G1 X100.397 Y20.455 E5.07754
G1 X90.077 Y10.136 E5.65126
G1 X89.079 Y10.136 E5.69050
G1 X100.397 Y21.454 E6.31971
G1 X100.397 Y22.452 E6.35894
G1 X88.081 Y10.136 E7.04364
G1 X87.083 Y10.136 E7.08288
G1 X100.397 Y23.450 E7.82307
G1 X100.397 Y24.448 E7.86231
G1 X86.085 Y10.136 E8.65799
G1 X85.087 Y10.136 E8.69723
G1 X100.397 Y25.446 E9.54840
G1 X100.397 Y26.444 E9.58764
G1 X84.089 Y10.136 E10.49431
G1 X83.091 Y10.136 E10.53354
G1 X100.397 Y27.442 E11.49570
G1 X100.397 Y28.440 E11.53494
G1 X82.093 Y10.136 E12.55259
G1 X81.095 Y10.136 E12.59182
G1 X100.397 Y29.438 E13.66496
G1 X100.397 Y30.436 E13.70420
G1 X80.096 Y10.136 E14.83283
G1 X79.098 Y10.136 E14.87207
G1 X100.397 Y31.434 E16.05619
G1 X100.397 Y32.432 E16.09543
G1 X78.100 Y10.136 E17.33504
G1 X77.102 Y10.136 E17.37428
G1 X100.397 Y33.431 E18.66938
G1 X100.397 Y34.429 E18.70862
G1 X76.104 Y10.136 E20.05921
G1 X75.106 Y10.136 E20.09845
G1 X100.397 Y35.427 E21.50454
G1 X100.397 Y36.425 E21.54378
G1 X74.108 Y10.136 E23.00535
G1 X73.110 Y10.136 E23.04459
G1 X100.397 Y37.423 E24.56166
G1 X100.397 Y38.421 E24.60090
G1 X72.112 Y10.136 E26.17346
G1 X71.114 Y10.136 E26.21269
G1 X100.397 Y39.419 E27.84075
G1 X100.397 Y40.417 E27.87998
G1 X70.116 Y10.136 E29.56353
G1 X69.117 Y10.136 E29.60276
G1 X100.397 Y41.415 E31.34180
G1 X100.397 Y42.413 E31.38103
G1 X68.119 Y10.136 E33.17556
G1 X67.121 Y10.136 E33.21480
G1 X100.397 Y43.411 E35.06481
G1 X100.397 Y44.409 E35.10405
G1 X66.123 Y10.136 E37.00956
G1 X65.125 Y10.136 E37.04879
G1 X100.397 Y45.408 E39.00979
G1 X100.397 Y46.406 E39.04903
G1 X64.127 Y10.136 E41.06552
G1 X63.129 Y10.136 E41.10476
G1 X100.397 Y47.404 E43.17674
G1 X100.397 Y48.402 E43.21598
G1 X62.131 Y10.136 E45.34345
G1 X61.133 Y10.136 E45.38269
G1 X100.397 Y49.400 E47.56565
G1 X100.397 Y50.398 E47.60489
G1 X60.135 Y10.135 E49.84334
G1 X59.137 Y10.135 E49.88258
G1 X100.397 Y51.396 E52.17652
G1 X100.397 Y52.394 E52.21576
G1 X58.138 Y10.135 E54.56520
G1 X57.140 Y10.135 E54.60444
G1 X100.397 Y53.392 E57.00936
G1 X100.397 Y54.390 E57.04860
G1 X56.142 Y10.135 E59.50902
G1 X55.144 Y10.135 E59.54826
G1 X100.397 Y55.388 E62.06417
G1 X100.397 Y56.386 E62.10341
G1 X54.146 Y10.135 E64.67481
G1 X53.148 Y10.135 E64.71405
G1 X100.397 Y57.385 E67.34094
G1 X100.397 Y58.383 E67.38018
G1 X52.150 Y10.135 E70.06256
G1 X51.152 Y10.135 E70.10180
G1 X100.397 Y59.381 E72.83967
G1 X100.397 Y60.379 E72.87891
G1 X50.154 Y10.135 E75.67228
G1 X49.156 Y10.135 E75.71151
G1 X100.397 Y61.377 E78.56037
G1 X100.397 Y62.375 E78.59961
G1 X48.158 Y10.135 E81.50396
G1 X47.160 Y10.135 E81.54320
G1 X100.397 Y63.373 E84.50304
G1 X100.397 Y64.371 E84.54227
G1 X46.161 Y10.135 E87.55761
G1 X45.163 Y10.135 E87.59684
G1 X100.397 Y65.369 E90.66767
G1 X100.397 Y66.367 E90.70690
G1 X44.165 Y10.135 E93.83322
G1 X43.167 Y10.135 E93.87245
G1 X100.397 Y67.365 E97.05426
G1 X100.397 Y68.363 E97.09350
G1 X42.169 Y10.135 E100.33079
G1 X41.171 Y10.135 E100.37003
G1 X100.397 Y69.362 E103.66282
G1 X100.397 Y70.360 E103.70206
G1 X40.173 Y10.135 E107.05033
G1 X39.175 Y10.135 E107.08957
G1 X100.397 Y71.358 E110.49334
G1 X100.397 Y72.356 E110.53258
G1 X38.177 Y10.135 E113.99184
G1 X37.179 Y10.135 E114.03108
G1 X100.397 Y73.354 E117.54583
G1 X100.397 Y74.352 E117.58507
G1 X36.181 Y10.135 E121.15531
G1 X35.182 Y10.135 E121.19455
G1 X100.398 Y75.350 E124.82028
G1 X100.398 Y76.348 E124.85952
G1 X34.184 Y10.135 E128.54075
G1 X33.186 Y10.135 E128.57998
G1 X100.398 Y77.346 E132.31670
G1 X100.398 Y78.344 E132.35594
G1 X32.188 Y10.135 E136.14815
G1 X31.190 Y10.135 E136.18738
G1 X100.398 Y79.342 E140.03508
G1 X100.398 Y80.340 E140.07432
G1 X30.192 Y10.135 E143.97751
G1 X29.194 Y10.135 E144.01675
G1 X100.398 Y81.338 E147.97543
G1 X100.398 Y82.337 E148.01467
G1 X28.196 Y10.135 E152.02884
G1 X27.198 Y10.135 E152.06808
G1 X100.398 Y83.335 E156.13774
G1 X100.398 Y84.333 E156.17698
G1 X26.200 Y10.135 E160.30214
G1 X25.202 Y10.135 E160.34138
G1 X100.398 Y85.331 E164.52202
G1 X100.398 Y86.329 E164.56126
G1 X24.203 Y10.135 E168.79740
G1 X23.205 Y10.135 E168.83664
G1 X100.398 Y87.327 E173.12826
G1 X100.398 Y88.325 E173.16750
G1 X22.207 Y10.135 E177.51462
G1 X21.209 Y10.135 E177.55386
G1 X100.398 Y89.323 E181.95647
G1 X100.398 Y90.321 E181.99571
G1 X20.211 Y10.135 E186.45381
G1 X19.670 Y10.591 E186.48166
G1 X100.398 Y91.319 E190.96986
G1 X100.398 Y92.317 E191.00910
G1 X19.670 Y11.589 E195.49731
G1 X19.670 Y12.587 E195.53655
G1 X100.398 Y93.315 E200.02476
G1 X100.398 Y94.314 E200.06399
G1 X19.670 Y13.585 E204.55220
G1 X19.670 Y14.583 E204.59144
G1 X100.398 Y95.312 E209.07965
G1 X100.398 Y96.310 E209.11889
G1 X19.670 Y15.582 E213.60710
G1 X19.670 Y16.580 E213.64634
G1 X100.398 Y97.308 E218.13455
G1 X100.398 Y98.306 E218.17379
G1 X19.670 Y17.578 E222.66200
G1 X19.670 Y18.576 E222.70124
G1 X100.398 Y99.304 E227.18945
G1 X100.398 Y100.302 E227.22869
G1 X19.670 Y19.574 E231.71690
G1 X19.670 Y20.572 E231.75614
G1 X100.398 Y101.300 E236.24436
G1 X100.398 Y102.298 E236.28359
G1 X19.670 Y21.570 E240.77181
G1 X19.670 Y22.568 E240.81105
G1 X100.398 Y103.296 E245.29926
G1 X100.398 Y104.294 E245.33850
G1 X19.670 Y23.566 E249.82672
G1 X19.670 Y24.564 E249.86596
G1 X100.398 Y105.292 E254.35418
G1 X100.398 Y106.291 E254.39341
G1 X19.670 Y25.562 E258.88163
G1 X19.670 Y26.560 E258.92087
G1 X100.398 Y107.289 E263.40909
G1 X100.398 Y108.287 E263.44833
G1 X19.670 Y27.558 E267.93655
G1 X19.670 Y28.556 E267.97579
G1 X100.398 Y109.285 E272.46401
G1 X99.978 Y109.863 E272.49210
G1 X19.670 Y29.554 E276.95700
G1 X19.670 Y30.553 E276.99624
G1 X98.980 Y109.863 E281.40565
G1 X97.982 Y109.863 E281.44488
G1 X19.670 Y31.551 E285.79880
G1 X19.670 Y32.549 E285.83804
G1 X96.984 Y109.863 E290.13647
G1 X95.986 Y109.863 E290.17571
G1 X19.670 Y33.547 E294.41866
G1 X19.670 Y34.545 E294.45789
G1 X94.988 Y109.863 E298.64535
G1 X93.990 Y109.863 E298.68459
G1 X19.670 Y35.543 E302.81656
G1 X19.670 Y36.541 E302.85579
G1 X92.992 Y109.863 E306.93227
G1 X91.994 Y109.864 E306.97151
G1 X19.670 Y37.539 E310.99250
G1 X19.670 Y38.537 E311.03174
G1 X90.996 Y109.864 E314.99725
G1 X89.998 Y109.864 E315.03648
G1 X19.670 Y39.535 E318.94650
G1 X19.670 Y40.533 E318.98574
G1 X89.000 Y109.864 E322.84027
G1 X88.002 Y109.864 E322.87950
G1 X19.670 Y41.531 E326.67855
G1 X19.670 Y42.529 E326.71778
G1 X87.004 Y109.864 E330.46134
G1 X86.006 Y109.864 E330.50057
G1 X19.670 Y43.527 E334.18864
G1 X19.670 Y44.525 E334.22788
G1 X85.008 Y109.864 E337.86046
G1 X84.010 Y109.864 E337.89969
G1 X19.670 Y45.524 E341.47678
G1 X19.670 Y46.522 E341.51602
G1 X83.012 Y109.864 E345.03762
G1 X82.014 Y109.864 E345.07686
G1 X19.670 Y47.520 E348.54297
G1 X19.670 Y48.518 E348.58221
G1 X81.016 Y109.864 E351.99284
G1 X80.018 Y109.864 E352.03207
G1 X19.670 Y49.516 E355.38721
G1 X19.670 Y50.514 E355.42645
G1 X79.020 Y109.864 E358.72610
G1 X78.021 Y109.864 E358.76534
G1 X19.670 Y51.512 E362.00950
G1 X19.670 Y52.510 E362.04874
G1 X77.023 Y109.864 E365.23741
G1 X76.025 Y109.864 E365.27665
G1 X19.670 Y53.508 E368.40984
G1 X19.670 Y54.506 E368.44907
G1 X75.027 Y109.864 E371.52678
G1 X74.029 Y109.864 E371.56601
G1 X19.670 Y55.504 E374.58822
G1 X19.670 Y56.502 E374.62746
G1 X73.031 Y109.864 E377.59418
G1 X72.033 Y109.864 E377.63342
G1 X19.670 Y57.500 E380.54466
G1 X19.670 Y58.498 E380.58389
G1 X71.035 Y109.864 E383.43964
G1 X70.037 Y109.864 E383.47888
G1 X19.670 Y59.496 E386.27914
G1 X19.670 Y60.495 E386.31838
G1 X69.039 Y109.864 E389.06315
G1 X68.041 Y109.864 E389.10238
G1 X19.670 Y61.493 E391.79167
G1 X19.670 Y62.491 E391.83091
G1 X67.043 Y109.864 E394.46470
G1 X66.045 Y109.864 E394.50394
G1 X19.670 Y63.489 E397.08225
G1 X19.670 Y64.487 E397.12148
G1 X65.047 Y109.864 E399.64431
G1 X64.049 Y109.864 E399.68354
G1 X19.670 Y65.485 E402.15087
G1 X19.670 Y66.483 E402.19011
G1 X63.051 Y109.864 E404.60196
G1 X62.053 Y109.864 E404.64119
G1 X19.670 Y67.481 E406.99755
G1 X19.670 Y68.479 E407.03679
G1 X61.055 Y109.864 E409.33766
G1 X60.057 Y109.864 E409.37689
G1 X19.670 Y69.477 E411.62228
G1 X19.670 Y70.475 E411.66151
G1 X59.059 Y109.864 E413.85141
G1 X58.061 Y109.864 E413.89064
G1 X19.670 Y71.473 E416.02505
G1 X19.670 Y72.471 E416.06428
G1 X57.063 Y109.864 E418.14320
G1 X56.064 Y109.864 E418.18244
G1 X19.670 Y73.469 E420.20587
G1 X19.670 Y74.467 E420.24511
G1 X55.066 Y109.864 E422.21305
G1 X54.068 Y109.864 E422.25228
G1 X19.670 Y75.466 E424.16474
G1 X19.670 Y76.464 E424.20398
G1 X53.070 Y109.864 E426.06094
G1 X52.072 Y109.864 E426.10018
G1 X19.670 Y77.462 E427.90166
G1 X19.670 Y78.460 E427.94089
G1 X51.074 Y109.864 E429.68688
G1 X50.076 Y109.864 E429.72612
G1 X19.670 Y79.458 E431.41662
G1 X19.670 Y80.456 E431.45586
G1 X49.078 Y109.864 E433.09088
G1 X48.080 Y109.864 E433.13011
G1 X19.670 Y81.454 E434.70964
G1 X19.670 Y82.452 E434.74888
G1 X47.082 Y109.865 E436.27292
G1 X46.084 Y109.865 E436.31215
G1 X19.670 Y83.450 E437.78070
G1 X19.670 Y84.448 E437.81994
G1 X45.086 Y109.865 E439.23300
G1 X44.088 Y109.865 E439.27224
G1 X19.670 Y85.446 E440.62982
G1 X19.670 Y86.444 E440.66905
G1 X43.090 Y109.865 E441.97114
G1 X42.092 Y109.865 E442.01038
G1 X19.670 Y87.442 E443.25698
G1 X19.670 Y88.440 E443.29621
G1 X41.094 Y109.865 E444.48732
G1 X40.096 Y109.865 E444.52656
G1 X19.670 Y89.439 E445.66218
G1 X19.670 Y90.437 E445.70142
G1 X39.098 Y109.865 E446.78156
G1 X38.100 Y109.865 E446.82079
G1 X19.670 Y91.435 E447.84544
G1 X19.670 Y92.433 E447.88468
G1 X37.102 Y109.865 E448.85384
G1 X36.104 Y109.865 E448.89308
G1 X19.670 Y93.431 E449.80675
G1 X19.670 Y94.429 E449.84599
G1 X35.106 Y109.865 E450.70417
G1 X34.108 Y109.865 E450.74341
G1 X19.670 Y95.427 E451.54610
G1 X19.670 Y96.425 E451.58534
G1 X33.109 Y109.865 E452.33255
G1 X32.111 Y109.865 E452.37179
G1 X19.670 Y97.423 E453.06351
G1 X19.670 Y98.421 E453.10274
G1 X31.113 Y109.865 E453.73898
G1 X30.115 Y109.865 E453.77821
G1 X19.670 Y99.419 E454.35896
G1 X19.670 Y100.417 E454.39819
G1 X29.117 Y109.865 E454.92345
G1 X28.119 Y109.865 E454.96269
G1 X19.670 Y101.415 E455.43246
G1 X19.670 Y102.413 E455.47169
G1 X27.121 Y109.865 E455.88598
G1 X26.123 Y109.865 E455.92521
G1 X19.670 Y103.411 E456.28401
G1 X19.670 Y104.410 E456.32324
G1 X25.125 Y109.865 E456.62655
G1 X24.127 Y109.865 E456.66579
G1 X19.670 Y105.408 E456.91360
G1 X19.670 Y106.406 E456.95284
G1 X23.129 Y109.865 E457.14517
G1 X22.131 Y109.865 E457.18441
G1 X19.670 Y107.404 E457.32125
G1 X19.670 Y108.402 E457.36049
G1 X21.133 Y109.865 E457.44184
G1 X20.112 Y109.843 E457.48197
G1 X19.692 Y109.422 E457.50536
G1 Z0.525 F3300.000
G1 E455.50536 F2400.00000
G92 E0
G1 X101.156 Y9.377 F3300.000
G1 E2.00000 F2400.00000
G1 X101.156 Y110.622 E3.54499 F2100.000
G1 X20.119 Y110.622 E4.78159
G1 X19.813 Y110.592 E4.78630
G1 X19.634 Y110.540 E4.78912
G1 X19.462 Y110.457 E4.79205
G1 X19.307 Y110.345 E4.79497
G1 X19.139 Y110.173 E4.79863
G1 X19.020 Y109.965 E4.80229
G1 X18.939 Y109.737 E4.80598
G1 X18.910 Y109.422 E4.81080
G1 X18.910 Y10.577 E6.31917
G1 X18.934 Y10.312 E6.32323
G1 X18.984 Y10.124 E6.32620
G1 X19.064 Y9.950 E6.32913
G1 X19.187 Y9.770 E6.33245
G1 X19.379 Y9.597 E6.33638
G1 X19.569 Y9.484 E6.33976
G1 X19.809 Y9.408 E6.34360
G1 X20.119 Y9.377 E6.34836
G1 X101.081 Y9.377 E7.58382
G1 X101.977 Y8.555 F3300.000
G1 X101.977 Y111.444 E9.15389 F2100.000
G1 X20.078 Y111.444 E10.40367
G1 X19.657 Y111.402 E10.41013
G1 X19.339 Y111.311 E10.41517
G1 X19.039 Y111.165 E10.42025
G1 X18.769 Y110.970 E10.42534
G1 X18.522 Y110.718 E10.43072
G1 X18.271 Y110.309 E10.43806
G1 X18.124 Y109.850 E10.44541
G1 X18.089 Y109.459 E10.45139
G1 X18.089 Y10.540 E11.96089
G1 X18.122 Y10.169 E11.96657
G1 X18.208 Y9.845 E11.97168
G1 X18.347 Y9.542 E11.97677
G1 X18.543 Y9.256 E11.98206
G1 X18.659 Y9.131 E11.98466
G1 X18.898 Y8.927 E11.98947
G1 X19.198 Y8.748 E11.99479
G1 X19.355 Y8.683 E11.99738
G1 X19.655 Y8.598 E12.00214
G1 X20.078 Y8.555 E12.00863
G1 X101.902 Y8.555 E13.25726
G1 E11.25726 F2400.00000
G92 E0
G1 X102.481 Y111.881 F3300.000
G1 E2.00000 F2400.00000
G1 X102.295 Y112.028 E2.00208 F1050.000
G1 X102.197 Y112.064 E2.00299
G1 X102.014 Y112.091 E2.00461
G1 X20.046 Y112.091 E2.72274
G1 X19.534 Y112.040 E2.72724
G1 X19.107 Y111.917 E2.73114
G1 X18.707 Y111.723 E2.73503
G1 X18.346 Y111.463 E2.73893
G1 X18.031 Y111.141 E2.74288
G1 X17.903 Y110.971 E2.74474
G1 X17.681 Y110.580 E2.74868
G1 X17.529 Y110.156 E2.75263
G1 X17.483 Y109.948 E2.75449
G1 X17.442 Y109.489 E2.75853
G1 X17.442 Y10.511 E3.62568
G1 X17.483 Y10.057 E3.62967
G1 X17.597 Y9.626 E3.63358
G1 X17.782 Y9.222 E3.63748
G1 X18.037 Y8.852 E3.64141
G1 X18.209 Y8.664 E3.64364
G1 X18.520 Y8.400 E3.64722
G1 X18.906 Y8.169 E3.65116
G1 X19.141 Y8.071 E3.65339
G1 X19.533 Y7.960 E3.65696
G1 X20.046 Y7.909 E3.66147
G1 X102.014 Y7.909 E4.37960
G1 X102.197 Y7.936 E4.38122
G1 X102.295 Y7.972 E4.38213
G1 X102.475 Y8.112 E4.38413
G1 X102.571 Y8.267 E4.38573
G1 X102.612 Y8.394 E4.38690
