; generated by Slic3r 1.2.9 on 2017-01-01 at 16:20:15

; external perimeters extrusion width = 0.40mm
; perimeters extrusion width = 0.68mm
; infill extrusion width = 1.28mm
; solid infill extrusion width = 0.68mm
; top infill extrusion width = 0.68mm

M107
M190 S50 ; set bed temperature
M104 S205 ; set temperature
G28 ; home all axes
G1 Z5 F5000 ; lift nozzle

M109 S205 ; wait for temperature to be reached
G21 ; set units to millimeters
G90 ; use absolute coordinates
M82 ; use absolute distances for extrusion
G92 E0
G1 Z0.400 F3300.000
G1 E-2.00000 F2400.00000
G92 E0
G1 X18.844 Y9.314 F3300.000
G1 E2.00000 F2400.00000
G1 X101.187 Y9.314 E11.77952 F1800.000
G1 X101.187 Y110.657 E23.81559
G1 X18.844 Y110.657 E33.59511
G1 X18.844 Y9.374 E45.62405
G1 X18.129 Y8.600 F3300.000
G1 X101.901 Y8.600 E55.57321 F1800.000
G1 X101.901 Y111.372 E67.77890
G1 X18.129 Y111.372 E77.72806
G1 X18.129 Y8.660 E89.92663
G1 X17.415 Y7.886 F3300.000
G1 X102.615 Y7.886 E100.04543 F1800.000
G1 X102.615 Y112.086 E112.42076
G1 X17.415 Y112.086 E122.53955
G1 X17.415 Y7.946 E134.90776
G1 X17.762 Y8.086 F3300.000
G1 E132.90776 F2400.00000
G92 E0
G1 X100.751 Y10.093 F3300.000
G1 E2.00000 F2400.00000
G1 X100.408 Y9.750 E2.05776 F1800.000
G1 X99.396 Y9.750 E2.17834
G1 X100.751 Y11.105 E2.40662
G1 X100.751 Y12.118 E2.52720
G1 X98.383 Y9.750 E2.92601
G1 X97.371 Y9.750 E3.04659
G1 X100.751 Y13.130 E3.61592
G1 X100.751 Y14.143 E3.73650
G1 X96.358 Y9.750 E4.47636
G1 X95.345 Y9.750 E4.59693
G1 X100.751 Y15.156 E5.50731
G1 X100.751 Y16.168 E5.62789
G1 X94.333 Y9.750 E6.70880
G1 X93.320 Y9.750 E6.82938
G1 X100.751 Y17.181 E8.08081
G1 X100.751 Y18.194 E8.20138
G1 X92.308 Y9.750 E9.62334
G1 X91.295 Y9.750 E9.74392
G1 X100.751 Y19.206 E11.33639
G1 X100.751 Y20.219 E11.45697
G1 X90.282 Y9.750 E13.21997
G1 X89.270 Y9.750 E13.34055
G1 X100.751 Y21.231 E15.27408
G1 X100.751 Y22.244 E15.39466
G1 X88.257 Y9.750 E17.49870
G1 X87.244 Y9.750 E17.61928
G1 X100.751 Y23.257 E19.89386
G1 X100.751 Y24.269 E20.01444
G1 X86.232 Y9.750 E22.45953
G1 X85.219 Y9.750 E22.58011
G1 X100.751 Y25.282 E25.19573
G1 X100.751 Y26.295 E25.31631
G1 X84.207 Y9.750 E28.10246
G1 X83.194 Y9.750 E28.22304
G1 X100.751 Y27.307 E31.17971
G1 X100.751 Y28.320 E31.30029
G1 X82.181 Y9.750 E34.42748
G1 X81.169 Y9.750 E34.54806
G1 X100.751 Y29.332 E37.84578
G1 X100.751 Y30.345 E37.96636
G1 X80.156 Y9.750 E41.43460
G1 X79.143 Y9.750 E41.55518
G1 X100.751 Y31.358 E45.19395
G1 X100.751 Y32.370 E45.31452
G1 X78.131 Y9.750 E49.12381
G1 X77.118 Y9.750 E49.24439
G1 X100.751 Y33.383 E53.22421
G1 X100.751 Y34.395 E53.34479
G1 X76.106 Y9.750 E57.49513
G1 X75.093 Y9.750 E57.61571
G1 X100.751 Y35.408 E61.93657
G1 X100.751 Y36.421 E62.05715
G1 X74.080 Y9.750 E66.54853
G1 X73.068 Y9.750 E66.66911
G1 X100.751 Y37.433 E71.33103
G1 X100.751 Y38.446 E71.45160
G1 X72.055 Y9.750 E76.28404
G1 X71.043 Y9.750 E76.40462
G1 X100.751 Y39.459 E81.40758
G1 X100.751 Y40.471 E81.52816
G1 X70.030 Y9.750 E86.70164
G1 X69.017 Y9.750 E86.82222
G1 X100.751 Y41.484 E92.16623
G1 X100.751 Y42.496 E92.28681
G1 X68.005 Y9.750 E97.80134
G1 X66.992 Y9.750 E97.92192
G1 X100.751 Y43.509 E103.60697
G1 X100.751 Y44.522 E103.72755
G1 X65.979 Y9.750 E109.58313
G1 X64.967 Y9.750 E109.70371
G1 X100.751 Y45.534 E115.72982
G1 X100.751 Y46.547 E115.85040
G1 X63.954 Y9.750 E122.04702
G1 X62.942 Y9.750 E122.16760
G1 X100.751 Y47.559 E128.53476
G1 X100.751 Y48.572 E128.65534
G1 X61.929 Y9.750 E135.19301
G1 X60.916 Y9.750 E135.31359
G1 X100.751 Y49.585 E142.02179
G1 X100.751 Y50.597 E142.14237
G1 X59.904 Y9.750 E149.02110
G1 X58.891 Y9.750 E149.14168
G1 X100.751 Y51.610 E156.19093
G1 X100.751 Y52.623 E156.31150
G1 X57.878 Y9.750 E163.53128
G1 X56.866 Y9.750 E163.65186
G1 X100.751 Y53.635 E171.04215
G1 X100.751 Y54.648 E171.16273
G1 X55.853 Y9.750 E178.72356
G1 X54.841 Y9.750 E178.84413
G1 X100.751 Y55.660 E186.57548
G1 X100.751 Y56.673 E186.69606
G1 X53.828 Y9.750 E194.59793
G1 X52.815 Y9.750 E194.71851
G1 X100.751 Y57.686 E202.79090
G1 X100.751 Y58.698 E202.91148
G1 X51.803 Y9.750 E211.15440
G1 X50.790 Y9.750 E211.27498
G1 X100.751 Y59.711 E219.68842
G1 X100.751 Y60.724 E219.80900
G1 X49.778 Y9.750 E228.39297
G1 X48.765 Y9.750 E228.51355
G1 X100.751 Y61.736 E237.26804
G1 X100.751 Y62.749 E237.38862
G1 X47.752 Y9.750 E246.31363
G1 X46.740 Y9.750 E246.43421
G1 X100.751 Y63.761 E255.52975
G1 X100.751 Y64.774 E255.65033
G1 X45.727 Y9.750 E264.91639
G1 X44.714 Y9.750 E265.03697
G1 X100.751 Y65.787 E274.47356
G1 X100.751 Y66.799 E274.59414
G1 X43.702 Y9.750 E284.20125
G1 X42.689 Y9.750 E284.32183
G1 X100.751 Y67.812 E294.09946
G1 X100.751 Y68.824 E294.22004
G1 X41.677 Y9.750 E304.16820
G1 X40.664 Y9.750 E304.28878
G1 X100.751 Y69.837 E314.40746
G1 X100.751 Y70.850 E314.52804
G1 X39.651 Y9.750 E324.81725
G1 X38.639 Y9.750 E324.93783
G1 X100.751 Y71.862 E335.39756
G1 X100.751 Y72.875 E335.51814
G1 X37.626 Y9.750 E346.14840
G1 X36.613 Y9.750 E346.26897
G1 X100.751 Y73.888 E357.06976
G1 X100.751 Y74.900 E357.19033
G1 X35.601 Y9.750 E368.16164
G1 X34.588 Y9.750 E368.28222
G1 X100.751 Y75.913 E379.42405
G1 X100.751 Y76.925 E379.54463
G1 X33.576 Y9.750 E390.85698
G1 X32.563 Y9.750 E390.97756
G1 X100.751 Y77.938 E402.46043
G1 X100.751 Y78.951 E402.58101
G1 X31.550 Y9.750 E414.23441
G1 X30.538 Y9.750 E414.35499
G1 X100.751 Y79.963 E426.17892
G1 X100.751 Y80.976 E426.29950
G1 X29.525 Y9.750 E438.29395
G1 X28.513 Y9.750 E438.41453
G1 X100.751 Y81.989 E450.57950
G1 X100.751 Y83.001 E450.70008
G1 X27.500 Y9.750 E463.03558
G1 X26.487 Y9.750 E463.15616
G1 X100.751 Y84.014 E475.66218
G1 X100.751 Y85.026 E475.78276
G1 X25.475 Y9.750 E488.45930
G1 X24.462 Y9.750 E488.57988
G1 X100.751 Y86.039 E501.42695
G1 X100.751 Y87.052 E501.54753
G1 X23.449 Y9.750 E514.56513
G1 X22.437 Y9.750 E514.68570
G1 X100.751 Y88.064 E527.87382
G1 X100.751 Y89.077 E527.99440
G1 X21.424 Y9.750 E541.35304
G1 X20.412 Y9.750 E541.47362
G1 X100.751 Y90.089 E555.00279
G1 X100.751 Y91.102 E555.12337
G1 X19.399 Y9.750 E568.82306
G1 X19.279 Y10.642 E568.93032
G1 X100.751 Y92.115 E582.65019
G1 X100.751 Y93.127 E582.77077
G1 X19.279 Y11.655 E596.49065
G1 X19.279 Y12.668 E596.61123
G1 X100.751 Y94.140 E610.33110
G1 X100.751 Y95.153 E610.45168
G1 X19.279 Y13.680 E624.17155
G1 X19.279 Y14.693 E624.29213
G1 X100.751 Y96.165 E638.01200
G1 X100.751 Y97.178 E638.13258
G1 X19.279 Y15.705 E651.85245
G1 X19.279 Y16.718 E651.97303
G1 X100.751 Y98.190 E665.69291
G1 X100.751 Y99.203 E665.81349
G1 X19.279 Y17.731 E679.53336
G1 X19.279 Y18.743 E679.65394
G1 X100.751 Y100.216 E693.37381
G1 X100.751 Y101.228 E693.49439
G1 X19.279 Y19.756 E707.21426
G1 X19.279 Y20.769 E707.33484
G1 X100.751 Y102.241 E721.05471
G1 X100.751 Y103.254 E721.17529
G1 X19.279 Y21.781 E734.89517
G1 X19.279 Y22.794 E735.01575
G1 X100.751 Y104.266 E748.73562
G1 X100.751 Y105.279 E748.85620
G1 X19.279 Y23.806 E762.57607
G1 X19.279 Y24.819 E762.69665
G1 X100.751 Y106.291 E776.41652
G1 X100.751 Y107.304 E776.53710
G1 X19.279 Y25.832 E790.25698
G1 X19.279 Y26.844 E790.37755
G1 X100.751 Y108.317 E804.09743
G1 X100.751 Y109.329 E804.21801
G1 X19.279 Y27.857 E817.93788
G1 X19.279 Y28.870 E818.05846
G1 X100.632 Y110.222 E831.75814
G1 X99.619 Y110.222 E831.87872
G1 X19.279 Y29.882 E845.40787
G1 X19.279 Y30.895 E845.52845
G1 X98.606 Y110.222 E858.88708
G1 X97.594 Y110.222 E859.00766
G1 X19.279 Y31.907 E872.19577
G1 X19.279 Y32.920 E872.31635
G1 X96.581 Y110.222 E885.33393
G1 X95.568 Y110.222 E885.45451
G1 X19.279 Y33.933 E898.30157
G1 X19.279 Y34.945 E898.42215
G1 X94.556 Y110.222 E911.09869
G1 X93.543 Y110.222 E911.21926
G1 X19.279 Y35.958 E923.72528
G1 X19.279 Y36.970 E923.84585
G1 X92.531 Y110.222 E936.18134
G1 X91.518 Y110.222 E936.30192
G1 X19.279 Y37.983 E948.46688
G1 X19.279 Y38.996 E948.58746
G1 X90.505 Y110.222 E960.58190
G1 X89.493 Y110.222 E960.70248
G1 X19.279 Y40.008 E972.52639
G1 X19.279 Y41.021 E972.64697
G1 X88.480 Y110.222 E984.30036
G1 X87.467 Y110.222 E984.42094
G1 X19.279 Y42.034 E995.90381
G1 X19.279 Y43.046 E996.02439
G1 X86.455 Y110.222 E1007.33673
G1 X85.442 Y110.222 E1007.45731
G1 X19.279 Y44.059 E1018.59913
G1 X19.279 Y45.071 E1018.71971
G1 X84.430 Y110.222 E1029.69100
G1 X83.417 Y110.222 E1029.81158
G1 X19.279 Y46.084 E1040.61235
G1 X19.279 Y47.097 E1040.73293
G1 X82.404 Y110.222 E1051.36317
G1 X81.392 Y110.222 E1051.48375
G1 X19.279 Y48.109 E1061.94347
G1 X19.279 Y49.122 E1062.06405
G1 X80.379 Y110.222 E1072.35325
G1 X79.367 Y110.222 E1072.47383
G1 X19.279 Y50.135 E1082.59250
G1 X19.279 Y51.147 E1082.71308
G1 X78.354 Y110.222 E1092.66123
G1 X77.341 Y110.222 E1092.78181
G1 X19.279 Y52.160 E1102.55943
G1 X19.279 Y53.172 E1102.68001
G1 X76.329 Y110.222 E1112.28711
G1 X75.316 Y110.222 E1112.40769
G1 X19.279 Y54.185 E1121.84427
G1 X19.279 Y55.198 E1121.96485
G1 X74.303 Y110.222 E1131.23090
G1 X73.291 Y110.222 E1131.35148
G1 X19.279 Y56.210 E1140.44701
G1 X19.279 Y57.223 E1140.56759
G1 X72.278 Y110.222 E1149.49259
G1 X71.266 Y110.222 E1149.61317
G1 X19.279 Y58.235 E1158.36765
G1 X19.279 Y59.248 E1158.48823
G1 X70.253 Y110.222 E1167.07219
G1 X69.240 Y110.222 E1167.19276
G1 X19.279 Y60.261 E1175.60620
G1 X19.279 Y61.273 E1175.72677
G1 X68.228 Y110.222 E1183.96968
G1 X67.215 Y110.222 E1184.09026
G1 X19.279 Y62.286 E1192.16264
G1 X19.279 Y63.299 E1192.28322
G1 X66.203 Y110.222 E1200.18508
G1 X65.190 Y110.222 E1200.30566
G1 X19.279 Y64.311 E1208.03700
G1 X19.279 Y65.324 E1208.15758
G1 X64.177 Y110.222 E1215.71839
G1 X63.165 Y110.222 E1215.83897
G1 X19.279 Y66.336 E1223.22925
G1 X19.279 Y67.349 E1223.34983
G1 X62.152 Y110.222 E1230.56959
G1 X61.139 Y110.222 E1230.69017
G1 X19.279 Y68.362 E1237.73941
G1 X19.279 Y69.374 E1237.85999
G1 X60.127 Y110.222 E1244.73870
G1 X59.114 Y110.222 E1244.85928
G1 X19.279 Y70.387 E1251.56747
G1 X19.279 Y71.400 E1251.68805
G1 X58.102 Y110.222 E1258.22572
G1 X57.089 Y110.222 E1258.34630
G1 X19.279 Y72.412 E1264.71344
G1 X19.279 Y73.425 E1264.83402
G1 X56.076 Y110.222 E1271.03064
G1 X55.064 Y110.222 E1271.15121
G1 X19.279 Y74.437 E1277.17731
G1 X19.279 Y75.450 E1277.29789
G1 X54.051 Y110.222 E1283.15346
G1 X53.038 Y110.222 E1283.27404
G1 X19.279 Y76.463 E1288.95908
G1 X19.279 Y77.475 E1289.07966
G1 X52.026 Y110.222 E1294.59418
G1 X51.013 Y110.222 E1294.71476
G1 X19.279 Y78.488 E1300.05876
G1 X19.279 Y79.500 E1300.17934
G1 X50.001 Y110.222 E1305.35281
G1 X48.988 Y110.222 E1305.47339
G1 X19.279 Y80.513 E1310.47634
G1 X19.279 Y81.526 E1310.59691
G1 X47.975 Y110.222 E1315.42934
G1 X46.963 Y110.222 E1315.54992
G1 X19.279 Y82.538 E1320.21182
G1 X19.279 Y83.551 E1320.33240
G1 X45.950 Y110.222 E1324.82377
G1 X44.938 Y110.222 E1324.94435
G1 X19.279 Y84.564 E1329.26520
G1 X19.279 Y85.576 E1329.38578
G1 X43.925 Y110.222 E1333.53611
G1 X42.912 Y110.222 E1333.65669
G1 X19.279 Y86.589 E1337.63649
G1 X19.279 Y87.601 E1337.75707
G1 X41.900 Y110.222 E1341.56635
G1 X40.887 Y110.222 E1341.68693
G1 X19.279 Y88.614 E1345.32569
G1 X19.279 Y89.627 E1345.44627
G1 X39.874 Y110.222 E1348.91450
G1 X38.862 Y110.222 E1349.03508
G1 X19.279 Y90.639 E1352.33278
G1 X19.279 Y91.652 E1352.45336
G1 X37.849 Y110.222 E1355.58055
G1 X36.837 Y110.222 E1355.70112
G1 X19.279 Y92.664 E1358.65778
G1 X19.279 Y93.677 E1358.77836
G1 X35.824 Y110.222 E1361.56450
G1 X34.811 Y110.222 E1361.68508
G1 X19.279 Y94.690 E1364.30069
G1 X19.279 Y95.702 E1364.42127
G1 X33.799 Y110.222 E1366.86635
G1 X32.786 Y110.222 E1366.98693
G1 X19.279 Y96.715 E1369.26149
G1 X19.279 Y97.728 E1369.38207
G1 X31.773 Y110.222 E1371.48611
G1 X30.761 Y110.222 E1371.60669
G1 X19.279 Y98.740 E1373.54021
G1 X19.279 Y99.753 E1373.66078
G1 X29.748 Y110.222 E1375.42377
G1 X28.736 Y110.222 E1375.54435
G1 X19.279 Y100.765 E1377.13682
G1 X19.279 Y101.778 E1377.25740
G1 X27.723 Y110.222 E1378.67934
G1 X26.710 Y110.222 E1378.79992
G1 X19.279 Y102.791 E1380.05134
G1 X19.279 Y103.803 E1380.17192
G1 X25.698 Y110.222 E1381.25281
G1 X24.685 Y110.222 E1381.37339
G1 X19.279 Y104.816 E1382.28376
G1 X19.279 Y105.829 E1382.40434
G1 X23.673 Y110.222 E1383.14418
G1 X22.660 Y110.222 E1383.26476
G1 X19.279 Y106.841 E1383.83408
G1 X19.279 Y107.854 E1383.95466
G1 X21.647 Y110.222 E1384.35346
G1 X20.635 Y110.222 E1384.47404
G1 X19.279 Y108.866 E1384.70231
G1 X19.279 Y109.879 E1384.82289
G1 X19.622 Y110.222 E1384.88064
M104 S200 ; set temperature
M140 S40 ; wait for bed temperature to be reached
G1 Z0.500 F3300.000
G1 E1382.88064 F2400.00000
G92 E0
G1 X18.392 Y8.863 F3300.000
G1 E2.00000 F2400.00000
G1 X101.638 Y8.863 E4.27918 F2100.000
G1 X101.638 Y111.109 E7.07856
G1 X18.392 Y111.109 E9.35774
G1 X18.392 Y8.923 E12.15548
G1 X17.734 Y8.204 F3300.000
G1 X102.297 Y8.204 E14.47072 F2100.000
G1 X102.297 Y111.767 E17.30616
G1 X17.734 Y111.767 E19.62140
G1 X17.734 Y8.264 E22.45519
G1 X17.215 Y7.686 F3300.000
G1 X102.815 Y7.686 E23.80235 F1050.000
G1 X102.815 Y112.286 E25.44853
G1 X17.215 Y112.286 E26.79569
G1 X17.215 Y7.746 E28.44093
G1 X17.562 Y7.886 F3300.000
G1 E26.44093 F2400.00000
G92 E0
G1 X18.792 Y10.517 F3300.000
G1 E2.00000 F2400.00000
G1 X20.047 Y9.263 E2.04875 F1200.000
G1 X20.981 Y9.263 E2.07445
G1 X18.792 Y11.452 E2.15954
G1 X18.792 Y12.387 E2.18524
G1 X21.916 Y9.263 E2.30668
G1 X22.851 Y9.263 E2.33237
G1 X18.792 Y13.322 E2.49015
G1 X18.792 Y14.257 E2.51585
G1 X23.786 Y9.263 E2.70997
G1 X24.721 Y9.263 E2.73567
G1 X18.792 Y15.192 E2.96614
G1 X18.792 Y16.127 E2.99184
G1 X25.656 Y9.263 E3.25865
G1 X26.591 Y9.263 E3.28435
G1 X18.792 Y17.062 E3.58750
G1 X18.792 Y17.997 E3.61320
G1 X27.526 Y9.263 E3.95269
G1 X28.461 Y9.263 E3.97839
G1 X18.792 Y18.932 E4.35423
G1 X18.792 Y19.867 E4.37993
G1 X29.396 Y9.263 E4.79211
G1 X30.331 Y9.263 E4.81781
G1 X18.792 Y20.802 E5.26633
G1 X18.792 Y21.737 E5.29203
G1 X31.266 Y9.263 E5.77690
G1 X32.201 Y9.263 E5.80260
G1 X18.792 Y22.672 E6.32381
G1 X18.792 Y23.607 E6.34951
G1 X33.136 Y9.263 E6.90707
G1 X34.071 Y9.263 E6.93276
G1 X18.792 Y24.541 E7.52666
G1 X18.792 Y25.476 E7.55236
G1 X35.006 Y9.263 E8.18260
G1 X35.941 Y9.263 E8.20830
G1 X18.792 Y26.411 E8.87489
G1 X18.792 Y27.346 E8.90059
G1 X36.876 Y9.263 E9.60351
G1 X37.811 Y9.263 E9.62921
G1 X18.792 Y28.281 E10.36848
G1 X18.792 Y29.216 E10.39418
G1 X38.746 Y9.263 E11.16980
G1 X39.681 Y9.263 E11.19550
G1 X18.792 Y30.151 E12.00745
G1 X18.792 Y31.086 E12.03315
G1 X40.616 Y9.263 E12.88145
G1 X41.551 Y9.263 E12.90715
G1 X18.792 Y32.021 E13.79180
G1 X18.792 Y32.956 E13.81750
G1 X42.486 Y9.263 E14.73848
G1 X43.421 Y9.263 E14.76418
G1 X18.792 Y33.891 E15.72151
G1 X18.792 Y34.826 E15.74721
G1 X44.356 Y9.263 E16.74089
G1 X45.291 Y9.263 E16.76658
G1 X18.792 Y35.761 E17.79660
G1 X18.792 Y36.696 E17.82230
G1 X46.226 Y9.263 E18.88866
G1 X47.160 Y9.263 E18.91436
G1 X18.792 Y37.631 E20.01706
G1 X18.792 Y38.566 E20.04276
G1 X48.095 Y9.263 E21.18181
G1 X49.030 Y9.263 E21.20751
G1 X18.792 Y39.501 E22.38290
G1 X18.792 Y40.436 E22.40860
G1 X49.965 Y9.263 E23.62033
G1 X50.900 Y9.263 E23.64603
G1 X18.792 Y41.371 E24.89411
G1 X18.792 Y42.306 E24.91981
G1 X51.835 Y9.263 E26.20423
G1 X52.770 Y9.263 E26.22993
G1 X18.792 Y43.241 E27.55069
G1 X18.792 Y44.176 E27.57639
G1 X53.705 Y9.263 E28.93350
G1 X54.640 Y9.263 E28.95919
G1 X18.792 Y45.111 E30.35264
G1 X18.792 Y46.046 E30.37834
G1 X55.575 Y9.263 E31.80814
G1 X56.510 Y9.263 E31.83383
G1 X18.792 Y46.981 E33.29997
G1 X18.792 Y47.916 E33.32567
G1 X57.445 Y9.263 E34.82815
G1 X58.380 Y9.263 E34.85385
G1 X18.792 Y48.851 E36.39267
G1 X18.792 Y49.786 E36.41837
G1 X59.315 Y9.263 E37.99354
G1 X60.250 Y9.263 E38.01924
G1 X18.792 Y50.720 E39.63075
G1 X18.792 Y51.655 E39.65644
G1 X61.185 Y9.263 E41.30430
G1 X62.120 Y9.263 E41.33000
G1 X18.792 Y52.590 E43.01419
G1 X18.792 Y53.525 E43.03989
G1 X63.055 Y9.263 E44.76043
G1 X63.990 Y9.263 E44.78613
G1 X18.792 Y54.460 E46.54301
G1 X18.792 Y55.395 E46.56871
G1 X64.925 Y9.263 E48.36194
G1 X65.860 Y9.263 E48.38764
G1 X18.792 Y56.330 E50.21720
G1 X18.792 Y57.265 E50.24290
G1 X66.795 Y9.263 E52.10882
G1 X67.730 Y9.263 E52.13451
G1 X18.792 Y58.200 E54.03677
G1 X18.792 Y59.135 E54.06247
G1 X68.665 Y9.263 E56.00107
G1 X69.600 Y9.263 E56.02677
G1 X18.792 Y60.070 E58.00171
G1 X18.792 Y61.005 E58.02741
G1 X70.535 Y9.263 E60.03869
G1 X71.470 Y9.263 E60.06439
