; generated by Slic3r 1.2.9 on 2016-12-30 at 11:28:18

; external perimeters extrusion width = 0.40mm
; perimeters extrusion width = 0.68mm
; infill extrusion width = 1.28mm
; solid infill extrusion width = 0.68mm
; top infill extrusion width = 0.68mm

M107
M190 S50 ; set bed temperature
M104 S210 ; set temperature
G28 ; home all axes
G1 Z5 F5000 ; lift nozzle

M109 S210 ; wait for temperature to be reached
G21 ; set units to millimeters
G90 ; use absolute coordinates
M82 ; use absolute distances for extrusion
G92 E0
G1 Z0.400 F3300.000
G1 E-2.00000 F2400.00000
G92 E0
G1 X18.828 Y9.328 F3300.000
G1 E2.00000 F2400.00000
G1 X101.172 Y9.328 E11.77952 F1800.000
G1 X101.172 Y110.672 E23.81559
G1 X18.828 Y110.672 E33.59511
G1 X18.828 Y9.388 E45.62405
G1 X18.114 Y8.614 F3300.000
G1 X101.886 Y8.614 E55.57321 F1800.000
G1 X101.886 Y111.386 E67.77890
G1 X18.114 Y111.386 E77.72806
G1 X18.114 Y8.674 E89.92663
G1 X17.400 Y7.900 F3300.000
G1 X102.600 Y7.900 E100.04543 F1800.000
G1 X102.600 Y112.100 E112.42076
G1 X17.400 Y112.100 E122.53955
G1 X17.400 Y7.960 E134.90776
G1 X17.746 Y8.100 F3300.000
G1 X100.736 Y10.107 F3300.000
G1 X100.393 Y9.764 E134.96552 F1800.000
G1 X99.381 Y9.764 E135.08609
G1 X100.736 Y11.119 E135.31438
G1 X100.736 Y12.132 E135.43496
G1 X98.368 Y9.764 E135.83377
G1 X97.355 Y9.764 E135.95434
G1 X100.736 Y13.145 E136.52368
G1 X100.736 Y14.157 E136.64425
G1 X96.343 Y9.764 E137.38411
G1 X95.330 Y9.764 E137.50469
G1 X100.736 Y15.170 E138.41507
G1 X100.736 Y16.183 E138.53565
G1 X94.317 Y9.764 E139.61655
G1 X93.305 Y9.764 E139.73713
G1 X100.736 Y17.195 E140.98856
G1 X100.736 Y18.208 E141.10914
G1 X92.292 Y9.764 E142.53109
G1 X91.280 Y9.764 E142.65167
G1 X100.736 Y19.220 E144.24415
G1 X100.736 Y20.233 E144.36473
G1 X90.267 Y9.764 E146.12773
G1 X89.254 Y9.764 E146.24831
G1 X100.736 Y21.246 E148.18183
G1 X100.736 Y22.258 E148.30241
G1 X88.242 Y9.764 E150.40646
G1 X87.229 Y9.764 E150.52704
G1 X100.736 Y23.271 E152.80161
G1 X100.736 Y24.283 E152.92219
G1 X86.217 Y9.764 E155.36729
G1 X85.204 Y9.764 E155.48787
G1 X100.736 Y25.296 E158.10349
G1 X100.736 Y26.309 E158.22407
G1 X84.191 Y9.764 E161.01021
G1 X83.179 Y9.764 E161.13079
G1 X100.736 Y27.321 E164.08746
G1 X100.736 Y28.334 E164.20804
G1 X82.166 Y9.764 E167.33523
G1 X81.153 Y9.764 E167.45581
G1 X100.736 Y29.347 E170.75353
G1 X100.736 Y30.359 E170.87411
G1 X80.141 Y9.764 E174.34235
G1 X79.128 Y9.764 E174.46293
G1 X100.736 Y31.372 E178.10169
G1 X100.736 Y32.384 E178.22227
G1 X78.116 Y9.764 E182.03156
G1 X77.103 Y9.764 E182.15214
G1 X100.736 Y33.397 E186.13196
G1 X100.736 Y34.410 E186.25254
G1 X76.090 Y9.764 E190.40287
G1 X75.078 Y9.764 E190.52345
G1 X100.736 Y35.422 E194.84432
G1 X100.736 Y36.435 E194.96490
G1 X74.065 Y9.764 E199.45628
G1 X73.052 Y9.764 E199.57686
G1 X100.736 Y37.448 E204.23877
G1 X100.736 Y38.460 E204.35935
G1 X72.040 Y9.764 E209.19179
G1 X71.027 Y9.764 E209.31236
G1 X100.736 Y39.473 E214.31532
G1 X100.736 Y40.485 E214.43590
G1 X70.015 Y9.764 E219.60939
G1 X69.002 Y9.764 E219.72997
G1 X100.736 Y41.498 E225.07397
G1 X100.736 Y42.511 E225.19455
G1 X67.989 Y9.764 E230.70908
G1 X66.977 Y9.764 E230.82966
G1 X100.736 Y43.523 E236.51472
G1 X100.736 Y44.536 E236.63530
G1 X65.964 Y9.764 E242.49088
G1 X64.952 Y9.764 E242.61146
G1 X100.736 Y45.548 E248.63756
G1 X100.736 Y46.561 E248.75814
G1 X63.939 Y9.764 E254.95477
G1 X62.926 Y9.764 E255.07535
G1 X100.736 Y47.574 E261.44250
G1 X100.736 Y48.586 E261.56308
G1 X61.914 Y9.764 E268.10075
G1 X60.901 Y9.764 E268.22133
G1 X100.736 Y49.599 E274.92953
G1 X100.736 Y50.612 E275.05011
G1 X59.888 Y9.764 E281.92884
G1 X58.876 Y9.764 E282.04942
G1 X100.736 Y51.624 E289.09866
G1 X100.736 Y52.637 E289.21924
G1 X57.863 Y9.764 E296.43902
G1 X56.851 Y9.764 E296.55959
G1 X100.736 Y53.649 E303.94989
G1 X100.736 Y54.662 E304.07047
G1 X55.838 Y9.764 E311.63129
G1 X54.825 Y9.764 E311.75187
G1 X100.736 Y55.675 E319.48321
G1 X100.736 Y56.687 E319.60379
G1 X53.813 Y9.764 E327.50566
G1 X52.800 Y9.764 E327.62624
G1 X100.736 Y57.700 E335.69864
G1 X100.736 Y58.713 E335.81921
G1 X51.787 Y9.764 E344.06213
G1 X50.775 Y9.764 E344.18271
G1 X100.736 Y59.725 E352.59615
G1 X100.736 Y60.738 E352.71673
G1 X49.762 Y9.764 E361.30070
G1 X48.750 Y9.764 E361.42128
G1 X100.736 Y61.750 E370.17577
G1 X100.736 Y62.763 E370.29634
G1 X47.737 Y9.764 E379.22136
G1 X46.724 Y9.764 E379.34194
G1 X100.736 Y63.776 E388.43748
G1 X100.736 Y64.788 E388.55805
G1 X45.712 Y9.764 E397.82412
G1 X44.699 Y9.764 E397.94470
G1 X100.736 Y65.801 E407.38128
G1 X100.736 Y66.813 E407.50186
G1 X43.687 Y9.764 E417.10897
G1 X42.674 Y9.764 E417.22955
G1 X100.736 Y67.826 E427.00718
G1 X100.736 Y68.839 E427.12776
G1 X41.661 Y9.764 E437.07592
G1 X40.649 Y9.764 E437.19650
G1 X100.736 Y69.851 E447.31518
G1 X100.736 Y70.864 E447.43576
G1 X39.636 Y9.764 E457.72497
G1 X38.623 Y9.764 E457.84555
G1 X100.736 Y71.877 E468.30528
G1 X100.736 Y72.889 E468.42586
G1 X37.611 Y9.764 E479.05611
G1 X36.598 Y9.764 E479.17669
G1 X100.736 Y73.902 E489.97747
G1 X100.736 Y74.914 E490.09805
G1 X35.586 Y9.764 E501.06935
G1 X34.573 Y9.764 E501.18993
G1 X100.736 Y75.927 E512.33176
G1 X100.736 Y76.940 E512.45234
G1 X33.560 Y9.764 E523.76469
G1 X32.548 Y9.764 E523.88527
G1 X100.736 Y77.952 E535.36815
G1 X100.736 Y78.965 E535.48872
G1 X31.535 Y9.764 E547.14212
G1 X30.522 Y9.764 E547.26270
G1 X100.736 Y79.978 E559.08663
G1 X100.736 Y80.990 E559.20721
G1 X29.510 Y9.764 E571.20165
G1 X28.497 Y9.764 E571.32223
G1 X100.736 Y82.003 E583.48721
G1 X100.736 Y83.015 E583.60778
G1 X27.485 Y9.764 E595.94328
G1 X26.472 Y9.764 E596.06386
G1 X100.736 Y84.028 E608.56988
G1 X100.736 Y85.041 E608.69046
G1 X25.459 Y9.764 E621.36700
G1 X24.447 Y9.764 E621.48758
G1 X100.736 Y86.053 E634.33465
G1 X100.736 Y87.066 E634.45523
G1 X23.434 Y9.764 E647.47282
G1 X22.422 Y9.764 E647.59340
G1 X100.736 Y88.078 E660.78152
G1 X100.736 Y89.091 E660.90210
G1 X21.409 Y9.764 E674.26074
G1 X20.396 Y9.764 E674.38132
G1 X100.736 Y90.104 E687.91048
G1 X100.736 Y91.116 E688.03106
G1 X19.384 Y9.764 E701.73075
G1 X19.264 Y10.657 E701.83801
G1 X100.736 Y92.129 E715.55789
G1 X100.736 Y93.142 E715.67846
G1 X19.264 Y11.669 E729.39834
G1 X19.264 Y12.682 E729.51891
G1 X100.736 Y94.154 E743.23879
G1 X100.736 Y95.167 E743.35936
G1 X19.264 Y13.694 E757.07924
G1 X19.264 Y14.707 E757.19982
G1 X100.736 Y96.179 E770.91969
G1 X100.736 Y97.192 E771.04027
G1 X19.264 Y15.720 E784.76014
G1 X19.264 Y16.732 E784.88072
G1 X100.736 Y98.205 E798.60059
G1 X100.736 Y99.217 E798.72117
G1 X19.264 Y17.745 E812.44104
G1 X19.264 Y18.758 E812.56162
G1 X100.736 Y100.230 E826.28149
G1 X100.736 Y101.243 E826.40207
G1 X19.264 Y19.770 E840.12194
G1 X19.264 Y20.783 E840.24252
G1 X100.736 Y102.255 E853.96239
G1 X100.736 Y103.268 E854.08297
G1 X19.264 Y21.795 E867.80284
G1 X19.264 Y22.808 E867.92342
G1 X100.736 Y104.280 E881.64329
G1 X100.736 Y105.293 E881.76387
G1 X19.264 Y23.821 E895.48374
G1 X19.264 Y24.833 E895.60432
G1 X100.736 Y106.306 E909.32419
G1 X100.736 Y107.318 E909.44477
G1 X19.264 Y25.846 E923.16464
G1 X19.264 Y26.859 E923.28522
G1 X100.736 Y108.331 E937.00509
G1 X100.736 Y109.343 E937.12567
G1 X19.264 Y27.871 E950.84554
G1 X19.264 Y28.884 E950.96612
G1 X100.616 Y110.236 E964.66580
G1 X99.604 Y110.236 E964.78638
G1 X19.264 Y29.896 E978.31553
G1 X19.264 Y30.909 E978.43611
G1 X98.591 Y110.236 E991.79474
G1 X97.578 Y110.236 E991.91532
G1 X19.264 Y31.922 E1005.10343
G1 X19.264 Y32.934 E1005.22401
G1 X96.566 Y110.236 E1018.24159
G1 X95.553 Y110.236 E1018.36217
G1 X19.264 Y33.947 E1031.20922
G1 X19.264 Y34.959 E1031.32980
G1 X94.541 Y110.236 E1044.00634
G1 X93.528 Y110.236 E1044.12692
G1 X19.264 Y35.972 E1056.63293
G1 X19.264 Y36.985 E1056.75350
G1 X92.515 Y110.236 E1069.08899
G1 X91.503 Y110.236 E1069.20957
G1 X19.264 Y37.997 E1081.37453
G1 X19.264 Y39.010 E1081.49511
G1 X90.490 Y110.236 E1093.48955
G1 X89.477 Y110.236 E1093.61013
G1 X19.264 Y40.023 E1105.43404
G1 X19.264 Y41.035 E1105.55462
G1 X88.465 Y110.236 E1117.20801
G1 X87.452 Y110.236 E1117.32859
G1 X19.264 Y42.048 E1128.81145
G1 X19.264 Y43.060 E1128.93203
G1 X86.440 Y110.236 E1140.24437
G1 X85.427 Y110.236 E1140.36495
G1 X19.264 Y44.073 E1151.50677
G1 X19.264 Y45.086 E1151.62735
G1 X84.414 Y110.236 E1162.59864
G1 X83.402 Y110.236 E1162.71922
G1 X19.264 Y46.098 E1173.51999
G1 X19.264 Y47.111 E1173.64056
G1 X82.389 Y110.236 E1184.27081
G1 X81.376 Y110.236 E1184.39139
G1 X19.264 Y48.123 E1194.85111
G1 X19.264 Y49.136 E1194.97169
G1 X80.364 Y110.236 E1205.26088
G1 X79.351 Y110.236 E1205.38146
G1 X19.264 Y50.149 E1215.50013
G1 X19.264 Y51.161 E1215.62071
G1 X78.339 Y110.236 E1225.56886
G1 X77.326 Y110.236 E1225.68944
G1 X19.264 Y52.174 E1235.46706
G1 X19.264 Y53.187 E1235.58764
G1 X76.313 Y110.236 E1245.19474
G1 X75.301 Y110.236 E1245.31532
G1 X19.264 Y54.199 E1254.75190
G1 X19.264 Y55.212 E1254.87247
G1 X74.288 Y110.236 E1264.13853
G1 X73.276 Y110.236 E1264.25910
G1 X19.264 Y56.224 E1273.35463
G1 X19.264 Y57.237 E1273.47521
G1 X72.263 Y110.236 E1282.40021
G1 X71.250 Y110.236 E1282.52079
G1 X19.264 Y58.250 E1291.27527
G1 X19.264 Y59.262 E1291.39585
G1 X70.238 Y110.236 E1299.97981
G1 X69.225 Y110.236 E1300.10038
G1 X19.264 Y60.275 E1308.51382
G1 X19.264 Y61.288 E1308.63439
G1 X68.212 Y110.236 E1316.87730
G1 X67.200 Y110.236 E1316.99788
G1 X19.264 Y62.300 E1325.07026
G1 X19.264 Y63.313 E1325.19084
G1 X66.187 Y110.236 E1333.09270
G1 X65.175 Y110.236 E1333.21328
G1 X19.264 Y64.325 E1340.94461
G1 X19.264 Y65.338 E1341.06519
G1 X64.162 Y110.236 E1348.62600
G1 X63.149 Y110.236 E1348.74658
G1 X19.264 Y66.351 E1356.13687
G1 X19.264 Y67.363 E1356.25744
G1 X62.137 Y110.236 E1363.47721
G1 X61.124 Y110.236 E1363.59779
G1 X19.264 Y68.376 E1370.64702
G1 X19.264 Y69.388 E1370.76760
G1 X60.112 Y110.236 E1377.64632
G1 X59.099 Y110.236 E1377.76689
G1 X19.264 Y70.401 E1384.47508
G1 X19.264 Y71.414 E1384.59566
G1 X58.086 Y110.236 E1391.13333
G1 X57.074 Y110.236 E1391.25391
G1 X19.264 Y72.426 E1397.62105
G1 X19.264 Y73.439 E1397.74163
G1 X56.061 Y110.236 E1403.93825
G1 X55.048 Y110.236 E1404.05882
G1 X19.264 Y74.452 E1410.08492
G1 X19.264 Y75.464 E1410.20550
G1 X54.036 Y110.236 E1416.06106
G1 X53.023 Y110.236 E1416.18164
G1 X19.264 Y76.477 E1421.86669
G1 X19.264 Y77.489 E1421.98727
G1 X52.011 Y110.236 E1427.50179
G1 X50.998 Y110.236 E1427.62237
G1 X19.264 Y78.502 E1432.96636
G1 X19.264 Y79.515 E1433.08694
G1 X49.985 Y110.236 E1438.26042
G1 X48.973 Y110.236 E1438.38099
G1 X19.264 Y80.527 E1443.38394
G1 X19.264 Y81.540 E1443.50452
G1 X47.960 Y110.236 E1448.33695
G1 X46.947 Y110.236 E1448.45752
G1 X19.264 Y82.553 E1453.11942
G1 X19.264 Y83.565 E1453.24000
G1 X45.935 Y110.236 E1457.73138
G1 X44.922 Y110.236 E1457.85196
G1 X19.264 Y84.578 E1462.17281
G1 X19.264 Y85.590 E1462.29339
G1 X43.910 Y110.236 E1466.44372
G1 X42.897 Y110.236 E1466.56430
G1 X19.264 Y86.603 E1470.54410
G1 X19.264 Y87.616 E1470.66468
G1 X41.884 Y110.236 E1474.47396
G1 X40.872 Y110.236 E1474.59454
G1 X19.264 Y88.628 E1478.23329
G1 X19.264 Y89.641 E1478.35387
G1 X39.859 Y110.236 E1481.82210
G1 X38.847 Y110.236 E1481.94268
G1 X19.264 Y90.653 E1485.24039
G1 X19.264 Y91.666 E1485.36097
G1 X37.834 Y110.236 E1488.48815
G1 X36.821 Y110.236 E1488.60873
G1 X19.264 Y92.679 E1491.56539
G1 X19.264 Y93.691 E1491.68597
G1 X35.809 Y110.236 E1494.47210
G1 X34.796 Y110.236 E1494.59268
G1 X19.264 Y94.704 E1497.20829
G1 X19.264 Y95.717 E1497.32887
G1 X33.783 Y110.236 E1499.77396
G1 X32.771 Y110.236 E1499.89453
G1 X19.264 Y96.729 E1502.16910
G1 X19.264 Y97.742 E1502.28968
G1 X31.758 Y110.236 E1504.39371
G1 X30.746 Y110.236 E1504.51429
G1 X19.264 Y98.754 E1506.44781
G1 X19.264 Y99.767 E1506.56839
G1 X29.733 Y110.236 E1508.33138
G1 X28.720 Y110.236 E1508.45195
G1 X19.264 Y100.780 E1510.04442
G1 X19.264 Y101.792 E1510.16500
G1 X27.708 Y110.236 E1511.58694
G1 X26.695 Y110.236 E1511.70752
G1 X19.264 Y102.805 E1512.95894
G1 X19.264 Y103.818 E1513.07952
G1 X25.682 Y110.236 E1514.16041
G1 X24.670 Y110.236 E1514.28099
G1 X19.264 Y104.830 E1515.19136
G1 X19.264 Y105.843 E1515.31194
G1 X23.657 Y110.236 E1516.05178
G1 X22.645 Y110.236 E1516.17236
G1 X19.264 Y106.855 E1516.74168
G1 X19.264 Y107.868 E1516.86226
G1 X21.632 Y110.236 E1517.26106
G1 X20.619 Y110.236 E1517.38164
G1 X19.264 Y108.881 E1517.60991
G1 X19.264 Y109.893 E1517.73049
G1 X19.607 Y110.236 E1517.78824
M104 S205 ; set temperature
M140 S40 ; wait for bed temperature to be reached
G1 Z0.500 F3300.000
G1 X18.377 Y8.877 F3300.000
G1 X101.623 Y8.877 E1520.06742 F2100.000
G1 X101.623 Y111.123 E1522.86680
G1 X18.377 Y111.123 E1525.14598
G1 X18.377 Y8.937 E1527.94371
G1 X17.719 Y8.219 F3300.000
G1 X102.281 Y8.219 E1530.25895 F2100.000
G1 X102.281 Y111.781 E1533.09439
G1 X17.719 Y111.781 E1535.40963
G1 X17.719 Y8.279 E1538.24343
G1 X17.200 Y7.700 F3300.000
G1 X102.800 Y7.700 E1539.59059 F1050.000
G1 X102.800 Y112.300 E1541.23677
G1 X17.200 Y112.300 E1542.58393
G1 X17.200 Y7.760 E1544.22917
G1 X17.546 Y7.900 F3300.000
G1 X18.777 Y10.531 F3300.000
G1 X20.031 Y9.277 E1544.27792 F1200.000
G1 X20.966 Y9.277 E1544.30361
G1 X18.777 Y11.466 E1544.38871
G1 X18.777 Y12.401 E1544.41441
G1 X21.901 Y9.277 E1544.53584
G1 X22.836 Y9.277 E1544.56154
G1 X18.777 Y13.336 E1544.71932
G1 X18.777 Y14.271 E1544.74502
G1 X23.771 Y9.277 E1544.93914
G1 X24.706 Y9.277 E1544.96484
G1 X18.777 Y15.206 E1545.19531
G1 X18.777 Y16.141 E1545.22100
G1 X25.641 Y9.277 E1545.48781
G1 X26.576 Y9.277 E1545.51351
G1 X18.777 Y17.076 E1545.81666
G1 X18.777 Y18.011 E1545.84236
G1 X27.511 Y9.277 E1546.18186
G1 X28.446 Y9.277 E1546.20756
G1 X18.777 Y18.946 E1546.58340
G1 X18.777 Y19.881 E1546.60909
G1 X29.381 Y9.277 E1547.02128
G1 X30.316 Y9.277 E1547.04697
G1 X18.777 Y20.816 E1547.49550
G1 X18.777 Y21.751 E1547.52120
G1 X31.251 Y9.277 E1548.00607
G1 X32.186 Y9.277 E1548.03177
G1 X18.777 Y22.686 E1548.55298
G1 X18.777 Y23.621 E1548.57868
G1 X33.121 Y9.277 E1549.13623
G1 X34.056 Y9.277 E1549.16193
G1 X18.777 Y24.556 E1549.75583
G1 X18.777 Y25.491 E1549.78153
G1 X34.991 Y9.277 E1550.41177
G1 X35.926 Y9.277 E1550.43747
G1 X18.777 Y26.426 E1551.10405
G1 X18.777 Y27.361 E1551.12975
G1 X36.861 Y9.277 E1551.83268
G1 X37.796 Y9.277 E1551.85838
G1 X18.777 Y28.296 E1552.59765
G1 X18.777 Y29.231 E1552.62335
G1 X38.731 Y9.277 E1553.39896
G1 X39.665 Y9.277 E1553.42466
G1 X18.777 Y30.165 E1554.23662
G1 X18.777 Y31.100 E1554.26232
G1 X40.600 Y9.277 E1555.11062
G1 X41.535 Y9.277 E1555.13632
G1 X18.777 Y32.035 E1556.02096
G1 X18.777 Y32.970 E1556.04666
G1 X42.470 Y9.277 E1556.96765
G1 X43.405 Y9.277 E1556.99335
G1 X18.777 Y33.905 E1557.95068
G1 X18.777 Y34.840 E1557.97638
G1 X44.340 Y9.277 E1558.97005
G1 X45.275 Y9.277 E1558.99575
G1 X18.777 Y35.775 E1560.02577
G1 X18.777 Y36.710 E1560.05147
G1 X46.210 Y9.277 E1561.11783
G1 X47.145 Y9.277 E1561.14353
G1 X18.777 Y37.645 E1562.24623
G1 X18.777 Y38.580 E1562.27193
G1 X48.080 Y9.277 E1563.41098
G1 X49.015 Y9.277 E1563.43667
G1 X18.777 Y39.515 E1564.61206
G1 X18.777 Y40.450 E1564.63776
G1 X49.950 Y9.277 E1565.84950
G1 X50.885 Y9.277 E1565.87520
G1 X18.777 Y41.385 E1567.12327
G1 X18.777 Y42.320 E1567.14897
G1 X51.820 Y9.277 E1568.43339
G1 X52.755 Y9.277 E1568.45909
G1 X18.777 Y43.255 E1569.77985
G1 X18.777 Y44.190 E1569.80555
G1 X53.690 Y9.277 E1571.16266
G1 X54.625 Y9.277 E1571.18836
G1 X18.777 Y45.125 E1572.58181
G1 X18.777 Y46.060 E1572.60751
G1 X55.560 Y9.277 E1574.03730
G1 X56.495 Y9.277 E1574.06300
G1 X18.777 Y46.995 E1575.52914
G1 X18.777 Y47.930 E1575.55483
G1 X57.430 Y9.277 E1577.05731
G1 X58.365 Y9.277 E1577.08301
G1 X18.777 Y48.865 E1578.62184
G1 X18.777 Y49.800 E1578.64754
G1 X59.300 Y9.277 E1580.22270
G1 X60.235 Y9.277 E1580.24840
G1 X18.777 Y50.735 E1581.85991
G1 X18.777 Y51.670 E1581.88561
G1 X61.170 Y9.277 E1583.53346
G1 X62.105 Y9.277 E1583.55916
G1 X18.777 Y52.605 E1585.24336
G1 X18.777 Y53.540 E1585.26906
G1 X63.040 Y9.277 E1586.98959
G1 X63.975 Y9.277 E1587.01529
G1 X18.777 Y54.475 E1588.77218
G1 X18.777 Y55.410 E1588.79787
G1 X64.910 Y9.277 E1590.59110
G1 X65.844 Y9.277 E1590.61680
G1 X18.777 Y56.344 E1592.44637
G1 X18.777 Y57.279 E1592.47207
G1 X66.779 Y9.277 E1594.33798
G1 X67.714 Y9.277 E1594.36368
G1 X18.777 Y58.214 E1596.26593
