; generated by Slic3r 1.2.9 on 2016-12-30 at 15:41:06

; external perimeters extrusion width = 0.40mm
; perimeters extrusion width = 0.68mm
; infill extrusion width = 1.28mm
; solid infill extrusion width = 0.68mm
; top infill extrusion width = 0.68mm

M107
M190 S50 ; set bed temperature
M104 S210 ; set temperature
G28 ; home all axes
G1 Z5 F5000 ; lift nozzle

M109 S210 ; wait for temperature to be reached
G21 ; set units to millimeters
G90 ; use absolute coordinates
M82 ; use absolute distances for extrusion
G92 E0
G1 Z0.400 F3300.000
G1 E-2.00000 F2400.00000
G92 E0
G1 X18.828 Y8.328 F3300.000
G1 E2.00000 F2400.00000
G1 X101.172 Y8.328 E11.77952 F1800.000
G1 X101.172 Y109.672 E23.81559
G1 X18.828 Y109.672 E33.59511
G1 X18.828 Y8.388 E45.62405
G1 X18.114 Y7.614 F3300.000
G1 X101.886 Y7.614 E55.57321 F1800.000
G1 X101.886 Y110.386 E67.77890
G1 X18.114 Y110.386 E77.72806
G1 X18.114 Y7.674 E89.92663
G1 X17.400 Y6.900 F3300.000
G1 X102.600 Y6.900 E100.04543 F1800.000
G1 X102.600 Y111.100 E112.42076
G1 X17.400 Y111.100 E122.53955
G1 X17.400 Y6.960 E134.90776
G1 X17.746 Y7.100 F3300.000
G1 E132.90776 F2400.00000
G92 E0
G1 X100.736 Y9.107 F3300.000
G1 E2.00000 F2400.00000
G1 X100.393 Y8.764 E2.05776 F1800.000
G1 X99.381 Y8.764 E2.17834
G1 X100.736 Y10.119 E2.40662
G1 X100.736 Y11.132 E2.52720
G1 X98.368 Y8.764 E2.92601
G1 X97.355 Y8.764 E3.04659
G1 X100.736 Y12.145 E3.61592
G1 X100.736 Y13.157 E3.73650
G1 X96.343 Y8.764 E4.47635
G1 X95.330 Y8.764 E4.59693
G1 X100.736 Y14.170 E5.50731
G1 X100.736 Y15.183 E5.62789
G1 X94.317 Y8.764 E6.70880
G1 X93.305 Y8.764 E6.82938
G1 X100.736 Y16.195 E8.08080
G1 X100.736 Y17.208 E8.20138
G1 X92.292 Y8.764 E9.62334
G1 X91.280 Y8.764 E9.74391
G1 X100.736 Y18.220 E11.33639
G1 X100.736 Y19.233 E11.45697
G1 X90.267 Y8.764 E13.21997
G1 X89.254 Y8.764 E13.34055
G1 X100.736 Y20.246 E15.27408
G1 X100.736 Y21.258 E15.39465
G1 X88.242 Y8.764 E17.49870
G1 X87.229 Y8.764 E17.61928
G1 X100.736 Y22.271 E19.89386
G1 X100.736 Y23.283 E20.01443
G1 X86.217 Y8.764 E22.45953
G1 X85.204 Y8.764 E22.58011
G1 X100.736 Y24.296 E25.19573
G1 X100.736 Y25.309 E25.31631
G1 X84.191 Y8.764 E28.10246
G1 X83.179 Y8.764 E28.22304
G1 X100.736 Y26.321 E31.17971
G1 X100.736 Y27.334 E31.30028
G1 X82.166 Y8.764 E34.42748
G1 X81.153 Y8.764 E34.54806
G1 X100.736 Y28.347 E37.84578
G1 X100.736 Y29.359 E37.96635
G1 X80.141 Y8.764 E41.43460
G1 X79.128 Y8.764 E41.55518
G1 X100.736 Y30.372 E45.19394
G1 X100.736 Y31.384 E45.31452
G1 X78.116 Y8.764 E49.12381
G1 X77.103 Y8.764 E49.24439
G1 X100.736 Y32.397 E53.22421
G1 X100.736 Y33.410 E53.34478
G1 X76.090 Y8.764 E57.49512
G1 X75.078 Y8.764 E57.61570
G1 X100.736 Y34.422 E61.93657
G1 X100.736 Y35.435 E62.05714
G1 X74.065 Y8.764 E66.54853
G1 X73.052 Y8.764 E66.66911
G1 X100.736 Y36.448 E71.33102
G1 X100.736 Y37.460 E71.45160
G1 X72.040 Y8.764 E76.28404
G1 X71.027 Y8.764 E76.40461
G1 X100.736 Y38.473 E81.40757
G1 X100.736 Y39.485 E81.52815
G1 X70.015 Y8.764 E86.70164
G1 X69.002 Y8.764 E86.82222
G1 X100.736 Y40.498 E92.16622
G1 X100.736 Y41.511 E92.28680
G1 X67.989 Y8.764 E97.80133
G1 X66.977 Y8.764 E97.92191
G1 X100.736 Y42.523 E103.60697
G1 X100.736 Y43.536 E103.72755
G1 X65.964 Y8.764 E109.58313
G1 X64.952 Y8.764 E109.70371
G1 X100.736 Y44.548 E115.72981
G1 X100.736 Y45.561 E115.85039
G1 X63.939 Y8.764 E122.04702
G1 X62.926 Y8.764 E122.16760
G1 X100.736 Y46.574 E128.53475
G1 X100.736 Y47.586 E128.65533
G1 X61.914 Y8.764 E135.19301
G1 X60.901 Y8.764 E135.31359
G1 X100.736 Y48.599 E142.02179
G1 X100.736 Y49.612 E142.14237
G1 X59.888 Y8.764 E149.02109
G1 X58.876 Y8.764 E149.14167
G1 X100.736 Y50.624 E156.19092
G1 X100.736 Y51.637 E156.31150
G1 X57.863 Y8.764 E163.53127
G1 X56.851 Y8.764 E163.65185
G1 X100.736 Y52.649 E171.04215
G1 X100.736 Y53.662 E171.16273
G1 X55.838 Y8.764 E178.72355
G1 X54.825 Y8.764 E178.84413
G1 X100.736 Y54.675 E186.57547
G1 X100.736 Y55.687 E186.69605
G1 X53.813 Y8.764 E194.59792
G1 X52.800 Y8.764 E194.71850
G1 X100.736 Y56.700 E202.79090
G1 X100.736 Y57.713 E202.91147
G1 X51.787 Y8.764 E211.15439
G1 X50.775 Y8.764 E211.27497
G1 X100.736 Y58.725 E219.68841
G1 X100.736 Y59.738 E219.80899
G1 X49.762 Y8.764 E228.39296
G1 X48.750 Y8.764 E228.51354
G1 X100.736 Y60.750 E237.26803
G1 X100.736 Y61.763 E237.38861
G1 X47.737 Y8.764 E246.31362
G1 X46.724 Y8.764 E246.43420
G1 X100.736 Y62.776 E255.52974
G1 X100.736 Y63.788 E255.65032
G1 X45.712 Y8.764 E264.91638
G1 X44.699 Y8.764 E265.03696
G1 X100.736 Y64.801 E274.47355
G1 X100.736 Y65.813 E274.59413
G1 X43.687 Y8.764 E284.20124
G1 X42.674 Y8.764 E284.32182
G1 X100.736 Y66.826 E294.09945
G1 X100.736 Y67.839 E294.22003
G1 X41.661 Y8.764 E304.16819
G1 X40.649 Y8.764 E304.28877
G1 X100.736 Y68.851 E314.40745
G1 X100.736 Y69.864 E314.52803
G1 X39.636 Y8.764 E324.81724
G1 X38.623 Y8.764 E324.93782
G1 X100.736 Y70.877 E335.39755
G1 X100.736 Y71.889 E335.51813
G1 X37.611 Y8.764 E346.14839
G1 X36.598 Y8.764 E346.26897
G1 X100.736 Y72.902 E357.06975
G1 X100.736 Y73.914 E357.19033
G1 X35.586 Y8.764 E368.16163
G1 X34.573 Y8.764 E368.28221
G1 X100.736 Y74.927 E379.42404
G1 X100.736 Y75.940 E379.54462
G1 X33.560 Y8.764 E390.85697
G1 X32.548 Y8.764 E390.97755
G1 X100.736 Y76.952 E402.46043
G1 X100.736 Y77.965 E402.58100
G1 X31.535 Y8.764 E414.23441
G1 X30.522 Y8.764 E414.35498
G1 X100.736 Y78.978 E426.17891
G1 X100.736 Y79.990 E426.29949
G1 X29.510 Y8.764 E438.29394
G1 X28.497 Y8.764 E438.41452
G1 X100.736 Y81.003 E450.57949
G1 X100.736 Y82.015 E450.70007
G1 X27.485 Y8.764 E463.03557
G1 X26.472 Y8.764 E463.15615
G1 X100.736 Y83.028 E475.66217
G1 X100.736 Y84.041 E475.78275
G1 X25.459 Y8.764 E488.45929
G1 X24.447 Y8.764 E488.57987
G1 X100.736 Y85.053 E501.42694
G1 X100.736 Y86.066 E501.54752
G1 X23.434 Y8.764 E514.56512
G1 X22.422 Y8.764 E514.68569
G1 X100.736 Y87.078 E527.87381
G1 X100.736 Y88.091 E527.99439
G1 X21.409 Y8.764 E541.35303
G1 X20.396 Y8.764 E541.47361
G1 X100.736 Y89.104 E555.00278
G1 X100.736 Y90.116 E555.12336
G1 X19.384 Y8.764 E568.82305
G1 X19.264 Y9.657 E568.93031
G1 X100.736 Y91.129 E582.65018
G1 X100.736 Y92.142 E582.77076
G1 X19.264 Y10.669 E596.49064
G1 X19.264 Y11.682 E596.61121
G1 X100.736 Y93.154 E610.33109
G1 X100.736 Y94.167 E610.45167
G1 X19.264 Y12.694 E624.17154
G1 X19.264 Y13.707 E624.29212
G1 X100.736 Y95.179 E638.01199
G1 X100.736 Y96.192 E638.13257
G1 X19.264 Y14.720 E651.85244
G1 X19.264 Y15.732 E651.97302
G1 X100.736 Y97.205 E665.69289
G1 X100.736 Y98.217 E665.81347
G1 X19.264 Y16.745 E679.53334
G1 X19.264 Y17.758 E679.65392
G1 X100.736 Y99.230 E693.37380
G1 X100.736 Y100.243 E693.49438
G1 X19.264 Y18.770 E707.21425
G1 X19.264 Y19.783 E707.33483
G1 X100.736 Y101.255 E721.05470
G1 X100.736 Y102.268 E721.17528
G1 X19.264 Y20.795 E734.89515
G1 X19.264 Y21.808 E735.01573
G1 X100.736 Y103.280 E748.73560
G1 X100.736 Y104.293 E748.85618
G1 X19.264 Y22.821 E762.57605
G1 X19.264 Y23.833 E762.69663
G1 X100.736 Y105.306 E776.41651
G1 X100.736 Y106.318 E776.53708
G1 X19.264 Y24.846 E790.25696
G1 X19.264 Y25.859 E790.37754
G1 X100.736 Y107.331 E804.09741
G1 X100.736 Y108.343 E804.21799
G1 X19.264 Y26.871 E817.93786
G1 X19.264 Y27.884 E818.05844
G1 X100.616 Y109.236 E831.75812
G1 X99.604 Y109.236 E831.87870
G1 X19.264 Y28.896 E845.40785
G1 X19.264 Y29.909 E845.52843
G1 X98.591 Y109.236 E858.88706
G1 X97.578 Y109.236 E859.00764
G1 X19.264 Y30.922 E872.19575
G1 X19.264 Y31.934 E872.31633
G1 X96.566 Y109.236 E885.33391
G1 X95.553 Y109.236 E885.45449
G1 X19.264 Y32.947 E898.30155
G1 X19.264 Y33.959 E898.42213
G1 X94.541 Y109.236 E911.09867
G1 X93.528 Y109.236 E911.21925
G1 X19.264 Y34.972 E923.72526
G1 X19.264 Y35.985 E923.84584
G1 X92.515 Y109.236 E936.18132
G1 X91.503 Y109.236 E936.30190
G1 X19.264 Y36.997 E948.46686
G1 X19.264 Y38.010 E948.58744
G1 X90.490 Y109.236 E960.58188
G1 X89.477 Y109.236 E960.70246
G1 X19.264 Y39.023 E972.52638
G1 X19.264 Y40.035 E972.64695
G1 X88.465 Y109.236 E984.30034
G1 X87.452 Y109.236 E984.42092
G1 X19.264 Y41.048 E995.90379
G1 X19.264 Y42.060 E996.02437
G1 X86.440 Y109.236 E1007.33671
G1 X85.427 Y109.236 E1007.45729
G1 X19.264 Y43.073 E1018.59911
G1 X19.264 Y44.086 E1018.71969
G1 X84.414 Y109.236 E1029.69098
G1 X83.402 Y109.236 E1029.81156
G1 X19.264 Y45.098 E1040.61233
G1 X19.264 Y46.111 E1040.73291
G1 X82.389 Y109.236 E1051.36315
G1 X81.376 Y109.236 E1051.48373
G1 X19.264 Y47.123 E1061.94345
G1 X19.264 Y48.136 E1062.06403
G1 X80.364 Y109.236 E1072.35323
G1 X79.351 Y109.236 E1072.47381
G1 X19.264 Y49.149 E1082.59248
G1 X19.264 Y50.161 E1082.71306
G1 X78.339 Y109.236 E1092.66121
G1 X77.326 Y109.236 E1092.78179
G1 X19.264 Y51.174 E1102.55941
G1 X19.264 Y52.187 E1102.67999
G1 X76.313 Y109.236 E1112.28709
G1 X75.301 Y109.236 E1112.40767
G1 X19.264 Y53.199 E1121.84425
G1 X19.264 Y54.212 E1121.96483
G1 X74.288 Y109.236 E1131.23088
G1 X73.276 Y109.236 E1131.35146
G1 X19.264 Y55.224 E1140.44699
G1 X19.264 Y56.237 E1140.56757
G1 X72.263 Y109.236 E1149.49257
G1 X71.250 Y109.236 E1149.61315
G1 X19.264 Y57.250 E1158.36763
G1 X19.264 Y58.262 E1158.48821
G1 X70.238 Y109.236 E1167.07216
G1 X69.225 Y109.236 E1167.19274
G1 X19.264 Y59.275 E1175.60618
G1 X19.264 Y60.288 E1175.72675
G1 X68.212 Y109.236 E1183.96966
G1 X67.200 Y109.236 E1184.09024
G1 X19.264 Y61.300 E1192.16262
G1 X19.264 Y62.313 E1192.28320
G1 X66.187 Y109.236 E1200.18506
G1 X65.175 Y109.236 E1200.30564
G1 X19.264 Y63.325 E1208.03698
G1 X19.264 Y64.338 E1208.15756
G1 X64.162 Y109.236 E1215.71837
G1 X63.149 Y109.236 E1215.83895
G1 X19.264 Y65.351 E1223.22923
G1 X19.264 Y66.363 E1223.34981
G1 X62.137 Y109.236 E1230.56957
G1 X61.124 Y109.236 E1230.69015
G1 X19.264 Y67.376 E1237.73939
G1 X19.264 Y68.388 E1237.85997
G1 X60.112 Y109.236 E1244.73869
G1 X59.099 Y109.236 E1244.85926
G1 X19.264 Y69.401 E1251.56745
G1 X19.264 Y70.414 E1251.68803
G1 X58.086 Y109.236 E1258.22570
G1 X57.074 Y109.236 E1258.34628
G1 X19.264 Y71.426 E1264.71342
G1 X19.264 Y72.439 E1264.83400
G1 X56.061 Y109.236 E1271.03062
G1 X55.048 Y109.236 E1271.15120
G1 X19.264 Y73.452 E1277.17729
G1 X19.264 Y74.464 E1277.29787
G1 X54.036 Y109.236 E1283.15344
G1 X53.023 Y109.236 E1283.27402
G1 X19.264 Y75.477 E1288.95906
G1 X19.264 Y76.489 E1289.07964
G1 X52.011 Y109.236 E1294.59416
G1 X50.998 Y109.236 E1294.71474
G1 X19.264 Y77.502 E1300.05874
G1 X19.264 Y78.515 E1300.17932
G1 X49.985 Y109.236 E1305.35279
G1 X48.973 Y109.236 E1305.47337
G1 X19.264 Y79.527 E1310.47632
G1 X19.264 Y80.540 E1310.59690
G1 X47.960 Y109.236 E1315.42932
G1 X46.947 Y109.236 E1315.54990
G1 X19.264 Y81.553 E1320.21180
G1 X19.264 Y82.565 E1320.33238
G1 X45.935 Y109.236 E1324.82376
G1 X44.922 Y109.236 E1324.94434
G1 X19.264 Y83.578 E1329.26519
G1 X19.264 Y84.590 E1329.38577
G1 X43.910 Y109.236 E1333.53610
G1 X42.897 Y109.236 E1333.65667
G1 X19.264 Y85.603 E1337.63648
G1 X19.264 Y86.616 E1337.75706
G1 X41.884 Y109.236 E1341.56634
G1 X40.872 Y109.236 E1341.68692
G1 X19.264 Y87.628 E1345.32567
G1 X19.264 Y88.641 E1345.44625
G1 X39.859 Y109.236 E1348.91448
G1 X38.847 Y109.236 E1349.03506
G1 X19.264 Y89.653 E1352.33277
G1 X19.264 Y90.666 E1352.45335
G1 X37.834 Y109.236 E1355.58053
G1 X36.821 Y109.236 E1355.70111
G1 X19.264 Y91.679 E1358.65777
G1 X19.264 Y92.691 E1358.77835
G1 X35.809 Y109.236 E1361.56448
G1 X34.796 Y109.236 E1361.68506
G1 X19.264 Y93.704 E1364.30067
G1 X19.264 Y94.717 E1364.42125
G1 X33.783 Y109.236 E1366.86634
G1 X32.771 Y109.236 E1366.98692
G1 X19.264 Y95.729 E1369.26148
G1 X19.264 Y96.742 E1369.38206
G1 X31.758 Y109.236 E1371.48610
G1 X30.746 Y109.236 E1371.60668
G1 X19.264 Y97.754 E1373.54019
G1 X19.264 Y98.767 E1373.66077
G1 X29.733 Y109.236 E1375.42376
G1 X28.720 Y109.236 E1375.54434
G1 X19.264 Y99.780 E1377.13680
G1 X19.264 Y100.792 E1377.25738
G1 X27.708 Y109.236 E1378.67932
G1 X26.695 Y109.236 E1378.79990
G1 X19.264 Y101.805 E1380.05132
G1 X19.264 Y102.818 E1380.17190
G1 X25.682 Y109.236 E1381.25279
G1 X24.670 Y109.236 E1381.37337
G1 X19.264 Y103.830 E1382.28374
G1 X19.264 Y104.843 E1382.40432
G1 X23.657 Y109.236 E1383.14417
G1 X22.645 Y109.236 E1383.26474
G1 X19.264 Y105.855 E1383.83407
G1 X19.264 Y106.868 E1383.95464
G1 X21.632 Y109.236 E1384.35344
G1 X20.619 Y109.236 E1384.47402
G1 X19.264 Y107.881 E1384.70229
G1 X19.264 Y108.893 E1384.82287
G1 X19.607 Y109.236 E1384.88062
M104 S205 ; set temperature
M140 S40 ; wait for bed temperature to be reached
G1 Z0.500 F3300.000
G1 E1382.88062 F2400.00000
G92 E0
G1 X18.377 Y7.877 F3300.000
G1 E2.00000 F2400.00000
G1 X101.623 Y7.877 E4.27918 F2100.000
G1 X101.623 Y110.123 E7.07856
G1 X18.377 Y110.123 E9.35774
G1 X18.377 Y7.937 E12.15548
G1 X17.719 Y7.219 F3300.000
G1 X102.281 Y7.219 E14.47072 F2100.000
G1 X102.281 Y110.781 E17.30616
G1 X17.719 Y110.781 E19.62140
G1 X17.719 Y7.279 E22.45519
G1 X17.200 Y6.700 F3300.000
G1 X102.800 Y6.700 E23.80235 F1050.000
G1 X102.800 Y111.300 E25.44853
G1 X17.200 Y111.300 E26.79569
G1 X17.200 Y6.760 E28.44093
G1 X17.546 Y6.900 F3300.000
G1 E26.44093 F2400.00000
G92 E0
G1 X18.777 Y9.531 F3300.000
G1 E2.00000 F2400.00000
G1 X20.031 Y8.277 E2.04875 F1200.000
G1 X20.966 Y8.277 E2.07445
G1 X18.777 Y10.466 E2.15954
G1 X18.777 Y11.401 E2.18524
G1 X21.901 Y8.277 E2.30668
G1 X22.836 Y8.277 E2.33237
G1 X18.777 Y12.336 E2.49015
G1 X18.777 Y13.271 E2.51585
G1 X23.771 Y8.277 E2.70997
G1 X24.706 Y8.277 E2.73567
G1 X18.777 Y14.206 E2.96614
G1 X18.777 Y15.141 E2.99184
G1 X25.641 Y8.277 E3.25865
G1 X26.576 Y8.277 E3.28435
G1 X18.777 Y16.076 E3.58750
G1 X18.777 Y17.011 E3.61320
G1 X27.511 Y8.277 E3.95269
G1 X28.446 Y8.277 E3.97839
G1 X18.777 Y17.946 E4.35423
G1 X18.777 Y18.881 E4.37993
G1 X29.381 Y8.277 E4.79211
G1 X30.316 Y8.277 E4.81781
G1 X18.777 Y19.816 E5.26633
G1 X18.777 Y20.751 E5.29203
G1 X31.251 Y8.277 E5.77690
G1 X32.186 Y8.277 E5.80260
G1 X18.777 Y21.686 E6.32381
G1 X18.777 Y22.621 E6.34951
G1 X33.121 Y8.277 E6.90707
G1 X34.056 Y8.277 E6.93276
G1 X18.777 Y23.556 E7.52666
G1 X18.777 Y24.491 E7.55236
G1 X34.991 Y8.277 E8.18260
G1 X35.926 Y8.277 E8.20830
G1 X18.777 Y25.426 E8.87489
G1 X18.777 Y26.361 E8.90059
G1 X36.861 Y8.277 E9.60351
G1 X37.796 Y8.277 E9.62921
G1 X18.777 Y27.296 E10.36848
G1 X18.777 Y28.231 E10.39418
G1 X38.731 Y8.277 E11.16980
G1 X39.665 Y8.277 E11.19550
G1 X18.777 Y29.165 E12.00745
G1 X18.777 Y30.100 E12.03315
G1 X40.600 Y8.277 E12.88145
G1 X41.535 Y8.277 E12.90715
G1 X18.777 Y31.035 E13.79180
G1 X18.777 Y31.970 E13.81750
G1 X42.470 Y8.277 E14.73848
G1 X43.405 Y8.277 E14.76418
G1 X18.777 Y32.905 E15.72151
G1 X18.777 Y33.840 E15.74721
G1 X44.340 Y8.277 E16.74089
G1 X45.275 Y8.277 E16.76658
G1 X18.777 Y34.775 E17.79660
G1 X18.777 Y35.710 E17.82230
G1 X46.210 Y8.277 E18.88866
G1 X47.145 Y8.277 E18.91436
G1 X18.777 Y36.645 E20.01706
G1 X18.777 Y37.580 E20.04276
G1 X48.080 Y8.277 E21.18181
G1 X49.015 Y8.277 E21.20751
G1 X18.777 Y38.515 E22.38290
G1 X18.777 Y39.450 E22.40860
G1 X49.950 Y8.277 E23.62033
G1 X50.885 Y8.277 E23.64603
G1 X18.777 Y40.385 E24.89411
G1 X18.777 Y41.320 E24.91981
G1 X51.820 Y8.277 E26.20423
G1 X52.755 Y8.277 E26.22993
G1 X18.777 Y42.255 E27.55069
G1 X18.777 Y43.190 E27.57639
G1 X53.690 Y8.277 E28.93349
G1 X54.625 Y8.277 E28.95919
G1 X18.777 Y44.125 E30.35264
G1 X18.777 Y45.060 E30.37834
G1 X55.560 Y8.277 E31.80814
G1 X56.495 Y8.277 E31.83383
G1 X18.777 Y45.995 E33.29997
G1 X18.777 Y46.930 E33.32567
G1 X57.430 Y8.277 E34.82815
G1 X58.365 Y8.277 E34.85385
G1 X18.777 Y47.865 E36.39267
G1 X18.777 Y48.800 E36.41837
G1 X59.300 Y8.277 E37.99354
G1 X60.235 Y8.277 E38.01924
G1 X18.777 Y49.735 E39.63074
G1 X18.777 Y50.670 E39.65644
G1 X61.170 Y8.277 E41.30430
G1 X62.105 Y8.277 E41.33000
G1 X18.777 Y51.605 E43.01419
G1 X18.777 Y52.540 E43.03989
G1 X63.040 Y8.277 E44.76043
G1 X63.975 Y8.277 E44.78613
G1 X18.777 Y53.475 E46.54301
G1 X18.777 Y54.410 E46.56871
G1 X64.910 Y8.277 E48.36194
G1 X65.844 Y8.277 E48.38763
G1 X18.777 Y55.344 E50.21720
G1 X18.777 Y56.279 E50.24290
G1 X66.779 Y8.277 E52.10881
G1 X67.714 Y8.277 E52.13451
G1 X18.777 Y57.214 E54.03677
G1 X18.777 Y58.149 E54.06247
G1 X68.649 Y8.277 E56.00107
G1 X69.584 Y8.277 E56.02677
G1 X18.777 Y59.084 E58.00171
G1 X18.777 Y60.019 E58.02741
G1 X70.519 Y8.277 E60.03869
G1 X71.454 Y8.277 E60.06439
G1 X18.777 Y60.954 E62.11202
