; generated by Slic3r 1.2.9 on 2017-01-03 at 16:34:44

; external perimeters extrusion width = 0.50mm
; perimeters extrusion width = 0.85mm
; infill extrusion width = 1.98mm
; solid infill extrusion width = 0.85mm
; top infill extrusion width = 0.85mm
; support material extrusion width = 0.50mm

M107
M104 S200 ; set temperature
G28 ; home all axes
G1 Z5 F5000 ; lift nozzle

M109 S200 ; wait for temperature to be reached
G21 ; set units to millimeters
G90 ; use absolute coordinates
M82 ; use absolute distances for extrusion
G92 E0
G1 Z0.400 F3300.000
G1 E-2.00000 F2400.00000
G92 E0
G1 X19.445 Y10.016 F3300.000
G1 E2.00000 F2400.00000
G1 X19.536 Y9.922 E2.00529 F1800.000
G1 X19.672 Y9.825 E2.01202
G1 X19.847 Y9.757 E2.01964
G1 X20.092 Y9.730 E2.02957
G1 X100.801 Y9.732 E5.29127
G1 X100.802 Y110.267 E9.35420
G1 X20.092 Y110.269 E12.61597
G1 X19.886 Y110.247 E12.62433
G1 X19.643 Y110.154 E12.63485
G1 X19.510 Y110.058 E12.64148
G1 X19.405 Y109.932 E12.64811
G1 X19.286 Y109.670 E12.65971
G1 X19.266 Y109.423 E12.66973
G1 X19.266 Y10.576 E16.66445
G1 X19.283 Y10.367 E16.67293
G1 X19.316 Y10.243 E16.67813
G1 X19.402 Y10.078 E16.68566
G1 X101.515 Y9.018 F3300.000
G1 X101.515 Y110.981 E20.80632 F1800.000
G1 X20.053 Y110.983 E24.09845
G1 X19.748 Y110.951 E24.11086
G1 X19.504 Y110.881 E24.12111
G1 X19.275 Y110.770 E24.13139
G1 X19.050 Y110.607 E24.14264
G1 X18.815 Y110.338 E24.15707
G1 X18.688 Y110.114 E24.16746
G1 X18.578 Y109.770 E24.18205
G1 X18.551 Y109.453 E24.19491
G1 X18.551 Y10.546 E28.19204
G1 X18.577 Y10.245 E28.20426
G1 X18.641 Y10.001 E28.21448
G1 X18.747 Y9.770 E28.22475
G1 X18.891 Y9.560 E28.23502
G1 X19.069 Y9.379 E28.24529
G1 X19.367 Y9.177 E28.25984
G1 X19.732 Y9.051 E28.27545
G1 X20.053 Y9.016 E28.28850
G1 X101.440 Y9.018 E31.57757
G1 X102.196 Y8.304 F3300.000
G1 X102.229 Y8.529 E31.58677 F1800.000
G1 X102.233 Y108.584 E35.63029
G1 X102.229 Y111.470 E35.74694
G1 X102.196 Y111.696 E35.75615
G1 X20.015 Y111.698 E39.07732
G1 X19.610 Y111.654 E39.09377
G1 X19.248 Y111.550 E39.10902
G1 X18.908 Y111.385 E39.12427
G1 X18.595 Y111.160 E39.13988
G1 X18.470 Y111.042 E39.14682
G1 X18.224 Y110.744 E39.16242
G1 X18.037 Y110.415 E39.17771
G1 X17.920 Y110.093 E39.19156
G1 X17.871 Y109.882 E39.20031
G1 X17.837 Y109.483 E39.21649
G1 X17.837 Y10.517 E43.21604
G1 X17.870 Y10.123 E43.23199
G1 X17.967 Y9.759 E43.24722
G1 X18.124 Y9.416 E43.26248
G1 X18.338 Y9.105 E43.27773
G1 X18.602 Y8.835 E43.29299
G1 X18.915 Y8.609 E43.30859
G1 X19.067 Y8.527 E43.31557
G1 X19.395 Y8.400 E43.32977
G1 X19.605 Y8.346 E43.33853
G1 X20.015 Y8.302 E43.35522
G1 X102.121 Y8.304 E46.67336
G1 X102.102 Y8.511 F3300.000
G1 X100.365 Y10.511 F3300.000
G1 X100.022 Y10.168 E46.69304 F1800.000
G1 X99.008 Y10.168 E46.73421
G1 X100.365 Y11.525 E46.81213
G1 X100.365 Y12.540 E46.85330
G1 X97.993 Y10.168 E46.98943
G1 X96.979 Y10.168 E47.03061
G1 X100.365 Y13.554 E47.22497
G1 X100.365 Y14.568 E47.26614
G1 X95.965 Y10.168 E47.51872
G1 X94.950 Y10.168 E47.55990
G1 X100.365 Y15.583 E47.87071
G1 X100.365 Y16.597 E47.91188
G1 X93.936 Y10.168 E48.28091
G1 X92.921 Y10.168 E48.32209
G1 X100.365 Y17.611 E48.74935
G1 X100.365 Y18.626 E48.79052
G1 X91.907 Y10.168 E49.27600
G1 X90.893 Y10.168 E49.31718
G1 X100.365 Y19.640 E49.86089
G1 X100.365 Y20.654 E49.90206
G1 X89.878 Y10.168 E50.50399
G1 X88.864 Y10.168 E50.54516
G1 X100.365 Y21.669 E51.20533
G1 X100.365 Y22.683 E51.24650
G1 X87.850 Y10.168 E51.96488
G1 X86.835 Y10.168 E52.00605
G1 X100.365 Y23.697 E52.78266
G1 X100.365 Y24.712 E52.82383
G1 X85.821 Y10.168 E53.65867
G1 X84.807 Y10.168 E53.69984
G1 X100.365 Y25.726 E54.59290
G1 X100.365 Y26.741 E54.63407
G1 X83.792 Y10.167 E55.58536
G1 X82.778 Y10.167 E55.62653
G1 X100.365 Y27.755 E56.63604
G1 X100.365 Y28.769 E56.67721
G1 X81.764 Y10.167 E57.74495
G1 X80.749 Y10.167 E57.78612
G1 X100.365 Y29.784 E58.91208
G1 X100.365 Y30.798 E58.95325
G1 X79.735 Y10.167 E60.13743
G1 X78.720 Y10.167 E60.17860
G1 X100.365 Y31.812 E61.42101
G1 X100.365 Y32.827 E61.46218
G1 X77.706 Y10.167 E62.76282
G1 X76.692 Y10.167 E62.80399
G1 X100.365 Y33.841 E64.16285
G1 X100.365 Y34.855 E64.20402
G1 X75.677 Y10.167 E65.62111
G1 X74.663 Y10.167 E65.66228
G1 X100.365 Y35.870 E67.13759
G1 X100.365 Y36.884 E67.17876
G1 X73.649 Y10.167 E68.71229
G1 X72.634 Y10.167 E68.75346
G1 X100.365 Y37.898 E70.34522
G1 X100.365 Y38.913 E70.38639
G1 X71.620 Y10.167 E72.03638
G1 X70.606 Y10.167 E72.07755
G1 X100.365 Y39.927 E73.78576
G1 X100.365 Y40.941 E73.82693
G1 X69.591 Y10.167 E75.59336
G1 X68.577 Y10.167 E75.63453
G1 X100.365 Y41.956 E77.45919
G1 X100.366 Y42.970 E77.50036
G1 X67.562 Y10.167 E79.38325
G1 X66.548 Y10.167 E79.42442
G1 X100.366 Y43.984 E81.36553
G1 X100.366 Y44.999 E81.40670
G1 X65.534 Y10.167 E83.40603
G1 X64.519 Y10.167 E83.44720
G1 X100.366 Y46.013 E85.50476
G1 X100.366 Y47.028 E85.54593
G1 X63.505 Y10.167 E87.66171
G1 X62.491 Y10.167 E87.70288
G1 X100.366 Y48.042 E89.87689
G1 X100.366 Y49.056 E89.91806
G1 X61.476 Y10.167 E92.15030
G1 X60.462 Y10.167 E92.19147
G1 X100.366 Y50.071 E94.48193
G1 X100.366 Y51.085 E94.52310
G1 X59.448 Y10.167 E96.87178
G1 X58.433 Y10.167 E96.91295
G1 X100.366 Y52.099 E99.31986
G1 X100.366 Y53.114 E99.36103
G1 X57.419 Y10.167 E101.82616
G1 X56.405 Y10.167 E101.86733
G1 X100.366 Y54.128 E104.39069
G1 X100.366 Y55.142 E104.43186
G1 X55.390 Y10.167 E107.01344
G1 X54.376 Y10.167 E107.05461
G1 X100.366 Y56.157 E109.69442
G1 X100.366 Y57.171 E109.73559
G1 X53.361 Y10.167 E112.43363
G1 X52.347 Y10.167 E112.47480
G1 X100.366 Y58.185 E115.23105
G1 X100.366 Y59.200 E115.27222
G1 X51.333 Y10.167 E118.08671
G1 X50.318 Y10.167 E118.12788
G1 X100.366 Y60.214 E121.00058
G1 X100.366 Y61.228 E121.04176
G1 X49.304 Y10.167 E123.97269
G1 X48.290 Y10.167 E124.01386
G1 X100.366 Y62.243 E127.00302
G1 X100.366 Y63.257 E127.04419
G1 X47.275 Y10.167 E130.09157
G1 X46.261 Y10.167 E130.13274
G1 X100.366 Y64.272 E133.23835
G1 X100.366 Y65.286 E133.27952
G1 X45.247 Y10.167 E136.44335
G1 X44.232 Y10.167 E136.48452
G1 X100.366 Y66.300 E139.70657
G1 X100.366 Y67.315 E139.74775
G1 X43.218 Y10.167 E143.02803
G1 X42.203 Y10.166 E143.06920
G1 X100.366 Y68.329 E146.40770
G1 X100.366 Y69.343 E146.44887
G1 X41.189 Y10.166 E149.84561
G1 X40.175 Y10.166 E149.88678
G1 X100.366 Y70.358 E153.34173
G1 X100.366 Y71.372 E153.38290
G1 X39.160 Y10.166 E156.89608
G1 X38.146 Y10.166 E156.93726
G1 X100.366 Y72.386 E160.50866
G1 X100.366 Y73.401 E160.54983
G1 X37.132 Y10.166 E164.17946
G1 X36.117 Y10.166 E164.22063
G1 X100.366 Y74.415 E167.90849
G1 X100.366 Y75.429 E167.94966
G1 X35.103 Y10.166 E171.69574
G1 X34.089 Y10.166 E171.73691
G1 X100.366 Y76.444 E175.54122
G1 X100.366 Y77.458 E175.58239
G1 X33.074 Y10.166 E179.44492
G1 X32.060 Y10.166 E179.48609
G1 X100.366 Y78.472 E183.40684
G1 X100.366 Y79.487 E183.44801
G1 X31.045 Y10.166 E187.42699
G1 X30.031 Y10.166 E187.46817
G1 X100.366 Y80.501 E191.50537
G1 X100.366 Y81.516 E191.54654
G1 X29.017 Y10.166 E195.64197
G1 X28.002 Y10.166 E195.68314
G1 X100.366 Y82.530 E199.83680
G1 X100.366 Y83.544 E199.87797
G1 X26.988 Y10.166 E204.08985
G1 X25.974 Y10.166 E204.13102
G1 X100.366 Y84.559 E208.40112
G1 X100.366 Y85.573 E208.44229
G1 X24.959 Y10.166 E212.77062
G1 X23.945 Y10.166 E212.81179
G1 X100.366 Y86.587 E217.19835
G1 X100.366 Y87.602 E217.23952
G1 X22.931 Y10.166 E221.68430
G1 X21.916 Y10.166 E221.72547
G1 X100.366 Y88.616 E226.22847
G1 X100.366 Y89.630 E226.26964
G1 X20.902 Y10.166 E230.83087
G1 X19.896 Y10.174 E230.87171
G1 X100.366 Y90.645 E235.49070
G1 X100.366 Y91.659 E235.53187
G1 X19.701 Y10.994 E240.16202
G1 X19.701 Y12.008 E240.20319
G1 X100.366 Y92.673 E244.83335
G1 X100.366 Y93.688 E244.87452
G1 X19.701 Y13.023 E249.50467
G1 X19.701 Y14.037 E249.54584
G1 X100.366 Y94.702 E254.17600
G1 X100.366 Y95.716 E254.21717
G1 X19.701 Y15.051 E258.84733
G1 X19.701 Y16.066 E258.88850
G1 X100.366 Y96.731 E263.51866
G1 X100.366 Y97.745 E263.55983
G1 X19.701 Y17.080 E268.18999
G1 X19.701 Y18.094 E268.23116
G1 X100.366 Y98.759 E272.86132
G1 X100.366 Y99.774 E272.90249
G1 X19.701 Y19.109 E277.53265
G1 X19.701 Y20.123 E277.57382
G1 X100.366 Y100.788 E282.20398
G1 X100.366 Y101.803 E282.24515
G1 X19.701 Y21.137 E286.87531
G1 X19.701 Y22.152 E286.91648
G1 X100.366 Y102.817 E291.54665
G1 X100.366 Y103.831 E291.58782
G1 X19.701 Y23.166 E296.21798
G1 X19.701 Y24.180 E296.25915
G1 X100.366 Y104.846 E300.88932
G1 X100.366 Y105.860 E300.93049
G1 X19.701 Y25.195 E305.56065
G1 X19.701 Y26.209 E305.60182
G1 X100.367 Y106.874 E310.23199
G1 X100.367 Y107.889 E310.27316
G1 X19.701 Y27.223 E314.90333
G1 X19.701 Y28.238 E314.94450
G1 X100.367 Y108.903 E319.57467
G1 X100.281 Y109.832 E319.61253
G1 X19.701 Y29.252 E324.23779
G1 X19.701 Y30.266 E324.27896
G1 X99.267 Y109.832 E328.84599
G1 X98.252 Y109.832 E328.88716
G1 X19.701 Y31.281 E333.39598
G1 X19.701 Y32.295 E333.43715
G1 X97.238 Y109.832 E337.88774
G1 X96.224 Y109.832 E337.92891
G1 X19.701 Y33.309 E342.32129
G1 X19.701 Y34.324 E342.36246
G1 X95.209 Y109.832 E346.69661
G1 X94.195 Y109.832 E346.73778
G1 X19.701 Y35.338 E351.01371
G1 X19.701 Y36.352 E351.05488
G1 X93.181 Y109.832 E355.27259
G1 X92.166 Y109.832 E355.31376
G1 X19.701 Y37.367 E359.47325
G1 X19.701 Y38.381 E359.51442
G1 X91.152 Y109.832 E363.61569
G1 X90.138 Y109.832 E363.65686
G1 X19.701 Y39.395 E367.69990
G1 X19.701 Y40.410 E367.74107
G1 X89.124 Y109.832 E371.72590
G1 X88.109 Y109.832 E371.76707
G1 X19.701 Y41.424 E375.69367
G1 X19.701 Y42.438 E375.73484
G1 X87.095 Y109.832 E379.60323
G1 X86.081 Y109.832 E379.64440
G1 X19.701 Y43.453 E383.45456
G1 X19.701 Y44.467 E383.49573
G1 X85.066 Y109.832 E387.24767
G1 X84.052 Y109.832 E387.28884
G1 X19.701 Y45.481 E390.98256
G1 X19.701 Y46.496 E391.02373
G1 X83.038 Y109.832 E394.65923
G1 X82.023 Y109.832 E394.70040
G1 X19.701 Y47.510 E398.27768
G1 X19.701 Y48.524 E398.31885
G1 X81.009 Y109.832 E401.83790
G1 X79.995 Y109.832 E401.87907
G1 X19.701 Y49.539 E405.33991
G1 X19.701 Y50.553 E405.38108
G1 X78.980 Y109.832 E408.78369
G1 X77.966 Y109.832 E408.82486
G1 X19.701 Y51.567 E412.16925
G1 X19.701 Y52.582 E412.21042
G1 X76.952 Y109.832 E415.49659
G1 X75.938 Y109.832 E415.53776
G1 X19.701 Y53.596 E418.76571
G1 X19.701 Y54.610 E418.80688
G1 X74.923 Y109.832 E421.97661
G1 X73.909 Y109.832 E422.01778
G1 X19.701 Y55.625 E425.12929
G1 X19.701 Y56.639 E425.17046
G1 X72.895 Y109.832 E428.22375
G1 X71.880 Y109.832 E428.26492
G1 X19.701 Y57.653 E431.25998
G1 X19.701 Y58.668 E431.30115
G1 X70.866 Y109.833 E434.23800
G1 X69.852 Y109.833 E434.27917
G1 X19.701 Y59.682 E437.15779
G1 X19.701 Y60.696 E437.19896
G1 X68.837 Y109.833 E440.01936
G1 X67.823 Y109.833 E440.06053
G1 X19.701 Y61.711 E442.82271
G1 X19.701 Y62.725 E442.86388
G1 X66.809 Y109.833 E445.56784
G1 X65.794 Y109.833 E445.60901
G1 X19.701 Y63.739 E448.25475
G1 X19.701 Y64.754 E448.29592
G1 X64.780 Y109.833 E450.88344
G1 X63.766 Y109.833 E450.92461
G1 X19.701 Y65.768 E453.45391
G1 X19.701 Y66.782 E453.49508
G1 X62.751 Y109.833 E455.96615
G1 X61.737 Y109.833 E456.00732
G1 X19.701 Y67.797 E458.42017
G1 X19.701 Y68.811 E458.46134
G1 X60.723 Y109.833 E460.81598
G1 X59.709 Y109.833 E460.85715
G1 X19.701 Y69.825 E463.15356
G1 X19.701 Y70.840 E463.19473
G1 X58.694 Y109.833 E465.43292
G1 X57.680 Y109.833 E465.47409
G1 X19.701 Y71.854 E467.65406
G1 X19.701 Y72.868 E467.69523
G1 X56.666 Y109.833 E469.81698
G1 X55.651 Y109.833 E469.85814
G1 X19.701 Y73.883 E471.92167
G1 X19.701 Y74.897 E471.96284
G1 X54.637 Y109.833 E473.96815
G1 X53.623 Y109.833 E474.00932
G1 X19.701 Y75.911 E475.95640
G1 X19.701 Y76.926 E475.99757
G1 X52.608 Y109.833 E477.88644
G1 X51.594 Y109.833 E477.92760
G1 X19.701 Y77.940 E479.75825
G1 X19.701 Y78.954 E479.79942
G1 X50.580 Y109.833 E481.57184
G1 X49.565 Y109.833 E481.61301
G1 X19.701 Y79.969 E483.32721
G1 X19.701 Y80.983 E483.36838
G1 X48.551 Y109.833 E485.02436
G1 X47.537 Y109.833 E485.06552
G1 X19.701 Y81.997 E486.66328
G1 X19.701 Y83.012 E486.70445
G1 X46.522 Y109.833 E488.24399
G1 X45.508 Y109.833 E488.28516
G1 X19.701 Y84.026 E489.76647
G1 X19.701 Y85.040 E489.80764
G1 X44.494 Y109.833 E491.23074
G1 X43.480 Y109.833 E491.27191
G1 X19.701 Y86.055 E492.63678
G1 X19.701 Y87.069 E492.67795
G1 X42.465 Y109.833 E493.98460
G1 X41.451 Y109.833 E494.02577
G1 X19.701 Y88.083 E495.27420
G1 X19.701 Y89.098 E495.31537
G1 X40.437 Y109.833 E496.50558
G1 X39.422 Y109.833 E496.54675
G1 X19.701 Y90.112 E497.67874
G1 X19.701 Y91.126 E497.71991
G1 X38.408 Y109.833 E498.79368
G1 X37.394 Y109.833 E498.83484
G1 X19.701 Y92.141 E499.85039
G1 X19.701 Y93.155 E499.89156
G1 X36.379 Y109.833 E500.84889
G1 X35.365 Y109.833 E500.89005
G1 X19.701 Y94.169 E501.78916
G1 X19.701 Y95.184 E501.83033
G1 X34.351 Y109.833 E502.67121
G1 X33.336 Y109.833 E502.71238
G1 X19.701 Y96.198 E503.49504
G1 X19.701 Y97.212 E503.53621
G1 X32.322 Y109.833 E504.26065
G1 X31.308 Y109.833 E504.30182
G1 X19.701 Y98.227 E504.96804
G1 X19.701 Y99.241 E505.00921
G1 X30.293 Y109.833 E505.61721
G1 X29.279 Y109.834 E505.65838
G1 X19.701 Y100.255 E506.20815
G1 X19.701 Y101.270 E506.24932
G1 X28.265 Y109.834 E506.74088
G1 X27.251 Y109.834 E506.78205
G1 X19.701 Y102.284 E507.21538
G1 X19.701 Y103.298 E507.25655
G1 X26.236 Y109.834 E507.63167
G1 X25.222 Y109.834 E507.67283
G1 X19.701 Y104.313 E507.98973
G1 X19.701 Y105.327 E508.03090
G1 X24.208 Y109.834 E508.28957
G1 X23.193 Y109.834 E508.33074
G1 X19.701 Y106.341 E508.53119
G1 X19.701 Y107.356 E508.57236
G1 X22.179 Y109.834 E508.71458
G1 X21.165 Y109.834 E508.75575
G1 X19.701 Y108.370 E508.83976
G1 X19.716 Y109.399 E508.88154
G1 X20.132 Y109.815 E508.90539
G1 Z0.500 F3300.000
G1 X101.135 Y9.398 F3300.000
G1 X101.135 Y110.602 E510.09165 F2100.000
G1 X20.097 Y110.603 E511.04154
G1 X19.818 Y110.574 E511.04482
G1 X19.641 Y110.523 E511.04698
G1 X19.472 Y110.441 E511.04919
G1 X19.319 Y110.331 E511.05140
G1 X19.154 Y110.162 E511.05416
G1 X19.038 Y109.957 E511.05693
G1 X18.958 Y109.735 E511.05970
G1 X18.931 Y109.425 E511.06334
G1 X18.931 Y10.575 E512.22200
G1 X18.954 Y10.313 E512.22509
G1 X19.002 Y10.130 E512.22730
G1 X19.080 Y9.959 E512.22951
G1 X19.214 Y9.765 E512.23228
G1 X19.393 Y9.611 E512.23504
G1 X19.621 Y9.482 E512.23811
G1 X19.816 Y9.426 E512.24049
G1 X20.097 Y9.397 E512.24380
G1 X101.060 Y9.398 E513.19281
G1 X101.964 Y8.569 F3300.000
G1 X101.964 Y111.431 E514.39849 F2100.000
G1 X20.055 Y111.431 E515.35858
G1 X19.660 Y111.390 E515.36323
G1 X19.344 Y111.299 E515.36709
G1 X19.046 Y111.155 E515.37097
G1 X18.777 Y110.961 E515.37486
G1 X18.531 Y110.710 E515.37897
G1 X18.282 Y110.304 E515.38456
G1 X18.136 Y109.849 E515.39016
G1 X18.102 Y109.461 E515.39473
G1 X18.102 Y10.539 E516.55423
G1 X18.134 Y10.170 E516.55858
G1 X18.219 Y9.849 E516.56246
G1 X18.357 Y9.548 E516.56635
G1 X18.556 Y9.259 E516.57046
G1 X18.907 Y8.936 E516.57605
G1 X19.205 Y8.758 E516.58012
G1 X19.345 Y8.699 E516.58190
G1 X19.659 Y8.610 E516.58573
G1 X20.055 Y8.569 E516.59039
G1 X101.889 Y8.569 E517.54960
G1 X102.475 Y111.879 F3300.000
G1 X102.294 Y112.021 E517.55116 F1050.000
G1 X102.198 Y112.057 E517.55186
G1 X102.015 Y112.084 E517.55311
G1 X20.021 Y112.085 E518.10821
G1 X19.535 Y112.034 E518.11151
G1 X19.109 Y111.912 E518.11451
G1 X18.710 Y111.718 E518.11752
G1 X18.349 Y111.459 E518.12053
G1 X18.035 Y111.137 E518.12357
G1 X17.908 Y110.968 E518.12500
G1 X17.686 Y110.577 E518.12804
G1 X17.534 Y110.154 E518.13109
G1 X17.489 Y109.948 E518.13252
G1 X17.449 Y109.489 E518.13564
G1 X17.449 Y10.511 E518.80571
G1 X17.488 Y10.057 E518.80879
G1 X17.602 Y9.628 E518.81180
G1 X17.787 Y9.224 E518.81481
G1 X18.042 Y8.854 E518.81785
G1 X18.183 Y8.697 E518.81928
G1 X18.524 Y8.404 E518.82233
G1 X18.909 Y8.174 E518.82536
G1 X19.127 Y8.081 E518.82697
G1 X19.535 Y7.965 E518.82984
G1 X20.021 Y7.915 E518.83314
G1 X102.015 Y7.916 E519.38824
G1 X102.198 Y7.942 E519.38949
G1 X102.294 Y7.979 E519.39019
G1 X102.467 Y8.112 E519.39167
G1 X102.564 Y8.263 E519.39288
G1 X102.602 Y8.373 E519.39367
G1 X102.617 Y8.509 E519.39459
G1 X102.617 Y111.491 E520.09178
G1 X102.602 Y111.627 E520.09270
G1 X102.515 Y111.815 E520.09411
G1 X102.251 Y111.826 F3300.000
G1 X100.235 Y110.094 F3300.000
G1 X100.627 Y109.702 E520.10064 F1200.000
