; generated by Slic3r 1.2.9 on 2016-12-31 at 14:57:11

; external perimeters extrusion width = 0.40mm
; perimeters extrusion width = 0.68mm
; infill extrusion width = 1.28mm
; solid infill extrusion width = 0.68mm
; top infill extrusion width = 0.68mm

M107
M190 S50 ; set bed temperature
M104 S205 ; set temperature
G28 ; home all axes
G1 Z5 F5000 ; lift nozzle

M109 S205 ; wait for temperature to be reached
G21 ; set units to millimeters
G90 ; use absolute coordinates
M82 ; use absolute distances for extrusion
G92 E0
G1 Z0.400 F3300.000
G1 E-2.00000 F2400.00000
G92 E0
G1 X8.328 Y13.828 F3300.000
G1 E2.00000 F2400.00000
G1 X109.672 Y13.828 E14.03606 F1800.000
G1 X109.672 Y74.172 E21.20275
G1 X8.328 Y74.172 E33.23881
G1 X8.328 Y13.888 E40.39838
G1 X7.614 Y13.114 F3300.000
G1 X110.386 Y13.114 E52.60408 F1800.000
G1 X110.386 Y74.886 E59.94040
G1 X7.614 Y74.886 E72.14610
G1 X7.614 Y13.174 E79.47530
G1 X6.900 Y12.400 F3300.000
G1 X111.100 Y12.400 E91.85063 F1800.000
G1 X111.100 Y75.600 E99.35659
G1 X6.900 Y75.600 E111.73192
G1 X6.900 Y12.460 E119.23075
G1 X7.246 Y12.600 F3300.000
G1 E117.23075 F2400.00000
G92 E0
G1 X9.107 Y73.736 F3300.000
G1 E2.00000 F2400.00000
G1 X8.764 Y73.393 E2.05785 F1800.000
G1 X8.764 Y72.379 E2.17885
G1 X10.121 Y73.736 E2.40782
G1 X11.136 Y73.736 E2.52882
G1 X8.764 Y71.364 E2.92891
G1 X8.764 Y70.350 E3.04991
G1 X12.150 Y73.736 E3.62113
G1 X13.164 Y73.736 E3.74213
G1 X8.764 Y69.336 E4.48446
G1 X8.764 Y68.321 E4.60546
G1 X14.179 Y73.736 E5.51891
G1 X15.193 Y73.736 E5.63991
G1 X8.764 Y67.307 E6.72448
G1 X8.764 Y66.293 E6.84548
G1 X16.207 Y73.736 E8.10117
G1 X17.222 Y73.736 E8.22217
G1 X8.764 Y65.278 E9.64899
G1 X8.764 Y64.264 E9.76999
G1 X18.236 Y73.736 E11.36792
G1 X19.251 Y73.736 E11.48892
G1 X8.764 Y63.249 E13.25797
G1 X8.764 Y62.235 E13.37897
G1 X20.265 Y73.736 E15.31915
G1 X21.279 Y73.736 E15.44015
G1 X8.764 Y61.221 E17.55144
G1 X8.764 Y60.206 E17.67244
G1 X22.294 Y73.736 E19.95485
G1 X23.308 Y73.736 E20.07585
G1 X8.764 Y59.192 E22.52939
G1 X8.764 Y58.177 E22.65039
G1 X24.323 Y73.736 E25.27504
G1 X25.337 Y73.736 E25.39604
G1 X8.764 Y57.163 E28.19181
G1 X8.764 Y56.149 E28.31281
G1 X26.351 Y73.736 E31.27971
G1 X27.366 Y73.736 E31.40071
G1 X8.764 Y55.134 E34.53872
G1 X8.764 Y54.120 E34.65972
G1 X28.380 Y73.736 E37.96886
G1 X29.395 Y73.736 E38.08986
G1 X8.764 Y53.105 E41.57011
G1 X8.764 Y52.091 E41.69111
G1 X30.409 Y73.736 E45.34249
G1 X31.423 Y73.736 E45.46349
G1 X8.764 Y51.077 E49.28598
G1 X8.764 Y50.062 E49.40698
G1 X32.438 Y73.736 E53.40060
G1 X33.452 Y73.736 E53.52160
G1 X8.764 Y49.048 E57.68633
G1 X8.764 Y48.034 E57.80733
G1 X34.466 Y73.736 E62.14319
G1 X35.481 Y73.736 E62.26419
G1 X8.764 Y47.019 E66.77116
G1 X8.764 Y46.005 E66.89216
G1 X36.495 Y73.736 E71.57026
G1 X37.510 Y73.736 E71.69126
G1 X8.764 Y44.990 E76.54048
G1 X8.764 Y43.976 E76.66148
G1 X38.524 Y73.736 E81.68181
G1 X39.538 Y73.736 E81.80281
G1 X8.764 Y42.962 E86.99427
G1 X8.764 Y41.947 E87.11527
G1 X40.553 Y73.736 E92.47784
G1 X41.567 Y73.736 E92.59884
G1 X8.764 Y40.933 E98.13254
G1 X8.764 Y39.918 E98.25354
G1 X42.582 Y73.736 E103.95836
G1 X43.596 Y73.736 E104.07936
G1 X8.764 Y38.904 E109.95530
G1 X8.764 Y37.890 E110.07630
G1 X44.610 Y73.736 E116.12335
G1 X45.625 Y73.736 E116.24435
G1 X8.764 Y36.875 E122.46253
G1 X8.764 Y35.861 E122.58353
G1 X46.639 Y73.736 E128.97283
G1 X47.653 Y73.736 E129.09383
G1 X8.764 Y34.847 E135.65425
G1 X8.764 Y33.832 E135.77525
G1 X48.668 Y73.736 E142.50678
G1 X49.682 Y73.736 E142.62778
G1 X8.764 Y32.818 E149.53044
G1 X8.764 Y31.803 E149.65144
G1 X50.697 Y73.736 E156.72522
G1 X51.711 Y73.736 E156.84622
G1 X8.764 Y30.789 E164.09112
G1 X8.764 Y29.775 E164.21212
G1 X52.725 Y73.736 E171.62814
G1 X53.740 Y73.736 E171.74914
G1 X8.764 Y28.760 E179.33628
G1 X8.764 Y27.746 E179.45728
G1 X54.754 Y73.736 E187.21554
G1 X55.769 Y73.736 E187.33654
G1 X8.764 Y26.731 E195.26591
G1 X8.764 Y25.717 E195.38691
G1 X56.783 Y73.736 E203.48741
G1 X57.797 Y73.736 E203.60841
G1 X8.764 Y24.703 E211.88003
G1 X8.764 Y23.688 E212.00103
G1 X58.812 Y73.736 E220.44377
G1 X59.826 Y73.736 E220.56477
G1 X8.764 Y22.674 E229.17863
G1 X8.764 Y21.660 E229.29963
G1 X60.841 Y73.736 E238.08461
G1 X61.855 Y73.736 E238.20561
G1 X8.764 Y20.645 E247.16171
G1 X8.764 Y19.631 E247.28271
G1 X62.869 Y73.736 E256.40993
G1 X63.884 Y73.736 E256.53093
G1 X8.764 Y18.616 E265.82927
G1 X8.764 Y17.602 E265.95027
G1 X64.898 Y73.736 E275.41974
G1 X65.912 Y73.736 E275.54074
G1 X8.764 Y16.588 E285.18132
G1 X8.764 Y15.573 E285.30232
G1 X66.927 Y73.736 E295.11402
G1 X67.941 Y73.736 E295.23502
G1 X8.764 Y14.559 E305.21784
G1 X9.483 Y14.264 E305.31059
G1 X68.956 Y73.736 E315.34317
G1 X69.970 Y73.736 E315.46417
G1 X10.498 Y14.264 E325.49675
G1 X11.512 Y14.264 E325.61775
G1 X70.984 Y73.736 E335.65033
G1 X71.999 Y73.736 E335.77133
G1 X12.526 Y14.264 E345.80391
G1 X13.541 Y14.264 E345.92491
G1 X73.013 Y73.736 E355.95749
G1 X74.028 Y73.736 E356.07849
G1 X14.555 Y14.264 E366.11107
G1 X15.570 Y14.264 E366.23207
G1 X75.042 Y73.736 E376.26465
G1 X76.056 Y73.736 E376.38565
G1 X16.584 Y14.264 E386.41823
G1 X17.598 Y14.264 E386.53923
G1 X77.071 Y73.736 E396.57181
G1 X78.085 Y73.736 E396.69281
G1 X18.613 Y14.264 E406.72539
G1 X19.627 Y14.264 E406.84639
G1 X79.099 Y73.736 E416.87897
G1 X80.114 Y73.736 E416.99997
G1 X20.642 Y14.264 E427.03255
G1 X21.656 Y14.264 E427.15355
G1 X81.128 Y73.736 E437.18613
G1 X82.143 Y73.736 E437.30713
G1 X22.670 Y14.264 E447.33971
G1 X23.685 Y14.264 E447.46071
G1 X83.157 Y73.736 E457.49329
G1 X84.171 Y73.736 E457.61429
G1 X24.699 Y14.264 E467.64687
G1 X25.713 Y14.264 E467.76787
G1 X85.186 Y73.736 E477.80045
G1 X86.200 Y73.736 E477.92145
G1 X26.728 Y14.264 E487.95403
G1 X27.742 Y14.264 E488.07503
G1 X87.215 Y73.736 E498.10761
G1 X88.229 Y73.736 E498.22861
G1 X28.757 Y14.264 E508.26119
G1 X29.771 Y14.264 E508.38219
G1 X89.243 Y73.736 E518.41477
G1 X90.258 Y73.736 E518.53577
G1 X30.785 Y14.264 E528.56835
G1 X31.800 Y14.264 E528.68935
G1 X91.272 Y73.736 E538.72193
G1 X92.286 Y73.736 E538.84293
G1 X32.814 Y14.264 E548.87551
G1 X33.829 Y14.264 E548.99651
G1 X93.301 Y73.736 E559.02909
G1 X94.315 Y73.736 E559.15009
G1 X34.843 Y14.264 E569.18267
G1 X35.857 Y14.264 E569.30367
G1 X95.330 Y73.736 E579.33625
G1 X96.344 Y73.736 E579.45725
G1 X36.872 Y14.264 E589.48983
G1 X37.886 Y14.264 E589.61083
G1 X97.358 Y73.736 E599.64341
G1 X98.373 Y73.736 E599.76442
G1 X38.900 Y14.264 E609.79700
G1 X39.915 Y14.264 E609.91800
G1 X99.387 Y73.736 E619.95058
G1 X100.402 Y73.736 E620.07158
G1 X40.929 Y14.264 E630.10416
G1 X41.944 Y14.264 E630.22516
G1 X101.416 Y73.736 E640.25774
G1 X102.430 Y73.736 E640.37874
G1 X42.958 Y14.264 E650.41132
G1 X43.972 Y14.264 E650.53232
G1 X103.445 Y73.736 E660.56490
G1 X104.459 Y73.736 E660.68590
G1 X44.987 Y14.264 E670.71848
G1 X46.001 Y14.264 E670.83948
G1 X105.474 Y73.736 E680.87206
G1 X106.488 Y73.736 E680.99306
G1 X47.016 Y14.264 E691.02564
G1 X48.030 Y14.264 E691.14664
G1 X107.502 Y73.736 E701.17922
G1 X108.517 Y73.736 E701.30022
G1 X49.044 Y14.264 E711.33280
G1 X50.059 Y14.264 E711.45380
G1 X109.236 Y73.441 E721.43663
G1 X109.236 Y72.427 E721.55763
G1 X51.073 Y14.264 E731.36934
G1 X52.088 Y14.264 E731.49034
G1 X109.236 Y71.412 E741.13093
G1 X109.236 Y70.398 E741.25193
G1 X53.102 Y14.264 E750.72140
G1 X54.116 Y14.264 E750.84240
G1 X109.236 Y69.384 E760.14075
G1 X109.236 Y68.369 E760.26175
G1 X55.131 Y14.264 E769.38898
G1 X56.145 Y14.264 E769.50998
G1 X109.236 Y67.355 E778.46609
G1 X109.236 Y66.341 E778.58709
G1 X57.159 Y14.264 E787.37208
G1 X58.174 Y14.264 E787.49308
G1 X109.236 Y65.326 E796.10695
G1 X109.236 Y64.312 E796.22795
G1 X59.188 Y14.264 E804.67070
G1 X60.203 Y14.264 E804.79170
G1 X109.236 Y63.297 E813.06333
G1 X109.236 Y62.283 E813.18433
G1 X61.217 Y14.264 E821.28484
G1 X62.231 Y14.264 E821.40584
G1 X109.236 Y61.269 E829.33523
G1 X109.236 Y60.254 E829.45623
G1 X63.246 Y14.264 E837.21449
G1 X64.260 Y14.264 E837.33549
G1 X109.236 Y59.240 E844.92264
G1 X109.236 Y58.225 E845.04364
G1 X65.275 Y14.264 E852.45967
G1 X66.289 Y14.264 E852.58067
G1 X109.236 Y57.211 E859.82558
G1 X109.236 Y56.197 E859.94658
G1 X67.303 Y14.264 E867.02037
G1 X68.318 Y14.264 E867.14137
G1 X109.236 Y55.182 E874.04403
G1 X109.236 Y54.168 E874.16503
G1 X69.332 Y14.264 E880.89658
G1 X70.346 Y14.264 E881.01758
G1 X109.236 Y53.154 E887.57801
G1 X109.236 Y52.139 E887.69901
G1 X71.361 Y14.264 E894.08832
G1 X72.375 Y14.264 E894.20932
G1 X109.236 Y51.125 E900.42750
G1 X109.236 Y50.110 E900.54850
G1 X73.390 Y14.264 E906.59557
G1 X74.404 Y14.264 E906.71657
G1 X109.236 Y49.096 E912.59252
G1 X109.236 Y48.082 E912.71352
G1 X75.418 Y14.264 E918.41834
G1 X76.433 Y14.264 E918.53934
G1 X109.236 Y47.067 E924.07305
G1 X109.236 Y46.053 E924.19405
G1 X77.447 Y14.264 E929.55664
G1 X78.462 Y14.264 E929.67764
G1 X109.236 Y45.038 E934.86910
G1 X109.236 Y44.024 E934.99010
G1 X79.476 Y14.264 E940.01045
G1 X80.490 Y14.264 E940.13145
G1 X109.236 Y43.010 E944.98067
G1 X109.236 Y41.995 E945.10167
G1 X81.505 Y14.264 E949.77978
G1 X82.519 Y14.264 E949.90078
G1 X109.236 Y40.981 E954.40776
G1 X109.236 Y39.966 E954.52877
G1 X83.533 Y14.264 E958.86463
G1 X84.548 Y14.264 E958.98563
G1 X109.236 Y38.952 E963.15037
G1 X109.236 Y37.938 E963.27138
G1 X85.562 Y14.264 E967.26500
G1 X86.577 Y14.264 E967.38600
G1 X109.236 Y36.923 E971.20850
G1 X109.236 Y35.909 E971.32950
G1 X87.591 Y14.264 E974.98089
G1 X88.605 Y14.264 E975.10189
G1 X109.236 Y34.895 E978.58215
G1 X109.236 Y33.880 E978.70315
G1 X89.620 Y14.264 E982.01230
G1 X90.634 Y14.264 E982.13330
G1 X109.236 Y32.866 E985.27132
G1 X109.236 Y31.851 E985.39232
G1 X91.649 Y14.264 E988.35922
G1 X92.663 Y14.264 E988.48023
G1 X109.236 Y30.837 E991.27601
G1 X109.236 Y29.823 E991.39701
G1 X93.677 Y14.264 E994.02167
G1 X94.692 Y14.264 E994.14267
G1 X109.236 Y28.808 E996.59621
G1 X109.236 Y27.794 E996.71722
G1 X95.706 Y14.264 E998.99964
G1 X96.721 Y14.264 E999.12064
G1 X109.236 Y26.779 E1001.23194
G1 X109.236 Y25.765 E1001.35294
G1 X97.735 Y14.264 E1003.29312
G1 X98.749 Y14.264 E1003.41412
G1 X109.236 Y24.751 E1005.18319
G1 X109.236 Y23.736 E1005.30419
G1 X99.764 Y14.264 E1006.90213
G1 X100.778 Y14.264 E1007.02313
G1 X109.236 Y22.722 E1008.44995
G1 X109.236 Y21.708 E1008.57095
G1 X101.792 Y14.264 E1009.82665
G1 X102.807 Y14.264 E1009.94765
G1 X109.236 Y20.693 E1011.03223
G1 X109.236 Y19.679 E1011.15324
G1 X103.821 Y14.264 E1012.06670
G1 X104.836 Y14.264 E1012.18770
G1 X109.236 Y18.664 E1012.93004
G1 X109.236 Y17.650 E1013.05104
G1 X105.850 Y14.264 E1013.62226
G1 X106.864 Y14.264 E1013.74326
G1 X109.236 Y16.636 E1014.14336
G1 X109.236 Y15.621 E1014.26436
G1 X107.879 Y14.264 E1014.49334
G1 X108.893 Y14.264 E1014.61434
G1 X109.236 Y14.607 E1014.67220
M104 S200 ; set temperature
M140 S40 ; wait for bed temperature to be reached
G1 Z0.500 F3300.000
G1 E1012.67220 F2400.00000
G92 E0
G1 X7.877 Y13.377 F3300.000
G1 E2.00000 F2400.00000
G1 X110.123 Y13.377 E4.79938 F2100.000
G1 X110.123 Y74.623 E6.47622
G1 X7.877 Y74.623 E9.27560
G1 X7.877 Y13.437 E10.95080
G1 X7.219 Y12.719 F3300.000
G1 X110.781 Y12.719 E13.78624 F2100.000
G1 X110.781 Y75.281 E15.49915
G1 X7.219 Y75.281 E18.33459
G1 X7.219 Y12.779 E20.04585
G1 X6.700 Y12.200 F3300.000
G1 X111.300 Y12.200 E21.69203 F1050.000
G1 X111.300 Y75.800 E22.69296
G1 X6.700 Y75.800 E24.33914
G1 X6.700 Y12.260 E25.33912
G1 X7.046 Y12.400 F3300.000
G1 E23.33912 F2400.00000
G92 E0
G1 X9.528 Y13.777 F3300.000
G1 E2.00000 F2400.00000
G1 X8.277 Y15.028 E2.04849 F1200.000
G1 X8.277 Y15.960 E2.07403
G1 X10.461 Y13.777 E2.15864
G1 X11.393 Y13.777 E2.18418
G1 X8.277 Y16.893 E2.30492
G1 X8.277 Y17.825 E2.33046
G1 X12.325 Y13.777 E2.48731
G1 X13.257 Y13.777 E2.51285
G1 X8.277 Y18.757 E2.70582
G1 X8.277 Y19.689 E2.73136
G1 X14.189 Y13.777 E2.96046
G1 X15.121 Y13.777 E2.98600
G1 X8.277 Y20.621 E3.25121
G1 X8.277 Y21.553 E3.27676
G1 X16.053 Y13.777 E3.57809
G1 X16.985 Y13.777 E3.60363
G1 X8.277 Y22.485 E3.94109
G1 X8.277 Y23.417 E3.96663
G1 X17.917 Y13.777 E4.34021
G1 X18.849 Y13.777 E4.36575
G1 X8.277 Y24.349 E4.77545
G1 X8.277 Y25.281 E4.80099
G1 X19.781 Y13.777 E5.24681
G1 X20.714 Y13.777 E5.27235
G1 X8.277 Y26.214 E5.75429
G1 X8.277 Y27.146 E5.77983
G1 X21.646 Y13.777 E6.29789
G1 X22.578 Y13.777 E6.32343
G1 X8.277 Y28.078 E6.87761
G1 X8.277 Y29.010 E6.90315
G1 X23.510 Y13.777 E7.49345
G1 X24.442 Y13.777 E7.51899
G1 X8.277 Y29.942 E8.14542
G1 X8.277 Y30.874 E8.17096
G1 X25.374 Y13.777 E8.83350
G1 X26.306 Y13.777 E8.85904
G1 X8.277 Y31.806 E9.55771
G1 X8.277 Y32.738 E9.58325
G1 X27.238 Y13.777 E10.31803
G1 X28.170 Y13.777 E10.34357
G1 X8.277 Y33.670 E11.11448
G1 X8.277 Y34.602 E11.14002
G1 X29.102 Y13.777 E11.94705
G1 X30.035 Y13.777 E11.97259
G1 X8.277 Y35.535 E12.81574
G1 X8.277 Y36.467 E12.84128
G1 X30.967 Y13.777 E13.72055
G1 X31.899 Y13.777 E13.74609
G1 X8.277 Y37.399 E14.66148
G1 X8.277 Y38.331 E14.68702
G1 X32.831 Y13.777 E15.63853
G1 X33.763 Y13.777 E15.66407
G1 X8.277 Y39.263 E16.65170
G1 X8.277 Y40.195 E16.67724
G1 X34.695 Y13.777 E17.70099
G1 X35.627 Y13.777 E17.72653
G1 X8.277 Y41.127 E18.78640
G1 X8.277 Y42.059 E18.81194
G1 X36.559 Y13.777 E19.90794
G1 X37.491 Y13.777 E19.93348
G1 X8.277 Y42.991 E21.06559
G1 X8.277 Y43.923 E21.09113
G1 X38.423 Y13.777 E22.25937
G1 X39.356 Y13.777 E22.28491
G1 X8.277 Y44.856 E23.48926
G1 X8.277 Y45.788 E23.51480
G1 X40.288 Y13.777 E24.75528
G1 X41.220 Y13.777 E24.78082
G1 X8.277 Y46.720 E26.05742
G1 X8.277 Y47.652 E26.08296
G1 X42.152 Y13.777 E27.39568
G1 X43.084 Y13.777 E27.42122
G1 X8.277 Y48.584 E28.77006
G1 X8.277 Y49.516 E28.79560
G1 X44.016 Y13.777 E30.18056
G1 X44.948 Y13.777 E30.20610
G1 X8.277 Y50.448 E31.62718
G1 X8.277 Y51.380 E31.65272
G1 X45.880 Y13.777 E33.10992
G1 X46.812 Y13.777 E33.13546
G1 X8.277 Y52.312 E34.62878
G1 X8.277 Y53.244 E34.65432
G1 X47.744 Y13.777 E36.18376
G1 X48.677 Y13.777 E36.20931
G1 X8.277 Y54.177 E37.77487
G1 X8.277 Y55.109 E37.80041
G1 X49.609 Y13.777 E39.40209
G1 X50.541 Y13.777 E39.42763
G1 X8.277 Y56.041 E41.06544
G1 X8.277 Y56.973 E41.09098
G1 X51.473 Y13.777 E42.76491
G1 X52.405 Y13.777 E42.79045
G1 X8.277 Y57.905 E44.50049
G1 X8.277 Y58.837 E44.52603
G1 X53.337 Y13.777 E46.27220
G1 X54.269 Y13.777 E46.29774
G1 X8.277 Y59.769 E48.08003
G1 X8.277 Y60.701 E48.10557
G1 X55.201 Y13.777 E49.92398
G1 X56.133 Y13.777 E49.94952
G1 X8.277 Y61.633 E51.80405
G1 X8.277 Y62.565 E51.82959
G1 X57.065 Y13.777 E53.72024
G1 X57.998 Y13.777 E53.74578
G1 X8.277 Y63.497 E55.67255
G1 X8.277 Y64.430 E55.69809
G1 X58.930 Y13.777 E57.66098
G1 X59.862 Y13.777 E57.68653
G1 X8.277 Y65.362 E59.68554
G1 X8.277 Y66.294 E59.71108
G1 X60.794 Y13.777 E61.74621
G1 X61.726 Y13.777 E61.77175
G1 X8.277 Y67.226 E63.84301
G1 X8.277 Y68.158 E63.86855
G1 X62.658 Y13.777 E65.97592
G1 X63.590 Y13.777 E66.00146
G1 X8.277 Y69.090 E68.14496
G1 X8.277 Y70.022 E68.17050
G1 X64.522 Y13.777 E70.35012
G1 X65.454 Y13.777 E70.37566
G1 X8.277 Y70.954 E72.59139
G1 X8.277 Y71.886 E72.61694
G1 X66.386 Y13.777 E74.86879
G1 X67.318 Y13.777 E74.89433
G1 X8.277 Y72.818 E77.18231
G1 X8.277 Y73.751 E77.20785
G1 X68.251 Y13.777 E79.53195
G1 X69.183 Y13.777 E79.55749
G1 X8.737 Y74.223 E81.89990
G1 X9.669 Y74.223 E81.92544
G1 X70.115 Y13.777 E84.26784
G1 X71.047 Y13.777 E84.29338
G1 X10.601 Y74.223 E86.63578
G1 X11.533 Y74.223 E86.66132
G1 X71.979 Y13.777 E89.00373
G1 X72.911 Y13.777 E89.02927
G1 X12.465 Y74.223 E91.37167
G1 X13.397 Y74.223 E91.39721
G1 X73.843 Y13.777 E93.73961
G1 X74.775 Y13.777 E93.76515
G1 X14.329 Y74.223 E96.10756
G1 X15.262 Y74.223 E96.13310
G1 X75.707 Y13.777 E98.47550
G1 X76.639 Y13.777 E98.50104
G1 X16.194 Y74.223 E100.84344
G1 X17.126 Y74.223 E100.86898
G1 X77.572 Y13.777 E103.21139
G1 X78.504 Y13.777 E103.23693
G1 X18.058 Y74.223 E105.57933
G1 X18.990 Y74.223 E105.60487
G1 X79.436 Y13.777 E107.94727
G1 X80.368 Y13.777 E107.97282
G1 X19.922 Y74.223 E110.31522
G1 X20.854 Y74.223 E110.34076
G1 X81.300 Y13.777 E112.68316
G1 X82.232 Y13.777 E112.70870
G1 X21.786 Y74.223 E115.05110
G1 X22.718 Y74.223 E115.07665
G1 X83.164 Y13.777 E117.41905
G1 X84.096 Y13.777 E117.44459
G1 X23.650 Y74.223 E119.78699
G1 X24.583 Y74.223 E119.81253
G1 X85.028 Y13.777 E122.15493
