; generated by Slic3r 1.2.9 on 2017-01-02 at 20:33:07

; external perimeters extrusion width = 0.50mm
; perimeters extrusion width = 0.85mm
; infill extrusion width = 1.52mm
; solid infill extrusion width = 0.85mm
; top infill extrusion width = 0.85mm

M107
M104 S200 ; set temperature
G28 ; home all axes
G1 Z5 F5000 ; lift nozzle

M109 S200 ; wait for temperature to be reached
G21 ; set units to millimeters
G90 ; use absolute coordinates
M82 ; use absolute distances for extrusion
G92 E0
G1 Z0.394 F3300.000
G1 E-2.00000 F2400.00000
G92 E0
G1 X49.659 Y90.268 F3300.000
G1 E2.00000 F2400.00000
G1 X50.020 Y90.111 E2.01543 F1800.000
G1 X50.615 Y89.927 E2.03983
G1 X51.427 Y89.830 E2.07186 F1800.000
G1 X52.138 Y89.874 E2.09973
G1 X52.671 Y89.992 E2.12112
G1 X53.083 Y90.129 E2.13814
G1 X53.633 Y90.394 E2.16202
G1 X54.125 Y90.730 E2.18535
G1 X54.424 Y90.987 E2.20078
G1 X54.882 Y91.493 E2.22753
G1 X55.312 Y92.189 E2.25956
G1 X55.540 Y92.769 E2.28396
G1 X55.637 Y93.133 E2.29873
G1 X55.715 Y93.628 E2.31834
G1 X55.737 Y94.042 E2.33458
G1 X55.715 Y94.456 E2.35082
G1 X55.632 Y94.985 E2.37175
G1 X55.458 Y95.549 E2.39488
G1 X55.305 Y95.899 E2.40985
G1 X54.993 Y96.439 E2.43426
G1 X54.464 Y97.063 E2.46628
G1 X53.910 Y97.517 E2.49436
G1 X53.383 Y97.821 E2.51815
G1 X53.008 Y97.984 E2.53419
G1 X52.252 Y98.193 E2.56488
G1 X51.538 Y98.256 E2.59296
G1 X50.904 Y98.208 E2.61788
G1 X50.382 Y98.092 E2.63881
G1 X49.975 Y97.957 E2.65563
G1 X49.509 Y97.736 E2.67578
G1 X49.115 Y97.496 E2.69387
G1 X48.506 Y96.980 E2.72512
G1 X48.064 Y96.441 E2.75242
G1 X47.833 Y96.059 E2.76990
G1 X47.592 Y95.552 E2.79190
G1 X47.376 Y94.768 E2.82372
G1 X47.312 Y94.042 E2.85226
G1 X47.376 Y93.316 E2.88080
G1 X47.601 Y92.501 E2.91390
G1 X47.990 Y91.751 E2.94700
G1 X48.447 Y91.163 E2.97615
G1 X49.072 Y90.618 E3.00864
G1 X49.594 Y90.307 E3.03245
G1 X49.980 Y90.895 F3300.000
G1 X50.265 Y90.771 E3.04461 F1800.000
G1 X50.762 Y90.618 E3.06498
G1 X51.448 Y90.535 E3.09202 F1800.000
G1 X52.039 Y90.572 E3.11524
G1 X52.483 Y90.671 E3.13305
G1 X52.819 Y90.782 E3.14690
G1 X53.280 Y91.005 E3.16696
G1 X53.696 Y91.288 E3.18668
G1 X53.932 Y91.491 E3.19883
G1 X54.317 Y91.918 E3.22136
G1 X54.681 Y92.505 E3.24840
G1 X54.871 Y92.989 E3.26878
G1 X54.948 Y93.279 E3.28053
G1 X55.014 Y93.701 E3.29726
G1 X55.033 Y94.042 E3.31064
G1 X55.014 Y94.383 E3.32401
G1 X54.945 Y94.826 E3.34155
G1 X54.798 Y95.304 E3.36115
G1 X54.676 Y95.582 E3.37302
G1 X54.416 Y96.033 E3.39340
G1 X53.970 Y96.559 E3.42044
G1 X53.509 Y96.937 E3.44378
G1 X53.066 Y97.192 E3.46378
G1 X52.773 Y97.320 E3.47631
G1 X52.127 Y97.498 E3.50254
G1 X51.534 Y97.550 E3.52587
G1 X51.007 Y97.511 E3.54656
G1 X50.570 Y97.414 E3.56410
G1 X50.237 Y97.303 E3.57782
G1 X49.843 Y97.116 E3.59489
G1 X49.527 Y96.924 E3.60938
G1 X49.010 Y96.485 E3.63595
G1 X48.640 Y96.034 E3.65881
G1 X48.452 Y95.725 E3.67294
G1 X48.253 Y95.306 E3.69113
G1 X48.071 Y94.643 E3.71805
G1 X48.018 Y94.042 E3.74166
G1 X48.071 Y93.441 E3.76528
G1 X48.259 Y92.760 E3.79298
G1 X48.585 Y92.132 E3.82067
G1 X48.960 Y91.648 E3.84466
G1 X49.486 Y91.189 E3.87198
G1 X49.916 Y90.934 E3.89157
G1 X50.302 Y91.522 F3300.000
G1 X50.510 Y91.431 E3.90046 F1800.000
G1 X50.909 Y91.308 E3.91681
G1 X51.468 Y91.241 E3.93886 F1800.000
G1 X51.941 Y91.270 E3.95741
G1 X52.296 Y91.349 E3.97165
G1 X52.554 Y91.435 E3.98233
G1 X52.928 Y91.615 E3.99856
G1 X53.268 Y91.847 E4.01468
G1 X53.440 Y91.995 E4.02356
G1 X53.753 Y92.342 E4.04186
G1 X54.049 Y92.821 E4.06392
G1 X54.202 Y93.209 E4.08027
G1 X54.260 Y93.425 E4.08901
G1 X54.314 Y93.774 E4.10286
G1 X54.329 Y94.042 E4.11336
G1 X54.314 Y94.310 E4.12387
G1 X54.258 Y94.667 E4.13801
G1 X54.138 Y95.059 E4.15408
G1 X54.048 Y95.265 E4.16287
G1 X53.839 Y95.626 E4.17921
G1 X53.475 Y96.056 E4.20127
G1 X53.107 Y96.357 E4.21986
G1 X52.749 Y96.564 E4.23608
G1 X52.538 Y96.656 E4.24509
G1 X52.002 Y96.803 E4.26686
G1 X51.529 Y96.845 E4.28545
G1 X51.110 Y96.814 E4.30191
G1 X50.757 Y96.735 E4.31606
G1 X50.500 Y96.650 E4.32669
G1 X50.177 Y96.497 E4.34066
G1 X49.939 Y96.352 E4.35157
G1 X49.513 Y95.991 E4.37346
G1 X49.215 Y95.627 E4.39188
G1 X49.072 Y95.391 E4.40265
G1 X48.915 Y95.060 E4.41703
G1 X48.765 Y94.518 E4.43905
G1 X48.723 Y94.042 E4.45774
G1 X48.765 Y93.567 E4.47643
G1 X48.917 Y93.018 E4.49872
G1 X49.179 Y92.513 E4.52102
G1 X49.474 Y92.133 E4.53984
G1 X49.900 Y91.761 E4.56200
G1 X50.237 Y91.560 E4.57737
G1 X50.318 Y91.296 F3300.000
G1 E2.57737 F2400.00000
G92 E0
G1 X51.505 Y78.259 F3300.000
G1 E2.00000 F2400.00000
G1 X51.112 Y78.210 E2.01551 F1800.000
G1 X50.527 Y78.073 E2.03904
G1 X50.183 Y77.954 E2.05330
G1 X49.853 Y77.812 E2.06738
G1 X49.356 Y77.536 E2.08963
G1 X48.767 Y77.097 E2.11837
G1 X48.260 Y76.567 E2.14711
G1 X47.925 Y76.108 E2.16937
G1 X47.730 Y75.775 E2.18450
G1 X47.507 Y75.289 E2.20543
G1 X47.370 Y74.890 E2.22197
G1 X47.277 Y74.524 E2.23674
G1 X47.193 Y73.929 E2.26028
G1 X47.179 Y73.533 E2.27578
G1 X47.221 Y72.934 E2.29929
G1 X47.291 Y72.544 E2.31482
G1 X47.470 Y71.925 E2.34004
G1 X47.775 Y71.270 E2.36835
G1 X48.082 Y70.791 E2.39060
G1 X48.325 Y70.485 E2.40592
G1 X48.746 Y70.056 E2.42946
G1 X49.052 Y69.805 E2.44497
G1 X49.554 Y69.474 E2.46850
G1 X49.889 Y69.301 E2.48328
G1 X50.280 Y69.140 E2.49982
G1 X50.832 Y68.972 E2.52242
G1 X51.542 Y68.867 E2.55054
G1 X52.111 Y68.860 E2.57280 F1800.000
G1 X52.500 Y68.895 E2.58812
G1 X53.090 Y69.011 E2.61165
G1 X53.451 Y69.122 E2.62643
G1 X53.842 Y69.281 E2.64297
G1 X54.344 Y69.543 E2.66514
G1 X54.856 Y69.907 E2.68974
G1 X55.129 Y70.148 E2.70400
G1 X55.384 Y70.408 E2.71826
G1 X55.766 Y70.889 E2.74231
G1 X56.003 Y71.276 E2.76010
G1 X56.256 Y71.795 E2.78270
G1 X56.472 Y72.480 E2.81082
G1 X56.569 Y73.040 E2.83308
G1 X56.596 Y73.430 E2.84840
G1 X56.575 Y74.031 E2.87193
G1 X56.519 Y74.423 E2.88744
G1 X56.364 Y75.038 E2.91226
G1 X56.125 Y75.622 E2.93701
G1 X55.952 Y75.943 E2.95126
G1 X55.757 Y76.251 E2.96553
G1 X55.367 Y76.743 E2.99012
G1 X54.958 Y77.134 E3.01229
G1 X54.602 Y77.416 E3.03008
G1 X54.077 Y77.735 E3.05413
G1 X53.723 Y77.902 E3.06945
G1 X53.220 Y78.081 E3.09038
G1 X52.779 Y78.191 E3.10817
G1 X52.138 Y78.270 E3.13346
G1 X51.580 Y78.260 E3.15531
G1 X51.555 Y77.557 F3300.000
G1 X51.236 Y77.517 E3.16790 F1800.000
G1 X50.723 Y77.397 E3.18852
G1 X50.163 Y77.180 E3.21205
G1 X49.738 Y76.944 E3.23107
G1 X49.235 Y76.569 E3.25567
G1 X48.800 Y76.115 E3.28027
G1 X48.514 Y75.723 E3.29929
G1 X48.354 Y75.450 E3.31165
G1 X48.161 Y75.027 E3.32986
G1 X48.044 Y74.689 E3.34390
G1 X47.968 Y74.388 E3.35604
G1 X47.894 Y73.867 E3.37666
G1 X47.883 Y73.545 E3.38924
G1 X47.920 Y73.021 E3.40983
G1 X47.976 Y72.704 E3.42245
G1 X48.130 Y72.173 E3.44409
G1 X48.393 Y71.609 E3.46843
G1 X48.655 Y71.201 E3.48745
G1 X48.853 Y70.951 E3.49993
G1 X49.222 Y70.576 E3.52054
G1 X49.470 Y70.371 E3.53313
G1 X49.910 Y70.082 E3.55375
G1 X50.185 Y69.939 E3.56589
G1 X50.516 Y69.803 E3.57993
G1 X50.986 Y69.660 E3.59916
G1 X51.598 Y69.570 E3.62339
G1 X52.084 Y69.564 E3.64241 F1800.000
G1 X52.401 Y69.592 E3.65488
G1 X52.918 Y69.693 E3.67550
G1 X53.214 Y69.785 E3.68764
G1 X53.546 Y69.920 E3.70168
G1 X53.976 Y70.144 E3.72065
G1 X54.418 Y70.459 E3.74191
G1 X54.645 Y70.659 E3.75374
G1 X54.856 Y70.874 E3.76557
G1 X55.188 Y71.293 E3.78650
G1 X55.386 Y71.615 E3.80130
G1 X55.601 Y72.056 E3.82053
G1 X55.787 Y72.646 E3.84475
G1 X55.870 Y73.125 E3.86377
G1 X55.892 Y73.443 E3.87625
G1 X55.874 Y73.969 E3.89686
G1 X55.829 Y74.287 E3.90946
G1 X55.695 Y74.817 E3.93087
G1 X55.488 Y75.322 E3.95221
G1 X55.345 Y75.588 E3.96404
G1 X55.183 Y75.843 E3.97587
G1 X54.846 Y76.268 E3.99713
G1 X54.496 Y76.603 E4.01610
G1 X54.200 Y76.837 E4.03090
G1 X53.743 Y77.115 E4.05183
G1 X53.455 Y77.251 E4.06430
G1 X53.017 Y77.407 E4.08251
G1 X52.650 Y77.498 E4.09731
G1 X52.100 Y77.566 E4.11900
G1 X51.630 Y77.558 E4.13744
G1 X51.604 Y76.854 F3300.000
G1 X51.359 Y76.824 E4.14711 F1800.000
G1 X50.919 Y76.721 E4.16481
G1 X50.473 Y76.548 E4.18355
G1 X50.121 Y76.352 E4.19933
G1 X49.702 Y76.040 E4.21980
G1 X49.340 Y75.663 E4.24027
G1 X49.102 Y75.337 E4.25605
G1 X48.979 Y75.126 E4.26564
G1 X48.814 Y74.766 E4.28113
G1 X48.659 Y74.252 E4.30215
G1 X48.595 Y73.805 E4.31985
G1 X48.586 Y73.558 E4.32952
G1 X48.618 Y73.108 E4.34720
G1 X48.662 Y72.864 E4.35689
G1 X48.790 Y72.421 E4.37496
G1 X49.010 Y71.949 E4.39533
G1 X49.227 Y71.610 E4.41112
G1 X49.380 Y71.417 E4.42075
G1 X49.697 Y71.095 E4.43845
G1 X49.888 Y70.938 E4.44812
G1 X50.265 Y70.689 E4.46582
G1 X50.481 Y70.578 E4.47533
G1 X50.753 Y70.466 E4.48686
G1 X51.141 Y70.348 E4.50272
G1 X51.654 Y70.272 E4.52305
G1 X52.057 Y70.267 E4.53883 F1800.000
G1 X52.302 Y70.289 E4.54846
G1 X52.746 Y70.376 E4.56616
G1 X52.978 Y70.448 E4.57567
G1 X53.251 Y70.558 E4.58720
G1 X53.607 Y70.745 E4.60297
G1 X53.981 Y71.010 E4.62090
G1 X54.160 Y71.169 E4.63030
G1 X54.329 Y71.340 E4.63970
G1 X54.611 Y71.697 E4.65751
G1 X54.769 Y71.954 E4.66931
G1 X54.946 Y72.318 E4.68517
G1 X55.103 Y72.813 E4.70550
G1 X55.171 Y73.210 E4.72128
G1 X55.189 Y73.455 E4.73091
G1 X55.173 Y73.907 E4.74861
G1 X55.138 Y74.151 E4.75829
G1 X55.025 Y74.597 E4.77629
G1 X54.852 Y75.021 E4.79423
G1 X54.738 Y75.232 E4.80363
G1 X54.610 Y75.435 E4.81302
G1 X54.325 Y75.794 E4.83096
G1 X54.034 Y76.072 E4.84672
G1 X53.798 Y76.259 E4.85852
G1 X53.409 Y76.496 E4.87634
G1 X53.187 Y76.601 E4.88597
G1 X52.814 Y76.733 E4.90146
G1 X52.521 Y76.806 E4.91326
G1 X52.063 Y76.863 E4.93135
G1 X51.679 Y76.856 E4.94638
G1 X51.462 Y77.057 F3300.000
G1 E2.94638 F2400.00000
G92 E0
G1 X55.601 Y72.343 F3300.000
G1 X57.429 Y69.891 F3300.000
G1 X57.180 Y68.622 F3300.000
G1 X58.615 Y68.479 F3300.000
G1 X59.153 Y68.409 F3300.000
G1 X59.186 Y68.403 F3300.000
G1 X59.476 Y68.343 F3300.000
G1 X59.373 Y67.853 F3300.000
G1 E2.00000 F2400.00000
G1 X59.373 Y58.789 E2.35496 F1800.000
G1 X59.665 Y58.789 E2.36638
G1 X59.442 Y58.157 E2.39262
G1 X59.345 Y57.720 E2.41014
G1 X59.269 Y56.912 E2.44196
G1 X59.321 Y56.243 E2.46820
G1 X59.373 Y55.965 E2.47931
G1 X59.373 Y51.739 E2.64479
G1 X59.767 Y51.484 E2.66316
G1 X59.678 Y51.182 E2.67551
G1 X59.373 Y51.182 E2.68744
G1 X59.373 Y42.437 E3.02986
G1 X59.332 Y42.294 E3.03569
G1 X59.276 Y41.591 E3.06332
G1 X59.306 Y41.004 E3.08636
G1 X59.373 Y40.609 E3.10204
G1 X59.373 Y37.654 E3.21775
G1 X59.322 Y37.427 E3.22686
G1 X59.275 Y36.814 E3.25092
G1 X59.311 Y36.266 E3.27243
G1 X59.373 Y35.928 E3.28591
G1 X59.373 Y27.289 E3.62420
G1 X68.699 Y27.289 E3.98941
G1 X68.699 Y36.334 E4.34360
G1 X67.120 Y36.334 E4.40543
G1 X67.206 Y37.054 E4.43381
G1 X67.210 Y37.680 E4.45835
G1 X67.146 Y38.255 E4.48099
G1 X66.990 Y38.855 E4.50527
G1 X66.691 Y39.491 E4.53278
G1 X66.974 Y40.040 E4.55699
G1 X67.175 Y40.816 E4.58837
G1 X67.217 Y41.406 E4.61153
G1 X67.154 Y42.273 E4.64559
G1 X68.699 Y42.273 E4.70609
G1 X68.699 Y51.192 E5.05533
G1 X68.680 Y51.778 E5.07829
G1 X68.619 Y52.242 E5.09664
G1 X68.432 Y52.991 E5.12686
G1 X68.066 Y53.655 E5.15657
G1 X67.760 Y54.008 E5.17484
G1 X68.134 Y54.486 E5.19863
G1 X68.480 Y55.140 E5.22759
G1 X68.635 Y55.625 E5.24753
G1 X68.721 Y56.053 E5.26463
G1 X68.809 Y56.887 E5.29748
G1 X68.733 Y57.730 E5.33060
G1 X68.559 Y58.418 E5.35840
G1 X68.390 Y58.789 E5.37437
G1 X68.699 Y58.789 E5.38645
G1 X68.699 Y63.028 E5.55245
G1 X68.082 Y63.233 E5.57792
G1 X68.081 Y63.536 E5.58978
G1 X68.699 Y63.747 E5.61537
G1 X68.699 Y67.853 E5.77617
G1 X67.368 Y67.853 E5.82829
G1 X67.277 Y68.152 E5.84051
G1 X67.629 Y68.389 E5.85715
G1 X68.140 Y69.035 E5.88940
G1 X68.480 Y69.646 E5.91674
G1 X68.655 Y70.310 E5.94364
G1 X68.736 Y71.033 E5.97215
G1 X68.615 Y71.947 E6.00826
G1 X68.421 Y72.474 E6.03025
G1 X68.136 Y73.025 E6.05453
G1 X67.954 Y73.249 E6.06583
G1 X68.140 Y73.485 E6.07759
G1 X68.480 Y74.095 E6.10493
G1 X68.655 Y74.759 E6.13183
G1 X68.736 Y75.482 E6.16034
G1 X68.615 Y76.397 E6.19645
G1 X68.421 Y76.923 E6.21844
G1 X68.136 Y77.474 E6.24273
G1 X67.756 Y77.942 E6.26630
G1 X67.376 Y78.311 E6.28707
G1 X66.944 Y78.600 E6.30742
G1 X66.426 Y78.870 E6.33028
G1 X65.489 Y79.129 E6.36835
G1 X64.638 Y79.220 E6.40187
G1 X64.137 Y79.229 E6.42151
G1 X63.298 Y79.198 E6.45439
G1 X62.722 Y79.120 E6.47712
G1 X62.338 Y79.034 E6.49254
G1 X61.805 Y78.894 E6.51412
G1 X61.328 Y78.682 E6.53459
G1 X60.891 Y78.436 E6.55419
G1 X60.527 Y78.156 E6.57221
G1 X59.943 Y77.544 E6.60532
G1 X59.549 Y76.806 E6.63807
G1 X59.415 Y76.430 E6.65370
G1 X59.316 Y75.936 E6.67346
G1 X59.269 Y75.377 E6.69542
G1 X59.320 Y74.775 E6.71906
G1 X59.450 Y74.195 E6.74235
G1 X59.705 Y73.655 E6.76573
G1 X60.001 Y73.202 E6.78691
G1 X59.549 Y72.357 E6.82444
G1 X59.415 Y71.981 E6.84007
G1 X59.316 Y71.486 E6.85983
G1 X59.269 Y70.927 E6.88179
G1 X59.320 Y70.326 E6.90543
G1 X59.450 Y69.746 E6.92872
G1 X59.705 Y69.206 E6.95210
G1 X60.083 Y68.628 E6.97914
G1 X60.995 Y67.853 E7.02599
G1 X59.448 Y67.853 E7.08656
G1 E5.08656 F2400.00000
G92 E0
G1 X63.473 Y67.962 F3300.000
G1 E2.00000 F2400.00000
G1 X63.519 Y68.456 E2.01943 F1800.000
G1 X63.906 Y68.282 E2.03607
G1 X64.288 Y68.186 E2.05149
G1 X65.002 Y68.114 E2.07958
G1 X65.573 Y68.166 E2.10204
G1 X65.956 Y68.243 E2.11732
G1 X66.430 Y68.429 E2.13729
G1 X67.146 Y68.911 E2.17108
G1 X67.553 Y69.427 E2.19681
G1 X67.822 Y69.910 E2.21848
G1 X67.962 Y70.439 E2.23990
G1 X68.028 Y71.026 E2.26302
G1 X67.928 Y71.778 E2.29272
G1 X67.776 Y72.190 E2.30992
G1 X67.544 Y72.638 E2.32968
G1 X67.237 Y73.017 E2.34879
G1 X67.032 Y73.216 E2.35998
G1 X67.553 Y73.876 E2.39293
G1 X67.822 Y74.360 E2.41460
G1 X67.962 Y74.888 E2.43601
G1 X68.028 Y75.475 E2.45914
G1 X67.928 Y76.227 E2.48883
G1 X67.776 Y76.639 E2.50604
G1 X67.544 Y77.087 E2.52579
G1 X67.237 Y77.466 E2.54491
G1 X66.932 Y77.762 E2.56153
G1 X66.584 Y77.994 E2.57792
G1 X66.167 Y78.213 E2.59636
G1 X65.358 Y78.436 E2.62924
G1 X64.594 Y78.517 E2.65931
G1 X64.143 Y78.526 E2.67697
G1 X63.358 Y78.497 E2.70775
G1 X62.846 Y78.428 E2.72796
G1 X62.504 Y78.351 E2.74168
G1 X62.039 Y78.229 E2.76053
G1 X61.644 Y78.053 E2.77747
G1 X61.280 Y77.848 E2.79381
G1 X60.998 Y77.632 E2.80774
G1 X60.518 Y77.128 E2.83497
G1 X60.193 Y76.521 E2.86194
G1 X60.094 Y76.242 E2.87353
G1 X60.013 Y75.837 E2.88970
G1 X59.974 Y75.377 E2.90778
G1 X60.017 Y74.882 E2.92722
G1 X60.119 Y74.424 E2.94560
G1 X60.320 Y73.999 E2.96402
G1 X60.615 Y73.547 E2.98517
G1 X61.019 Y73.204 E3.00590
G1 X60.518 Y72.679 E3.03433
G1 X60.193 Y72.071 E3.06129
G1 X60.094 Y71.793 E3.07288
G1 X60.013 Y71.388 E3.08906
G1 X59.974 Y70.928 E3.10713
G1 X60.017 Y70.433 E3.12658
G1 X60.119 Y69.975 E3.14495
G1 X60.320 Y69.550 E3.16338
G1 X60.615 Y69.098 E3.18452
G1 X61.043 Y68.734 E3.20651
G1 X61.371 Y68.525 E3.22173
G1 X61.710 Y68.378 E3.23620
G1 X63.400 Y67.979 E3.30420
G1 X62.847 Y68.832 F3300.000
G1 X62.947 Y69.910 E3.34659 F1800.000
G1 X63.358 Y69.417 E3.37174
G1 X63.874 Y69.067 E3.39612
G1 X64.138 Y68.949 E3.40747
G1 X64.417 Y68.878 E3.41874
G1 X64.994 Y68.819 E3.44144
G1 X65.471 Y68.862 E3.46022
G1 X65.756 Y68.920 E3.47159
G1 X66.101 Y69.056 E3.48612
G1 X66.662 Y69.433 E3.51261
G1 X66.967 Y69.818 E3.53182
G1 X67.165 Y70.175 E3.54782
G1 X67.269 Y70.569 E3.56375
G1 X67.319 Y71.019 E3.58149
G1 X67.241 Y71.608 E3.60477
G1 X67.132 Y71.906 E3.61720
G1 X66.953 Y72.251 E3.63241
G1 X66.717 Y72.542 E3.64707
G1 X66.488 Y72.764 E3.65956
G1 X66.225 Y72.940 E3.67197
G1 X65.555 Y73.290 E3.70157
G1 X66.101 Y73.505 E3.72454
G1 X66.662 Y73.882 E3.75103
G1 X66.967 Y74.267 E3.77024
G1 X67.165 Y74.624 E3.78624
G1 X67.269 Y75.018 E3.80217
G1 X67.319 Y75.468 E3.81991
G1 X67.241 Y76.057 E3.84319
G1 X67.132 Y76.355 E3.85562
G1 X66.953 Y76.700 E3.87084
G1 X66.717 Y76.991 E3.88549
G1 X66.488 Y77.213 E3.89798
G1 X66.225 Y77.389 E3.91039
G1 X65.908 Y77.555 E3.92441
G1 X65.226 Y77.743 E3.95210
G1 X64.550 Y77.815 E3.97873
G1 X64.150 Y77.823 E3.99441
G1 X63.418 Y77.795 E4.02308
G1 X62.970 Y77.735 E4.04077
G1 X62.670 Y77.668 E4.05280
G1 X62.272 Y77.563 E4.06892
G1 X61.960 Y77.424 E4.08233
G1 X61.669 Y77.260 E4.09540
G1 X61.469 Y77.107 E4.10525
G1 X61.093 Y76.712 E4.12661
G1 X60.838 Y76.235 E4.14779
G1 X60.773 Y76.054 E4.15533
G1 X60.710 Y75.739 E4.16792
G1 X60.680 Y75.378 E4.18211
G1 X60.713 Y74.989 E4.19737
G1 X60.788 Y74.654 E4.21083
G1 X60.935 Y74.343 E4.22429
G1 X61.148 Y74.017 E4.23954
G1 X61.462 Y73.750 E4.25570
G1 X61.702 Y73.597 E4.26683
G1 X61.932 Y73.497 E4.27664
G1 X62.256 Y73.421 E4.28968
