; generated by Slic3r 1.2.9 on 2017-01-01 at 16:27:24

; external perimeters extrusion width = 0.40mm
; perimeters extrusion width = 0.68mm
; infill extrusion width = 1.28mm
; solid infill extrusion width = 0.68mm
; top infill extrusion width = 0.68mm

M107
M190 S50 ; set bed temperature
M104 S205 ; set temperature
G28 ; home all axes
G1 Z5 F5000 ; lift nozzle

M109 S205 ; wait for temperature to be reached
G21 ; set units to millimeters
G90 ; use absolute coordinates
M82 ; use absolute distances for extrusion
G92 E0
G1 Z0.400 F3300.000
G1 E-2.00000 F2400.00000
G92 E0
G1 X44.705 Y72.041 F3300.000
G1 E2.00000 F2400.00000
G1 X45.287 Y71.693 E2.08050 F1800.000
G1 X45.898 Y71.469 E2.15787
G1 X46.260 Y71.392 E2.20180
G1 X46.647 Y71.349 E2.24810 F1800.000
G1 X47.244 Y71.365 E2.31901
G1 X47.629 Y71.428 E2.36532
G1 X48.251 Y71.624 E2.44270
G1 X48.848 Y71.944 E2.52319
G1 X49.375 Y72.370 E2.60369
G1 X49.813 Y72.887 E2.68419
G1 X50.148 Y73.477 E2.76469
G1 X50.366 Y74.119 E2.84519
G1 X50.461 Y74.790 E2.92568
G1 X50.429 Y75.467 E3.00618
G1 X50.272 Y76.126 E3.08668
G1 X50.005 Y76.720 E3.16405
G1 X49.808 Y77.033 E3.20798
G1 X49.567 Y77.340 E3.25429
G1 X49.139 Y77.756 E3.32519
G1 X48.825 Y77.987 E3.37150
G1 X48.251 Y78.295 E3.44888
G1 X47.604 Y78.498 E3.52938
G1 X46.931 Y78.577 E3.60987
G1 X46.255 Y78.530 E3.69037
G1 X45.599 Y78.357 E3.77087
G1 X45.011 Y78.076 E3.84825
G1 X44.703 Y77.872 E3.89218
G1 X44.402 Y77.624 E3.93848
G1 X43.996 Y77.186 E4.00938
G1 X43.773 Y76.866 E4.05570
G1 X43.479 Y76.285 E4.13307
G1 X43.290 Y75.634 E4.21357
G1 X43.227 Y74.959 E4.29407
G1 X43.290 Y74.285 E4.37456
G1 X43.479 Y73.633 E4.45506
G1 X43.785 Y73.029 E4.53556
G1 X44.198 Y72.492 E4.61606
G1 X44.660 Y72.081 E4.68943
G1 X45.129 Y72.620 F3300.000
G1 X45.596 Y72.341 E4.75397 F1800.000
G1 X46.097 Y72.157 E4.81740
G1 X46.374 Y72.098 E4.85101
G1 X46.677 Y72.064 E4.88725 F1800.000
G1 X47.176 Y72.077 E4.94657
G1 X47.463 Y72.125 E4.98103
G1 X47.972 Y72.285 E5.04446
G1 X48.451 Y72.542 E5.10900
G1 X48.874 Y72.884 E5.17354
G1 X49.225 Y73.298 E5.23809
G1 X49.493 Y73.771 E5.30263
G1 X49.668 Y74.285 E5.36717
G1 X49.745 Y74.823 E5.43171
G1 X49.719 Y75.366 E5.49626
G1 X49.593 Y75.895 E5.56080
G1 X49.374 Y76.382 E5.62422
G1 X49.223 Y76.621 E5.65783
G1 X49.035 Y76.861 E5.69408
G1 X48.677 Y77.210 E5.75339
G1 X48.443 Y77.381 E5.78786
G1 X47.972 Y77.634 E5.85128
G1 X47.454 Y77.797 E5.91583
G1 X46.914 Y77.860 E5.98037
G1 X46.372 Y77.822 E6.04491
G1 X45.846 Y77.684 E6.10946
G1 X45.365 Y77.453 E6.17288
G1 X45.129 Y77.297 E6.20649
G1 X44.893 Y77.103 E6.24273
G1 X44.553 Y76.737 E6.30205
G1 X44.387 Y76.499 E6.33652
G1 X44.146 Y76.022 E6.39994
G1 X43.995 Y75.500 E6.46448
G1 X43.944 Y74.959 E6.52903
G1 X43.995 Y74.418 E6.59357
G1 X44.146 Y73.896 E6.65811
G1 X44.392 Y73.411 E6.72265
G1 X44.723 Y72.981 E6.78720
G1 X45.085 Y72.660 E6.84462
G1 X45.098 Y72.221 F3300.000
G1 E4.84462 F2400.00000
G92 E0
G1 X46.274 Y78.413 F3300.000
G1 X45.604 Y84.099 F3300.000
G1 X45.499 Y84.101 F3300.000
G1 X46.397 Y89.770 F3300.000
G1 X46.390 Y88.936 F3300.000
G1 E2.00000 F2400.00000
G1 X47.114 Y88.938 E2.08605 F1800.000
G1 X47.897 Y89.104 E2.18105
G1 X48.630 Y89.430 E2.27635
G1 X49.279 Y89.902 E2.37165
G1 X49.784 Y90.462 E2.46122
G1 X50.054 Y90.879 E2.52026
G1 X50.361 Y91.568 E2.60983
G1 X50.528 Y92.353 E2.70514
G1 X50.528 Y93.156 E2.80044
G1 X50.361 Y93.941 E2.89574
G1 X50.051 Y94.638 E2.98634
G1 X49.763 Y95.071 E3.04816
G1 X49.277 Y95.608 E3.13421
G1 X48.630 Y96.079 E3.22921
G1 X47.897 Y96.405 E3.32451
G1 X47.112 Y96.572 E3.41982
G1 X46.309 Y96.572 E3.51512
G1 X45.524 Y96.405 E3.61042
G1 X44.791 Y96.079 E3.70572
G1 X44.142 Y95.607 E3.80102
G1 X43.638 Y95.047 E3.89059
G1 X43.367 Y94.630 E3.94964
G1 X43.060 Y93.941 E4.03920
G1 X42.893 Y93.156 E4.13451
G1 X42.893 Y92.353 E4.22981
G1 X43.060 Y91.568 E4.32511
G1 X43.386 Y90.835 E4.42041
G1 X43.858 Y90.186 E4.51571
G1 X44.454 Y89.649 E4.61102
G1 X45.149 Y89.248 E4.70632
G1 X45.875 Y89.012 E4.79692
G1 X46.330 Y88.944 E4.85161 F1800.000
G1 X46.442 Y89.650 F3300.000
G1 X47.038 Y89.652 E4.92248 F1800.000
G1 X47.675 Y89.787 E4.99977
G1 X48.271 Y90.052 E5.07724
G1 X48.798 Y90.436 E5.15471
G1 X49.215 Y90.899 E5.22869
G1 X49.425 Y91.221 E5.27438
G1 X49.678 Y91.790 E5.34836
G1 X49.814 Y92.428 E5.42584
G1 X49.814 Y93.081 E5.50331
G1 X49.678 Y93.719 E5.58078
G1 X49.423 Y94.293 E5.65539
G1 X49.198 Y94.632 E5.70374
G1 X48.797 Y95.074 E5.77461
G1 X48.271 Y95.457 E5.85189
G1 X47.675 Y95.722 E5.92937
G1 X47.037 Y95.858 E6.00684
G1 X46.384 Y95.858 E6.08431
G1 X45.746 Y95.722 E6.16178
G1 X45.150 Y95.457 E6.23926
G1 X44.623 Y95.073 E6.31673
G1 X44.206 Y94.610 E6.39071
G1 X43.996 Y94.288 E6.43640
G1 X43.743 Y93.719 E6.51038
G1 X43.607 Y93.081 E6.58785
G1 X43.607 Y92.428 E6.66533
G1 X43.743 Y91.790 E6.74280
G1 X44.008 Y91.194 E6.82027
G1 X44.392 Y90.667 E6.89774
G1 X44.876 Y90.230 E6.97522
G1 X45.441 Y89.904 E7.05269
G1 X46.039 Y89.710 E7.12730
G1 X46.382 Y89.659 E7.16852 F1800.000
G1 X46.493 Y90.364 F3300.000
G1 X46.962 Y90.366 E7.22420 F1800.000
G1 X47.453 Y90.470 E7.28378
G1 X47.912 Y90.674 E7.34342
G1 X48.318 Y90.969 E7.40307
G1 X48.647 Y91.335 E7.46146
G1 X48.795 Y91.563 E7.49380
G1 X48.995 Y92.012 E7.55219
G1 X49.100 Y92.503 E7.61183
G1 X49.100 Y93.006 E7.67147
G1 X48.995 Y93.497 E7.73112
G1 X48.794 Y93.948 E7.78973
G1 X48.632 Y94.192 E7.82461
G1 X48.317 Y94.540 E7.88029
G1 X47.912 Y94.835 E7.93987
G1 X47.453 Y95.039 E7.99951
G1 X46.962 Y95.144 E8.05916
G1 X46.459 Y95.144 E8.11880
G1 X45.968 Y95.039 E8.17844
G1 X45.509 Y94.835 E8.23809
G1 X45.103 Y94.540 E8.29773
G1 X44.774 Y94.174 E8.35612
G1 X44.626 Y93.946 E8.38846
G1 X44.426 Y93.497 E8.44685
G1 X44.321 Y93.006 E8.50650
G1 X44.321 Y92.503 E8.56614
G1 X44.426 Y92.012 E8.62578
G1 X44.630 Y91.553 E8.68543
G1 X44.925 Y91.147 E8.74507
G1 X45.299 Y90.811 E8.80471
G1 X45.733 Y90.560 E8.86436
G1 X46.203 Y90.407 E8.92297
G1 X46.434 Y90.373 E8.95073 F1800.000
G1 X46.677 Y90.009 F3300.000
G1 E6.95073 F2400.00000
G92 E0
G1 X43.468 Y78.328 F3300.000
G1 E2.00000 F2400.00000
G1 X43.468 Y77.667 E2.07854 F1800.000
G1 X43.911 Y78.145 E2.15596
G1 X44.278 Y78.446 E2.21232
G1 X44.658 Y78.699 E2.26656
G1 X45.352 Y79.030 E2.35789
G1 X46.138 Y79.237 E2.45435
G1 X46.948 Y79.295 E2.55080
G1 X47.754 Y79.200 E2.64725
G1 X48.529 Y78.956 E2.74370
G1 X49.207 Y78.592 E2.83503
G1 X49.601 Y78.303 E2.89319
G1 X50.099 Y77.819 E2.97568
G1 X50.392 Y77.445 E3.03205
G1 X50.636 Y77.059 E3.08629
G1 X50.951 Y76.357 E3.17762
G1 X51.140 Y75.567 E3.27407
G1 X51.178 Y74.756 E3.37053
G1 X51.064 Y73.952 E3.46698
G1 X50.802 Y73.183 E3.56343
G1 X50.401 Y72.477 E3.65988
G1 X49.876 Y71.857 E3.75634
G1 X49.245 Y71.347 E3.85279
G1 X48.529 Y70.963 E3.94924
G1 X47.795 Y70.732 E4.04057
G1 X47.312 Y70.652 E4.09873
G1 X46.618 Y70.634 E4.18122
G1 X46.146 Y70.686 E4.23758
G1 X45.699 Y70.781 E4.29183
G1 X44.978 Y71.046 E4.38315
G1 X44.281 Y71.463 E4.47961
G1 X43.468 Y72.186 E4.60875
G1 X43.468 Y8.328 E12.19278
G1 X91.061 Y8.328 E17.84522
G1 X91.061 Y109.672 E29.88128
G1 X26.939 Y109.672 E37.49679
G1 X26.939 Y78.328 E41.21929
G1 X43.408 Y78.328 E43.17529
G1 X42.754 Y77.614 F3300.000
G1 X42.754 Y7.614 E51.48885 F1800.000
G1 X91.776 Y7.614 E57.31092
G1 X91.775 Y110.386 E69.51662
G1 X26.224 Y110.386 E77.30176
G1 X26.224 Y77.614 E81.19390
G1 X42.694 Y77.614 E83.14990
G1 X42.040 Y76.900 F3300.000
G1 X42.040 Y6.900 E91.46346 F1800.000
G1 X92.490 Y6.900 E97.45516
G1 X92.489 Y111.100 E109.83050
G1 X25.510 Y111.100 E117.78527
G1 X25.510 Y76.900 E121.84704
G1 X41.980 Y76.900 E123.80304
G1 X42.440 Y76.900 F3300.000
G1 E121.80304 F2400.00000
G92 E0
G1 X43.937 Y78.874 F3300.000
G1 E2.00000 F2400.00000
G1 X74.299 Y109.236 E7.11319 F1800.000
G1 X73.287 Y109.236 E7.23378
G1 X42.814 Y78.764 E12.36550
G1 X41.802 Y78.764 E12.48609
G1 X72.274 Y109.236 E17.61781
G1 X71.261 Y109.236 E17.73840
G1 X40.789 Y78.764 E22.87013
G1 X39.776 Y78.764 E22.99072
G1 X70.249 Y109.236 E28.12244
G1 X69.236 Y109.236 E28.24303
G1 X50.371 Y90.371 E31.42001
G1 X50.919 Y91.932 F3300.000
G1 X68.223 Y109.236 E34.33415 F1800.000
G1 X67.211 Y109.236 E34.45473
G1 X50.963 Y92.989 E37.19089
G1 X50.799 Y93.837 E37.29381
G1 X66.198 Y109.236 E39.88704
G1 X65.185 Y109.236 E40.00763
G1 X50.509 Y94.560 E42.47923
G1 X50.133 Y95.196 E42.56727
G1 X64.173 Y109.236 E44.93169
G1 X63.160 Y109.236 E45.05228
G1 X49.662 Y95.738 E47.32538
G1 X49.107 Y96.196 E47.41104
G1 X62.147 Y109.236 E49.60712
G1 X61.135 Y109.236 E49.72770
G1 X48.471 Y96.573 E51.86030
G1 X47.741 Y96.855 E51.95357
G1 X60.122 Y109.236 E54.03870
G1 X59.109 Y109.236 E54.15929
G1 X46.881 Y97.007 E56.21869
G1 X45.806 Y96.946 E56.34682
G1 X58.097 Y109.236 E58.41659
G1 X57.084 Y109.236 E58.53718
G1 X27.374 Y79.526 E63.54053
G1 X27.624 Y78.764 E63.63608
G1 X42.519 Y93.659 E66.14444
G1 X42.458 Y92.584 E66.27257
G1 X28.637 Y78.764 E68.60003
G1 X29.650 Y78.764 E68.72062
G1 X42.610 Y91.724 E70.90326
G1 X42.892 Y90.994 E70.99653
G1 X30.662 Y78.764 E73.05611
G1 X31.675 Y78.764 E73.17669
G1 X43.269 Y90.358 E75.12921
G1 X43.727 Y89.803 E75.21487
G1 X32.688 Y78.764 E77.07386
G1 X33.700 Y78.764 E77.19445
G1 X44.259 Y89.323 E78.97265
G1 X44.901 Y88.952 E79.06093
G1 X34.713 Y78.764 E80.77671
G1 X35.726 Y78.764 E80.89730
G1 X45.635 Y88.673 E82.56614
G1 X46.478 Y88.503 E82.66848
G1 X36.738 Y78.764 E84.30863
G1 X37.751 Y78.764 E84.42922
G1 X47.533 Y88.546 E86.07657
G1 X49.066 Y89.066 F3300.000
G1 X38.764 Y78.764 E87.81153 F1800.000
G1 E85.81153 F2400.00000
G92 E0
G1 X45.691 Y79.615 F3300.000
G1 E2.00000 F2400.00000
G1 X75.312 Y109.236 E6.98833 F1800.000
G1 X76.325 Y109.236 E7.10892
G1 X46.820 Y79.731 E12.07772
G1 X47.726 Y79.625 E12.18635
G1 X77.337 Y109.236 E17.17311
G1 X78.350 Y109.236 E17.29369
G1 X48.496 Y79.382 E22.32126
G1 X49.171 Y79.045 E22.41113
G1 X79.363 Y109.236 E27.49556
G1 X80.375 Y109.236 E27.61615
G1 X49.778 Y78.639 E32.76895
G1 X50.298 Y78.146 E32.85425
G1 X81.388 Y109.236 E38.09006
G1 X82.401 Y109.236 E38.21065
G1 X50.750 Y77.586 E43.54074
G1 X51.114 Y76.937 E43.62932
G1 X83.413 Y109.236 E49.06865
G1 X84.426 Y109.236 E49.18924
G1 X51.401 Y76.212 E54.75076
G1 X51.578 Y75.375 E54.85256
G1 X85.439 Y109.236 E60.55496
G1 X86.451 Y109.236 E60.67555
G1 X51.586 Y74.371 E66.54710
G1 X51.276 Y73.048 E66.70881
G1 X87.464 Y109.236 E72.80303
G1 X88.477 Y109.236 E72.92362
G1 X43.904 Y64.663 E80.42999
G1 X43.904 Y63.650 E80.55058
G1 X89.489 Y109.236 E88.22748
G1 X90.502 Y109.236 E88.34807
G1 X43.904 Y62.638 E96.19551
G1 X43.904 Y61.625 E96.31610
G1 X90.625 Y108.347 E104.18435
G1 X90.625 Y107.334 E104.30493
G1 X43.904 Y60.612 E112.17318
G1 X43.904 Y59.600 E112.29377
G1 X90.625 Y106.322 E120.16202
G1 X90.626 Y105.309 E120.28260
G1 X43.904 Y58.587 E128.15086
G1 X43.904 Y57.575 E128.27144
G1 X90.626 Y104.296 E136.13970
G1 X90.626 Y103.284 E136.26029
G1 X43.904 Y56.562 E144.12854
G1 X43.904 Y55.549 E144.24913
G1 X90.626 Y102.271 E152.11739
G1 X90.626 Y101.259 E152.23798
G1 X43.904 Y54.537 E160.10624
G1 X43.904 Y53.524 E160.22683
G1 X90.626 Y100.246 E168.09509
G1 X90.626 Y99.233 E168.21568
G1 X43.904 Y52.511 E176.08394
G1 X43.904 Y51.499 E176.20453
G1 X90.626 Y98.221 E184.07280
G1 X90.626 Y97.208 E184.19339
G1 X43.904 Y50.486 E192.06166
G1 X43.904 Y49.473 E192.18225
G1 X90.626 Y96.195 E200.05052
G1 X90.626 Y95.183 E200.17111
G1 X43.904 Y48.461 E208.03939
G1 X43.904 Y47.448 E208.15997
G1 X90.626 Y94.170 E216.02825
G1 X90.626 Y93.157 E216.14884
G1 X43.904 Y46.435 E224.01712
G1 X43.904 Y45.423 E224.13771
G1 X90.626 Y92.145 E232.00599
G1 X90.626 Y91.132 E232.12658
G1 X43.904 Y44.410 E239.99487
G1 X43.904 Y43.397 E240.11545
G1 X90.626 Y90.119 E247.98374
G1 X90.626 Y89.107 E248.10433
G1 X43.904 Y42.385 E255.97262
G1 X43.904 Y41.372 E256.09321
G1 X90.626 Y88.094 E263.96150
G1 X90.626 Y87.081 E264.08209
G1 X43.904 Y40.359 E271.95039
G1 X43.904 Y39.347 E272.07097
G1 X90.626 Y86.069 E279.93927
G1 X90.626 Y85.056 E280.05986
G1 X43.904 Y38.334 E287.92816
G1 X43.904 Y37.321 E288.04875
G1 X90.626 Y84.044 E295.91705
G1 X90.626 Y83.031 E296.03764
G1 X43.904 Y36.309 E303.90594
G1 X43.904 Y35.296 E304.02653
G1 X90.626 Y82.018 E311.89484
G1 X90.626 Y81.006 E312.01543
G1 X43.904 Y34.283 E319.88374
G1 X43.904 Y33.271 E320.00433
G1 X90.626 Y79.993 E327.87264
G1 X90.626 Y78.980 E327.99323
G1 X43.904 Y32.258 E335.86154
G1 X43.904 Y31.245 E335.98213
G1 X90.626 Y77.968 E343.85045
G1 X90.626 Y76.955 E343.97103
G1 X43.904 Y30.233 E351.83935
G1 X43.904 Y29.220 E351.95994
G1 X90.626 Y75.942 E359.82826
G1 X90.626 Y74.930 E359.94885
G1 X43.904 Y28.207 E367.81717
G1 X43.904 Y27.195 E367.93776
G1 X90.626 Y73.917 E375.80608
G1 X90.626 Y72.904 E375.92667
G1 X43.904 Y26.182 E383.79499
G1 X43.904 Y25.169 E383.91558
G1 X90.626 Y71.892 E391.78390
G1 X90.626 Y70.879 E391.90449
G1 X43.904 Y24.157 E399.77281
G1 X43.904 Y23.144 E399.89340
G1 X90.626 Y69.866 E407.76172
G1 X90.626 Y68.854 E407.88231
G1 X43.904 Y22.131 E415.75063
G1 X43.904 Y21.119 E415.87122
G1 X90.626 Y67.841 E423.73954
G1 X90.626 Y66.828 E423.86013
G1 X43.904 Y20.106 E431.72845
G1 X43.904 Y19.093 E431.84904
G1 X90.626 Y65.816 E439.71736
G1 X90.626 Y64.803 E439.83795
G1 X43.904 Y18.081 E447.70627
G1 X43.904 Y17.068 E447.82686
G1 X90.626 Y63.790 E455.69518
G1 X90.626 Y62.778 E455.81577
G1 X43.904 Y16.055 E463.68409
G1 X43.904 Y15.043 E463.80468
G1 X90.626 Y61.765 E471.67300
G1 X90.626 Y60.752 E471.79359
G1 X43.904 Y14.030 E479.66191
G1 X43.904 Y13.017 E479.78250
G1 X90.626 Y59.740 E487.65082
G1 X90.626 Y58.727 E487.77141
G1 X43.904 Y12.005 E495.63973
G1 X43.904 Y10.992 E495.76032
G1 X90.626 Y57.714 E503.62864
G1 X90.626 Y56.702 E503.74922
G1 X43.904 Y9.980 E511.61755
G1 X43.904 Y8.967 E511.73813
G1 X90.626 Y55.689 E519.60646
G1 X90.626 Y54.677 E519.72704
G1 X44.713 Y8.764 E527.45902
G1 X45.726 Y8.764 E527.57960
G1 X90.626 Y53.664 E535.14104
G1 X90.626 Y52.651 E535.26163
G1 X46.739 Y8.764 E542.65252
G1 X47.751 Y8.764 E542.77311
G1 X90.626 Y51.639 E549.99347
G1 X90.626 Y50.626 E550.11406
G1 X48.764 Y8.764 E557.16388
G1 X49.777 Y8.764 E557.28447
G1 X90.626 Y49.613 E564.16375
G1 X90.626 Y48.601 E564.28434
G1 X50.789 Y8.764 E570.99308
G1 X51.802 Y8.764 E571.11367
G1 X90.626 Y47.588 E577.65188
G1 X90.626 Y46.575 E577.77247
G1 X52.815 Y8.764 E584.14013
G1 X53.827 Y8.764 E584.26072
G1 X90.626 Y45.563 E590.45785
G1 X90.626 Y44.550 E590.57844
G1 X54.840 Y8.764 E596.60503
G1 X55.852 Y8.764 E596.72562
G1 X90.626 Y43.537 E602.58167
G1 X90.626 Y42.525 E602.70226
G1 X56.865 Y8.764 E608.38778
G1 X57.878 Y8.764 E608.50837
G1 X90.626 Y41.512 E614.02335
G1 X90.626 Y40.499 E614.14393
G1 X58.890 Y8.764 E619.48837
G1 X59.903 Y8.764 E619.60896
G1 X90.626 Y39.487 E624.78286
G1 X90.626 Y38.474 E624.90345
G1 X60.916 Y8.764 E629.90682
G1 X61.928 Y8.764 E630.02741
G1 X90.626 Y37.461 E634.86023
G1 X90.626 Y36.449 E634.98082
G1 X62.941 Y8.764 E639.64311
G1 X63.954 Y8.764 E639.76370
G1 X90.626 Y35.436 E644.25545
G1 X90.626 Y34.423 E644.37604
G1 X64.966 Y8.764 E648.69725
G1 X65.979 Y8.764 E648.81784
G1 X90.626 Y33.411 E652.96851
G1 X90.626 Y32.398 E653.08910
G1 X66.992 Y8.764 E657.06923
G1 X68.004 Y8.764 E657.18982
G1 X90.626 Y31.385 E660.99942
G1 X90.626 Y30.373 E661.12001
G1 X69.017 Y8.764 E664.75907
G1 X70.030 Y8.764 E664.87966
G1 X90.626 Y29.360 E668.34818
G1 X90.626 Y28.347 E668.46877
G1 X71.042 Y8.764 E671.76675
G1 X72.055 Y8.764 E671.88734
G1 X90.626 Y27.335 E675.01479
G1 X90.626 Y26.322 E675.13538
G1 X73.068 Y8.764 E678.09228
G1 X74.080 Y8.764 E678.21287
G1 X90.626 Y25.309 E680.99924
G1 X90.626 Y24.297 E681.11983
G1 X75.093 Y8.764 E683.73566
G1 X76.106 Y8.764 E683.85625
G1 X90.626 Y23.284 E686.30155
G1 X90.626 Y22.271 E686.42213
G1 X77.118 Y8.764 E688.69689
G1 X78.131 Y8.764 E688.81748
G1 X90.626 Y21.259 E690.92170
G1 X90.626 Y20.246 E691.04229
G1 X79.144 Y8.764 E692.97597
G1 X80.156 Y8.764 E693.09655
G1 X90.626 Y19.233 E694.85970
G1 X90.626 Y18.221 E694.98029
G1 X81.169 Y8.764 E696.57289
G1 X82.182 Y8.764 E696.69348
G1 X90.626 Y17.208 E698.11554
G1 X90.626 Y16.195 E698.23613
G1 X83.194 Y8.764 E699.48766
G1 X84.207 Y8.764 E699.60825
G1 X90.626 Y15.183 E700.68924
G1 X90.626 Y14.170 E700.80983
G1 X85.220 Y8.764 E701.72028
G1 X86.232 Y8.764 E701.84087
G1 X90.626 Y13.157 E702.58078
