; generated by Slic3r 1.2.9 on 2016-12-31 at 13:10:27

; external perimeters extrusion width = 0.40mm
; perimeters extrusion width = 0.68mm
; infill extrusion width = 1.28mm
; solid infill extrusion width = 0.68mm
; top infill extrusion width = 0.68mm

M107
M190 S50 ; set bed temperature
M104 S205 ; set temperature
G28 ; home all axes
G1 Z5 F5000 ; lift nozzle

M109 S205 ; wait for temperature to be reached
G21 ; set units to millimeters
G90 ; use absolute coordinates
M82 ; use absolute distances for extrusion
G92 E0
G1 Z0.400 F3300.000
G1 E-2.00000 F2400.00000
G92 E0
G1 X30.720 Y32.287 F3300.000
G1 E2.00000 F2400.00000
G1 X77.038 Y96.038 E11.35870 F1800.000
G1 X88.460 Y87.739 E13.03545
G1 X89.219 Y88.785 E13.18890
G1 X76.922 Y97.719 E14.99413
G1 X29.194 Y32.027 E24.63787
G1 X41.491 Y23.093 E26.44310
G1 X42.142 Y23.989 E26.57468
G1 X30.769 Y32.252 E28.24431
G1 X30.397 Y32.522 F3300.000
G1 E26.24431 F2400.00000
G92 E0
G1 X41.528 Y23.751 F3300.000
G1 E2.00000 F2400.00000
G1 X30.106 Y32.049 E3.67675 F1800.000
G1 X30.004 Y32.155 E3.69418
G1 X30.073 Y32.316 E3.71496
G1 X76.510 Y96.231 E13.09778
G1 X76.831 Y96.986 F3300.000
G1 X88.550 Y88.472 E16.74539 F1800.000
M104 S200 ; set temperature
M140 S40 ; wait for bed temperature to be reached
G1 Z0.500 F3300.000
G1 E14.74539 F2400.00000
G92 E0
G1 X30.275 Y32.217 F3300.000
G1 E2.00000 F2400.00000
G1 X76.967 Y96.483 E4.17490 F2100.000
G1 X88.389 Y88.184 E4.56144
G1 X88.774 Y88.714 E4.57937
G1 X76.992 Y97.274 E4.97809
G1 X29.639 Y32.097 E7.18382
G1 X41.420 Y23.537 E7.58253
G1 X41.697 Y23.918 E7.59542
G1 X30.324 Y32.182 E7.98032
G1 X31.000 Y32.332 F3300.000
G1 X77.082 Y95.759 E9.21417 F1050.000
G1 X88.504 Y87.460 E9.43636
G1 X89.498 Y88.829 E9.46299
G1 X76.878 Y97.998 E9.70850
G1 X28.914 Y31.983 E10.99271
G1 X41.535 Y22.813 E11.23822
G1 X42.421 Y24.033 E11.26195
G1 X31.048 Y32.296 E11.48320
G1 X30.676 Y32.567 F3300.000
G1 Z0.600 F3300.000
G1 X30.275 Y32.217 F3300.000
G1 X76.967 Y96.483 E13.65810 F2100.000
G1 X88.389 Y88.184 E14.04464
G1 X88.774 Y88.714 E14.06258
G1 X76.992 Y97.274 E14.46129
G1 X29.639 Y32.097 E16.66702
G1 X41.420 Y23.537 E17.06573
G1 X41.697 Y23.918 E17.07862
G1 X30.324 Y32.182 E17.46352
G1 X31.000 Y32.332 F3300.000
G1 X77.082 Y95.759 E18.69737 F1050.000
G1 X88.504 Y87.460 E18.91956
G1 X89.498 Y88.829 E18.94619
G1 X76.878 Y97.998 E19.19170
G1 X28.914 Y31.983 E20.47591
G1 X41.535 Y22.813 E20.72142
G1 X42.421 Y24.033 E20.74515
G1 X31.048 Y32.296 E20.96640
G1 X30.676 Y32.567 F3300.000
M106 S211.65
G1 Z0.700 F3300.000
G1 X30.275 Y32.217 F3300.000
G1 X76.967 Y96.483 E23.14130 F2100.000
G1 X88.389 Y88.184 E23.52784
G1 X88.774 Y88.714 E23.54578
G1 X76.992 Y97.274 E23.94449
G1 X29.639 Y32.097 E26.15022
G1 X41.420 Y23.537 E26.54893
G1 X41.697 Y23.918 E26.56183
G1 X30.324 Y32.182 E26.94672
G1 X31.000 Y32.332 F3300.000
G1 X77.082 Y95.759 E28.18057 F1050.000
G1 X88.504 Y87.460 E28.40276
G1 X89.498 Y88.829 E28.42939
G1 X76.878 Y97.998 E28.67490
G1 X28.914 Y31.983 E29.95911
G1 X41.535 Y22.813 E30.20462
G1 X42.421 Y24.033 E30.22835
G1 X31.048 Y32.296 E30.44960
G1 X30.676 Y32.567 F3300.000
G1 Z0.800 F3300.000
G1 X30.275 Y32.217 F3300.000
G1 X76.967 Y96.483 E32.62450 F2100.000
G1 X88.389 Y88.184 E33.01104
G1 X88.774 Y88.714 E33.02898
G1 X76.992 Y97.274 E33.42769
G1 X29.639 Y32.097 E35.63342
G1 X41.420 Y23.537 E36.03213
G1 X41.697 Y23.918 E36.04503
G1 X30.324 Y32.182 E36.42992
G1 X31.000 Y32.332 F3300.000
G1 X77.082 Y95.759 E37.66377 F1050.000
G1 X88.504 Y87.460 E37.88596
G1 X89.498 Y88.829 E37.91259
G1 X76.878 Y97.998 E38.15810
G1 X28.914 Y31.983 E39.44231
G1 X41.535 Y22.813 E39.68782
G1 X42.421 Y24.033 E39.71155
G1 X31.048 Y32.296 E39.93280
G1 X30.676 Y32.567 F3300.000
G1 Z0.900 F3300.000
G1 X30.275 Y32.217 F3300.000
G1 X76.967 Y96.483 E42.10770 F2100.000
G1 X88.389 Y88.184 E42.49424
G1 X88.774 Y88.714 E42.51218
G1 X76.992 Y97.274 E42.91089
G1 X29.639 Y32.097 E45.11662
G1 X41.420 Y23.537 E45.51533
G1 X41.697 Y23.918 E45.52823
G1 X30.324 Y32.182 E45.91312
G1 X31.000 Y32.332 F3300.000
G1 X77.082 Y95.759 E47.14697 F1050.000
G1 X88.504 Y87.460 E47.36916
G1 X89.498 Y88.829 E47.39579
G1 X76.878 Y97.998 E47.64130
G1 X28.914 Y31.983 E48.92551
G1 X41.535 Y22.813 E49.17102
G1 X42.421 Y24.033 E49.19476
G1 X31.048 Y32.296 E49.41600
G1 X30.676 Y32.567 F3300.000
G1 Z1.000 F3300.000
G1 X30.275 Y32.217 F3300.000
G1 X76.967 Y96.483 E51.59090 F2100.000
G1 X88.389 Y88.184 E51.97744
G1 X88.774 Y88.714 E51.99538
G1 X76.992 Y97.274 E52.39409
G1 X29.639 Y32.097 E54.59982
G1 X41.420 Y23.537 E54.99853
G1 X41.697 Y23.918 E55.01143
G1 X30.324 Y32.182 E55.39633
G1 X31.000 Y32.332 F3300.000
G1 X77.082 Y95.759 E56.63017 F1050.000
G1 X88.504 Y87.460 E56.85236
G1 X89.498 Y88.829 E56.87899
G1 X76.878 Y97.998 E57.12450
G1 X28.914 Y31.983 E58.40871
G1 X41.535 Y22.813 E58.65422
G1 X42.421 Y24.033 E58.67796
G1 X31.048 Y32.296 E58.89920
G1 X30.676 Y32.567 F3300.000
M107
G1 Z1.100 F3300.000
G1 E56.89920 F2400.00000
G92 E0
G1 X92.250 Y88.017 F3300.000
G1 E2.00000 F2400.00000
M106 S255
G1 X76.680 Y99.330 E3.00550 F3600.000
G1 X27.750 Y31.983 E7.35467
G1 X43.320 Y20.670 E8.36016
G1 X92.215 Y87.969 E12.70620
M107
G1 X93.170 Y88.163 F3300.000
M106 S255
G1 X76.535 Y100.250 E13.78051 F3600.000
G1 X26.830 Y31.837 E18.19849
G1 X43.465 Y19.750 E19.27280
G1 X93.135 Y88.115 E23.68765
M107
G1 X93.895 Y88.278 F3300.000
M106 S255
G1 X76.420 Y100.974 E24.81614 F3600.000
G1 X26.105 Y31.722 E29.28830
G1 X43.580 Y19.026 E30.41679
G1 X93.859 Y88.229 E34.88582
M107
G1 E32.88582 F2400.00000
G92 E0
G1 X91.694 Y88.026 F3300.000
G1 E2.00000 F2400.00000
M106 S255
G1 X43.140 Y21.197 E6.49833 F3600.000
G1 X42.769 Y21.467 E6.52330
G1 X91.323 Y88.295 E11.02163
G1 X90.952 Y88.565 E11.04659
G1 X42.398 Y21.736 E15.54492
G1 X42.027 Y22.005 E15.56989
G1 X90.581 Y88.834 E20.06822
G1 X90.210 Y89.104 E20.09318
G1 X41.656 Y22.275 E24.59152
G1 X41.285 Y22.544 E24.61648
G1 X89.840 Y89.373 E29.11481
G1 X89.469 Y89.642 E29.13977
G1 X40.915 Y22.814 E33.63811
G1 X40.544 Y23.083 E33.66307
G1 X89.098 Y89.912 E38.16140
G1 X88.727 Y90.181 E38.18636
G1 X40.173 Y23.353 E42.68470
G1 X39.802 Y23.622 E42.70966
G1 X88.356 Y90.451 E47.20799
G1 X87.985 Y90.720 E47.23295
G1 X39.431 Y23.891 E51.73129
G1 X39.060 Y24.161 E51.75625
G1 X87.615 Y90.990 E56.25458
G1 X87.244 Y91.259 E56.27954
G1 X38.690 Y24.430 E60.77788
G1 X38.319 Y24.700 E60.80284
G1 X86.873 Y91.528 E65.30117
G1 X86.502 Y91.798 E65.32613
G1 X37.948 Y24.969 E69.82447
G1 X37.577 Y25.239 E69.84943
G1 X86.131 Y92.067 E74.34776
G1 X85.760 Y92.337 E74.37273
G1 X37.206 Y25.508 E78.87106
G1 X36.835 Y25.777 E78.89602
G1 X85.390 Y92.606 E83.39435
G1 X85.019 Y92.875 E83.41932
G1 X36.465 Y26.047 E87.91765
G1 X36.094 Y26.316 E87.94261
G1 X84.648 Y93.145 E92.44095
G1 X84.277 Y93.414 E92.46591
G1 X35.723 Y26.586 E96.96424
G1 X35.352 Y26.855 E96.98920
G1 X83.906 Y93.684 E101.48754
G1 X83.535 Y93.953 E101.51250
G1 X34.981 Y27.125 E106.01083
G1 X34.610 Y27.394 E106.03579
G1 X83.165 Y94.223 E110.53413
G1 X82.794 Y94.492 E110.55909
G1 X34.240 Y27.663 E115.05742
G1 X33.869 Y27.933 E115.08238
G1 X82.423 Y94.761 E119.58072
G1 X82.052 Y95.031 E119.60568
G1 X33.498 Y28.202 E124.10401
G1 X33.127 Y28.472 E124.12897
G1 X81.681 Y95.300 E128.62731
G1 X81.310 Y95.570 E128.65227
G1 X32.756 Y28.741 E133.15060
G1 X32.385 Y29.010 E133.17557
G1 X80.940 Y95.839 E137.67390
G1 X80.569 Y96.109 E137.69886
G1 X32.015 Y29.280 E142.19719
G1 X31.644 Y29.549 E142.22216
G1 X80.198 Y96.378 E146.72049
G1 X79.827 Y96.647 E146.74545
G1 X31.273 Y29.819 E151.24379
G1 X30.902 Y30.088 E151.26875
G1 X79.456 Y96.917 E155.76708
G1 X79.085 Y97.186 E155.79204
G1 X30.531 Y30.358 E160.29038
G1 X30.160 Y30.627 E160.31534
G1 X78.715 Y97.456 E164.81367
G1 X78.344 Y97.725 E164.83863
G1 X29.790 Y30.896 E169.33697
G1 X29.419 Y31.166 E169.36193
G1 X77.973 Y97.995 E173.86026
G1 X77.602 Y98.264 E173.88522
G1 X29.048 Y31.435 E178.38356
G1 X28.677 Y31.705 E178.40852
G1 X77.231 Y98.533 E182.90685
G1 X76.860 Y98.803 E182.93181
G1 X28.306 Y31.974 E187.43015
M107
G1 Z1.200 F3300.000
G1 E185.43015 F2400.00000
G92 E0
G1 X92.250 Y88.017 F3300.000
G1 E2.00000 F2400.00000
G1 X76.680 Y99.330 E2.52693 F2100.000
G1 X27.750 Y31.983 E4.80611
G1 X43.320 Y20.670 E5.33304
G1 X92.215 Y87.969 E7.61058
G1 X93.170 Y88.163 F3300.000
G1 X76.535 Y100.250 E8.17357 F2100.000
G1 X26.830 Y31.837 E10.48881
G1 X43.465 Y19.750 E11.05180
G1 X93.135 Y88.115 E13.36540
G1 X93.895 Y88.278 F3300.000
G1 X76.420 Y100.974 E13.70533 F1050.000
G1 X26.105 Y31.722 E15.05249
G1 X43.580 Y19.026 E15.39243
G1 X93.859 Y88.229 E16.73865
G1 X93.497 Y88.320 F3300.000
G1 E14.73865 F2400.00000
G92 E0
G1 X88.638 Y83.911 F3300.000
G1 E2.00000 F2400.00000
G1 X33.186 Y28.459 E4.17954 F1200.000
G1 X32.638 Y28.857 E4.19835
G1 X91.150 Y87.368 E6.49814
G1 X91.195 Y88.359 E6.52569
G1 X32.091 Y29.255 E8.84876
G1 X31.543 Y29.652 E8.86757
G1 X90.647 Y88.756 E11.19064
G1 X90.100 Y89.154 E11.20945
G1 X30.996 Y30.050 E13.53252
G1 X30.448 Y30.448 E13.55133
G1 X89.552 Y89.552 E15.87440
G1 X89.004 Y89.950 E15.89321
G1 X29.900 Y30.846 E18.21628
G1 X29.353 Y31.244 E18.23509
G1 X88.457 Y90.348 E20.55816
G1 X87.909 Y90.746 E20.57697
G1 X28.805 Y31.641 E22.90004
G1 X28.850 Y32.632 E22.92759
G1 X87.362 Y91.143 E25.22738
G1 X86.814 Y91.541 E25.24619
G1 X31.362 Y36.089 E27.42572
G1 E25.42572 F2400.00000
G92 E0
G1 X33.874 Y39.546 F3300.000
G1 E2.00000 F2400.00000
G1 X86.267 Y91.939 E4.05929 F1200.000
G1 X85.719 Y92.337 E4.07810
G1 X36.386 Y43.003 E6.01714
G1 E4.01714 F2400.00000
G92 E0
G1 X38.897 Y46.460 F3300.000
G1 E2.00000 F2400.00000
G1 X85.171 Y92.735 E3.81880 F1200.000
G1 X84.624 Y93.132 E3.83761
G1 X41.409 Y49.918 E5.53615
G1 E3.53615 F2400.00000
G92 E0
G1 X43.921 Y53.375 F3300.000
G1 E2.00000 F2400.00000
G1 X84.076 Y93.530 E3.57830 F1200.000
G1 X83.529 Y93.928 E3.59711
G1 X46.433 Y56.832 E5.05517
G1 E3.05517 F2400.00000
G92 E0
G1 X48.944 Y60.289 F3300.000
G1 E2.00000 F2400.00000
G1 X82.981 Y94.326 E3.33781 F1200.000
G1 X82.434 Y94.724 E3.35662
G1 X51.456 Y63.746 E4.57418
G1 E2.57418 F2400.00000
G92 E0
G1 X53.968 Y67.204 F3300.000
G1 E2.00000 F2400.00000
G1 X81.886 Y95.122 E3.09731 F1200.000
G1 X81.339 Y95.519 E3.11612
G1 X56.480 Y70.661 E4.09319
G1 E2.09319 F2400.00000
G92 E0
G1 X58.992 Y74.118 F3300.000
G1 E2.00000 F2400.00000
G1 X80.791 Y95.917 E2.85682 F1200.000
G1 X80.243 Y96.315 E2.87563
G1 X61.503 Y77.575 E3.61220
G1 E1.61220 F2400.00000
G92 E0
G1 X64.015 Y81.032 F3300.000
G1 E2.00000 F2400.00000
G1 X79.696 Y96.713 E2.61633 F1200.000
G1 X79.148 Y97.111 E2.63514
G1 X66.527 Y84.489 E3.13121
G1 E1.13121 F2400.00000
G92 E0
G1 X69.039 Y87.947 F3300.000
G1 E2.00000 F2400.00000
G1 X78.601 Y97.509 E2.37583 F1200.000
G1 X78.053 Y97.906 E2.39464
G1 X71.551 Y91.404 E2.65023
G1 E0.65023 F2400.00000
G92 E0
G1 X74.062 Y94.861 F3300.000
G1 E2.00000 F2400.00000
G1 X77.506 Y98.304 E2.13534 F1200.000
G1 X76.958 Y98.702 E2.15415
G1 X76.574 Y98.318 E2.16924
G1 E0.16924 F2400.00000
G92 E0
G1 X86.126 Y80.454 F3300.000
G1 E2.00000 F2400.00000
G1 X33.733 Y28.061 E4.05930 F1200.000
G1 X34.281 Y27.663 E4.07811
G1 X83.615 Y76.997 E6.01715
G1 E4.01715 F2400.00000
G92 E0
G1 X81.103 Y73.540 F3300.000
G1 E2.00000 F2400.00000
G1 X34.828 Y27.265 E3.81880 F1200.000
G1 X35.376 Y26.868 E3.83761
G1 X78.591 Y70.083 E5.53617
G1 E3.53617 F2400.00000
G92 E0
G1 X76.079 Y66.625 F3300.000
G1 E2.00000 F2400.00000
G1 X35.924 Y26.470 E3.57831 F1200.000
G1 X36.471 Y26.072 E3.59712
G1 X73.567 Y63.168 E5.05518
G1 E3.05518 F2400.00000
G92 E0
G1 X71.056 Y59.711 F3300.000
G1 E2.00000 F2400.00000
G1 X37.019 Y25.674 E3.33781 F1200.000
G1 X37.566 Y25.276 E3.35662
G1 X68.544 Y56.254 E4.57419
G1 E2.57419 F2400.00000
G92 E0
G1 X66.032 Y52.797 F3300.000
G1 E2.00000 F2400.00000
G1 X38.114 Y24.878 E3.09732 F1200.000
G1 X38.661 Y24.481 E3.11613
G1 X63.520 Y49.339 E4.09320
G1 E2.09320 F2400.00000
G92 E0
G1 X61.009 Y45.882 F3300.000
G1 E2.00000 F2400.00000
G1 X39.209 Y24.083 E2.85683 F1200.000
G1 X39.757 Y23.685 E2.87564
G1 X58.497 Y42.425 E3.61222
G1 E1.61222 F2400.00000
G92 E0
G1 X55.985 Y38.968 F3300.000
G1 E2.00000 F2400.00000
G1 X40.304 Y23.287 E2.61633 F1200.000
G1 X40.852 Y22.889 E2.63514
G1 X53.473 Y35.511 E3.13123
G1 E1.13123 F2400.00000
G92 E0
G1 X50.961 Y32.054 F3300.000
G1 E2.00000 F2400.00000
G1 X41.399 Y22.491 E2.37584 F1200.000
G1 X41.947 Y22.094 E2.39465
G1 X48.450 Y28.596 E2.65024
G1 E0.65024 F2400.00000
G92 E0
G1 X45.938 Y25.139 F3300.000
G1 E2.00000 F2400.00000
G1 X42.494 Y21.696 E2.13534 F1200.000
G1 X43.042 Y21.298 E2.15416
G1 X43.426 Y21.682 E2.16925
G1 Z1.300 F3300.000
G1 E0.16925 F2400.00000
G92 E0
G1 X92.250 Y88.017 F3300.000
G1 E2.00000 F2400.00000
G1 X76.680 Y99.330 E2.52693 F2100.000
G1 X27.750 Y31.983 E4.80611
G1 X43.320 Y20.670 E5.33304
G1 X92.215 Y87.969 E7.61058
G1 X93.170 Y88.163 F3300.000
G1 X76.535 Y100.250 E8.17357 F2100.000
G1 X26.830 Y31.837 E10.48881
G1 X43.465 Y19.750 E11.05180
G1 X93.135 Y88.115 E13.36540
G1 X93.895 Y88.278 F3300.000
G1 X76.420 Y100.974 E13.70533 F1050.000
G1 X26.105 Y31.722 E15.05249
G1 X43.580 Y19.026 E15.39243
G1 X93.859 Y88.229 E16.73865
G1 X93.497 Y88.320 F3300.000
G1 E14.73865 F2400.00000
G92 E0
G1 X91.238 Y88.124 F3300.000
G1 E2.00000 F2400.00000
G1 X91.623 Y87.740 E2.01493 F1200.000
G1 X91.229 Y87.198 E2.03332
G1 X87.820 Y90.607 E2.16583
G1 E0.16583 F2400.00000
G92 E0
G1 X84.401 Y93.091 F3300.000
G1 E2.00000 F2400.00000
G1 X90.836 Y86.657 E2.25008 F1200.000
G1 X90.442 Y86.115 E2.26848
G1 X80.983 Y95.575 E2.63614
G1 E0.63614 F2400.00000
G92 E0
G1 X77.564 Y98.059 F3300.000
G1 E2.00000 F2400.00000
G1 X90.049 Y85.574 E2.48524 F1200.000
G1 X89.656 Y85.032 E2.50363
G1 X76.371 Y98.317 E3.01997
G1 X75.977 Y97.776 E3.03837
G1 X89.262 Y84.491 E3.55470
G1 X88.869 Y83.949 E3.57310
G1 X75.584 Y97.235 E4.08944
G1 X75.190 Y96.693 E4.10783
G1 X88.476 Y83.408 E4.62417
G1 X88.082 Y82.867 E4.64256
G1 X74.797 Y96.152 E5.15890
G1 X74.404 Y95.610 E5.17729
G1 X87.689 Y82.325 E5.69363
G1 X87.295 Y81.784 E5.71203
G1 X74.010 Y95.069 E6.22836
G1 X73.617 Y94.527 E6.24676
G1 X86.902 Y81.242 E6.76310
G1 X86.509 Y80.701 E6.78149
G1 X73.224 Y93.986 E7.29783
G1 X72.830 Y93.444 E7.31622
G1 X86.115 Y80.159 E7.83256
G1 X85.722 Y79.618 E7.85095
G1 X72.437 Y92.903 E8.36729
G1 X72.043 Y92.361 E8.38569
G1 X85.328 Y79.076 E8.90203
G1 X84.935 Y78.535 E8.92042
G1 X71.650 Y91.820 E9.43676
G1 X71.257 Y91.279 E9.45515
G1 X84.542 Y77.993 E9.97149
G1 X84.148 Y77.452 E9.98988
G1 X70.863 Y90.737 E10.50622
G1 X70.470 Y90.196 E10.52462
G1 X83.755 Y76.911 E11.04095
G1 X83.361 Y76.369 E11.05935
G1 X70.076 Y89.654 E11.57569
G1 X69.683 Y89.113 E11.59408
G1 X82.968 Y75.828 E12.11042
G1 X82.575 Y75.286 E12.12881
G1 X69.290 Y88.571 E12.64515
G1 X68.896 Y88.030 E12.66354
G1 X82.181 Y74.745 E13.17988
G1 X81.788 Y74.203 E13.19828
G1 X68.503 Y87.488 E13.71462
G1 X68.109 Y86.947 E13.73301
G1 X81.395 Y73.662 E14.24935
G1 X81.001 Y73.120 E14.26774
G1 X67.716 Y86.405 E14.78408
G1 X67.323 Y85.864 E14.80247
G1 X80.608 Y72.579 E15.31881
G1 X80.214 Y72.037 E15.33720
G1 X66.929 Y85.323 E15.85354
G1 X66.536 Y84.781 E15.87194
G1 X79.821 Y71.496 E16.38828
G1 X79.428 Y70.955 E16.40667
G1 X66.143 Y84.240 E16.92301
G1 X65.749 Y83.698 E16.94140
G1 X79.034 Y70.413 E17.45774
G1 X78.641 Y69.872 E17.47613
G1 X65.356 Y83.157 E17.99247
G1 X64.962 Y82.615 E18.01087
G1 X78.247 Y69.330 E18.52720
G1 X77.854 Y68.789 E18.54560
G1 X64.569 Y82.074 E19.06194
G1 X64.176 Y81.532 E19.08033
G1 X77.461 Y68.247 E19.59667
G1 X77.067 Y67.706 E19.61506
G1 X63.782 Y80.991 E20.13140
G1 X63.389 Y80.450 E20.14979
G1 X76.674 Y67.164 E20.66613
G1 X76.280 Y66.623 E20.68453
G1 X62.995 Y79.908 E21.20087
G1 X62.602 Y79.367 E21.21926
G1 X75.887 Y66.082 E21.73560
G1 X75.494 Y65.540 E21.75399
G1 X62.209 Y78.825 E22.27033
G1 X61.815 Y78.284 E22.28872
G1 X75.100 Y64.999 E22.80506
G1 X74.707 Y64.457 E22.82346
G1 X61.422 Y77.742 E23.33979
G1 X61.028 Y77.201 E23.35819
G1 X74.314 Y63.916 E23.87453
G1 X73.920 Y63.374 E23.89292
G1 X60.635 Y76.659 E24.40926
G1 X60.242 Y76.118 E24.42765
G1 X73.527 Y62.833 E24.94399
G1 X73.133 Y62.291 E24.96238
G1 X59.848 Y75.576 E25.47872
G1 X59.455 Y75.035 E25.49712
G1 X72.740 Y61.750 E26.01346
