; generated by Slic3r Prusa Edition 1.41.0+ on 2018-10-06 at 16:10:53

; 

; external perimeters extrusion width = 0.45mm
; perimeters extrusion width = 0.45mm
; infill extrusion width = 0.45mm
; solid infill extrusion width = 0.45mm
; top infill extrusion width = 0.40mm
; first layer extrusion width = 0.42mm

M201 X9000 Y9000 Z500 E10000 ; sets maximum accelerations, mm/sec^2
M203 X500 Y500 Z12 E120 ; sets maximum feedrates, mm/sec
M204 P1500 R1500 T1500 ; sets acceleration (P, T) and retract acceleration (R), mm/sec^2
M205 X10.00 Y10.00 Z0.20 E2.50 ; sets the jerk limits, mm/sec
M205 S0 T0 ; sets the minimum extruding and travel feed rate, mm/sec
M107
M115 U3.1.1-RC5 ; tell printer latest fw version
M350 E32 ;
M92 E280 ;
M221 S100 ; Set flow to 100
M201 X1000 Y1000 Z100 E10000 ; sets maximum accelerations, mm/sec^2
M203 X200 Y200 Z12 E120 ; sets maximum feedrates, mm/sec
M204 S1250 T1250 ; sets acceleration (S) and retract acceleration (T)
M205 X10 Y10 Z0.4 E2.5 ; sets the jerk limits, mm/sec
M205 S0 T0 ; sets the minimum extruding and travel feed rate, mm/sec
M83  ; extruder relative mode
M104 S215 ; set extruder temp
M140 S60 ; set bed temp
M190 S60 ; wait for bed temp
M109 S215 ; wait for extruder temp
G28 W ; home all without mesh bed level
G1 E-2 ; Retract before mesh
G80 ; mesh bed leveling
G1 Y-3.0 F1000.0 ; go outside print area
G92 E0.0
G1 E8 ; Purge Bubble
G1 X60.0 E9.0  F1000.0 ; intro line
G1 X100.0 E12.5  F1000.0 ; intro line
G92 E0.0
M201 Z400 ; Increase Z axis acceleration standard 200
M203 Z60 ; Increase Z max feedrate standard 12
M203 E60 ; Decrease extruder Max feedrate standard 120
M205 E10 ; Increase extruder jerk standard 2.5
M205 X6 Y6 ; decrease XY jerk standard 10

M117 IM PRINTING THINGS!
M900 K30; Filament gcode
G21 ; set units to millimeters
G90 ; use absolute coordinates
M83 ; use relative distances for extrusion
;BEFORE_LAYER_CHANGE
;0.2


G1 E-0.80000 F1800.00000
G1 Z0.600 F10200.000
;AFTER_LAYER_CHANGE
;0.2
G1 X39.756 Y78.725
G1 Z0.200
G1 E0.80000 F1800.00000
M204 S1000
G1 X40.256 Y78.392 E0.01885
G1 X40.710 Y78.231 E0.01510
G1 X41.188 Y78.174 E0.01510
G1 X99.990 Y77.811 E1.84374
G1 X150.004 Y77.811 E1.56814
G1 X150.830 Y77.975 E0.02642
G1 X151.534 Y78.439 E0.02642
G1 X152.010 Y79.134 E0.02642
G1 X152.188 Y79.961 E0.02653
G1 X152.188 Y130.051 E1.57053
G1 X152.093 Y130.641 E0.01873
G1 X151.841 Y131.183 E0.01873
G1 X151.453 Y131.637 E0.01873
G1 X150.952 Y131.970 E0.01885
G1 X150.499 Y132.131 E0.01510
G1 X150.020 Y132.188 E0.01510
G1 X91.218 Y132.551 E1.84374
G1 X41.197 Y132.551 E1.56837
G1 X40.595 Y132.463 E0.01908
G1 X40.041 Y132.213 E0.01908
G1 X39.576 Y131.820 E0.01908
G1 X39.238 Y131.315 E0.01908
G1 X39.076 Y130.854 E0.01532
G1 X39.020 Y130.372 E0.01521
G1 X39.020 Y80.322 E1.56927
G1 X39.114 Y79.728 E0.01885
G1 X39.365 Y79.182 E0.01885
G1 X39.717 Y78.771 E0.01697
; PURGING FINISHED
G1 E-0.08000
G1 F8160
G1 X40.256 Y78.392 E-0.13812
G1 X40.710 Y78.231 E-0.10089
G1 X41.188 Y78.174 E-0.10089
G1 X42.830 Y78.164 E-0.34409
G1 E-0.03600 F1800.00000
G1 Z0.800 F10200.000
G1 X42.173 Y81.327
G1 Z0.200
G1 E0.80000 F1800.00000
G1 X90.244 Y81.327 E1.50725
G1 X90.244 Y129.398 E1.50725
G1 X42.173 Y129.398 E1.50725
G1 X42.173 Y81.387 E1.50537
G1 X41.796 Y80.949 F10200.000
G1 F1800
G1 X90.621 Y80.949 E1.53090
G1 X90.621 Y129.775 E1.53090
G1 X41.796 Y129.775 E1.53090
G1 X41.796 Y81.009 E1.52902
G1 X41.418 Y80.572 F10200.000
G1 F1800
G1 X90.998 Y80.572 E1.55455
G1 X90.998 Y130.152 E1.55455
G1 X41.418 Y130.152 E1.55455
G1 X41.418 Y80.632 E1.55266
G1 X41.805 Y80.676 F10200.000
G1 E-0.08000 F1800.00000
G1 F8160
G1 X44.682 Y80.628 E-0.68400
G1 E-0.03600 F1800.00000
G1 Z0.800 F10200.000
G1 X42.286 Y128.520
G1 Z0.200
G1 E0.80000 F1800.00000
G1 X42.881 Y129.115 E0.02648
G1 X43.416 Y129.115 E0.01683
G1 X42.455 Y128.155 E0.04273
G1 X42.455 Y127.620 E0.01683
G1 X43.951 Y129.115 E0.06653
G1 X44.486 Y129.115 E0.01683
G1 X42.455 Y127.085 E0.09033
G1 X42.455 Y126.550 E0.01683
G1 X45.021 Y129.115 E0.11413
G1 X45.556 Y129.115 E0.01683
G1 X42.455 Y126.015 E0.13793
G1 X42.455 Y125.480 E0.01683
G1 X46.091 Y129.115 E0.16173
G1 X46.626 Y129.115 E0.01683
G1 X42.455 Y124.945 E0.18553
G1 X42.455 Y124.410 E0.01683
G1 X47.161 Y129.115 E0.20933
G1 X47.696 Y129.115 E0.01683
G1 X42.455 Y123.875 E0.23313
G1 X42.455 Y123.340 E0.01683
G1 X48.231 Y129.115 E0.25693
G1 X48.766 Y129.115 E0.01683
G1 X42.455 Y122.805 E0.28073
G1 X42.455 Y122.270 E0.01683
G1 X49.301 Y129.115 E0.30453
G1 X49.836 Y129.115 E0.01683
G1 X42.455 Y121.735 E0.32833
G1 X42.455 Y121.200 E0.01683
G1 X50.371 Y129.115 E0.35213
G1 X50.906 Y129.115 E0.01683
G1 X42.455 Y120.665 E0.37593
G1 X42.455 Y120.130 E0.01683
G1 X51.441 Y129.115 E0.39973
G1 X51.976 Y129.115 E0.01683
G1 X42.455 Y119.595 E0.42353
G1 X42.455 Y119.060 E0.01683
G1 X52.511 Y129.115 E0.44733
G1 X53.046 Y129.115 E0.01683
G1 X42.455 Y118.525 E0.47114
G1 X42.455 Y117.990 E0.01683
G1 X53.581 Y129.115 E0.49494
G1 X54.116 Y129.115 E0.01683
G1 X42.455 Y117.455 E0.51874
G1 X42.455 Y116.920 E0.01683
G1 X54.651 Y129.115 E0.54254
G1 X55.186 Y129.115 E0.01683
G1 X42.455 Y116.385 E0.56634
G1 X42.455 Y115.850 E0.01683
G1 X55.721 Y129.115 E0.59014
G1 X56.256 Y129.115 E0.01683
G1 X42.455 Y115.315 E0.61394
G1 X42.455 Y114.780 E0.01683
G1 X56.791 Y129.115 E0.63774
G1 X57.326 Y129.115 E0.01683
G1 X42.455 Y114.245 E0.66154
G1 X42.455 Y113.710 E0.01683
G1 X57.861 Y129.115 E0.68534
G1 X58.396 Y129.115 E0.01683
G1 X42.455 Y113.175 E0.70914
G1 X42.455 Y112.640 E0.01683
G1 X58.931 Y129.115 E0.73294
G1 X59.466 Y129.115 E0.01683
G1 X42.455 Y112.105 E0.75674
G1 X42.455 Y111.570 E0.01683
G1 X60.001 Y129.115 E0.78054
G1 X60.536 Y129.115 E0.01683
G1 X42.455 Y111.035 E0.80434
G1 X42.455 Y110.500 E0.01683
G1 X61.071 Y129.115 E0.82814
G1 X61.606 Y129.115 E0.01683
G1 X42.455 Y109.965 E0.85194
G1 X42.455 Y109.430 E0.01683
G1 X62.141 Y129.115 E0.87574
G1 X62.676 Y129.115 E0.01683
G1 X42.455 Y108.895 E0.89954
G1 X42.455 Y108.360 E0.01683
G1 X63.211 Y129.115 E0.92334
G1 X63.746 Y129.115 E0.01683
G1 X42.455 Y107.825 E0.94714
G1 X42.455 Y107.290 E0.01683
G1 X64.281 Y129.115 E0.97094
G1 X64.816 Y129.115 E0.01683
G1 X42.455 Y106.755 E0.99474
G1 X42.455 Y106.220 E0.01683
G1 X65.351 Y129.115 E1.01854
G1 X65.886 Y129.115 E0.01683
G1 X42.455 Y105.685 E1.04234
G1 X42.455 Y105.150 E0.01683
G1 X66.421 Y129.115 E1.06614
G1 X66.956 Y129.115 E0.01683
G1 X42.455 Y104.615 E1.08994
G1 X42.455 Y104.080 E0.01683
G1 X67.491 Y129.115 E1.11374
G1 X68.026 Y129.115 E0.01683
G1 X42.455 Y103.545 E1.13754
G1 X42.455 Y103.010 E0.01683
G1 X68.561 Y129.115 E1.16134
G1 X69.096 Y129.115 E0.01683
G1 X42.455 Y102.475 E1.18514
G1 X42.455 Y101.940 E0.01683
G1 X69.631 Y129.115 E1.20895
G1 X70.166 Y129.115 E0.01683
G1 X42.455 Y101.405 E1.23275
G1 X42.455 Y100.870 E0.01683
G1 X70.701 Y129.115 E1.25655
G1 X71.236 Y129.115 E0.01683
G1 X42.455 Y100.335 E1.28035
G1 X42.455 Y99.800 E0.01683
G1 X71.771 Y129.115 E1.30415
G1 X72.306 Y129.115 E0.01683
G1 X42.455 Y99.265 E1.32795
G1 X42.455 Y98.730 E0.01683
G1 X72.841 Y129.115 E1.35175
G1 X73.376 Y129.115 E0.01683
G1 X42.455 Y98.195 E1.37555
G1 X42.455 Y97.660 E0.01683
G1 X73.911 Y129.115 E1.39935
G1 X74.446 Y129.115 E0.01683
G1 X42.455 Y97.124 E1.42315
G1 X42.455 Y96.589 E0.01683
G1 X74.981 Y129.115 E1.44695
G1 X75.516 Y129.115 E0.01683
G1 X42.455 Y96.054 E1.47075
G1 X42.455 Y95.519 E0.01683
G1 X76.051 Y129.115 E1.49455
G1 X76.586 Y129.115 E0.01683
G1 X42.455 Y94.984 E1.51835
G1 X42.455 Y94.449 E0.01683
G1 X77.121 Y129.115 E1.54215
G1 X77.656 Y129.115 E0.01683
G1 X42.455 Y93.914 E1.56595
G1 X42.455 Y93.379 E0.01683
G1 X78.191 Y129.115 E1.58975
G1 X78.726 Y129.115 E0.01683
G1 X42.455 Y92.844 E1.61355
G1 X42.455 Y92.309 E0.01683
G1 X79.261 Y129.115 E1.63735
G1 X79.796 Y129.115 E0.01683
G1 X42.455 Y91.774 E1.66115
G1 X42.455 Y91.239 E0.01683
G1 X80.331 Y129.115 E1.68495
G1 X80.866 Y129.115 E0.01683
G1 X42.455 Y90.704 E1.70875
G1 X42.455 Y90.169 E0.01683
G1 X81.401 Y129.115 E1.73255
G1 X81.936 Y129.115 E0.01683
G1 X42.455 Y89.634 E1.75635
G1 X42.455 Y89.099 E0.01683
G1 X82.471 Y129.115 E1.78015
G1 X83.006 Y129.115 E0.01683
G1 X42.455 Y88.564 E1.80395
G1 X42.455 Y88.029 E0.01683
G1 X83.541 Y129.115 E1.82775
G1 X84.076 Y129.115 E0.01683
G1 X42.455 Y87.494 E1.85155
G1 X42.455 Y86.959 E0.01683
G1 X84.611 Y129.115 E1.87535
G1 X85.146 Y129.115 E0.01683
G1 X42.455 Y86.424 E1.89915
G1 X42.455 Y85.889 E0.01683
G1 X85.681 Y129.115 E1.92295
G1 X86.216 Y129.115 E0.01683
G1 X42.455 Y85.354 E1.94676
G1 X42.455 Y84.819 E0.01683
G1 X86.751 Y129.115 E1.97056
G1 X87.286 Y129.115 E0.01683
G1 X42.455 Y84.284 E1.99436
G1 X42.455 Y83.749 E0.01683
G1 X87.821 Y129.115 E2.01816
G1 X88.356 Y129.115 E0.01683
G1 X42.455 Y83.214 E2.04196
G1 X42.455 Y82.679 E0.01683
G1 X88.891 Y129.115 E2.06576
G1 X89.426 Y129.115 E0.01683
G1 X42.455 Y82.144 E2.08956
G1 X42.455 Y81.609 E0.01683
G1 X89.961 Y129.115 E2.11336
G1 X89.961 Y128.580 E0.01683
G1 X42.990 Y81.609 E2.08956
G1 X43.525 Y81.609 E0.01683
G1 X89.961 Y128.045 E2.06576
G1 X89.961 Y127.510 E0.01683
G1 X44.060 Y81.609 E2.04196
G1 X44.595 Y81.609 E0.01683
G1 X89.961 Y126.975 E2.01816
G1 X89.961 Y126.440 E0.01683
G1 X45.130 Y81.609 E1.99436
G1 X45.665 Y81.609 E0.01683
G1 X89.961 Y125.905 E1.97056
G1 X89.961 Y125.370 E0.01683
G1 X46.200 Y81.609 E1.94675
G1 X46.735 Y81.609 E0.01683
G1 X89.961 Y124.835 E1.92295
G1 X89.961 Y124.300 E0.01683
G1 X47.270 Y81.609 E1.89915
G1 X47.805 Y81.609 E0.01683
G1 X89.961 Y123.765 E1.87535
G1 X89.961 Y123.230 E0.01683
G1 X48.340 Y81.609 E1.85155
G1 X48.875 Y81.609 E0.01683
G1 X89.961 Y122.695 E1.82775
G1 X89.961 Y122.160 E0.01683
G1 X49.410 Y81.609 E1.80395
G1 X49.945 Y81.609 E0.01683
G1 X89.961 Y121.625 E1.78015
G1 X89.961 Y121.090 E0.01683
G1 X50.480 Y81.609 E1.75635
G1 X51.015 Y81.609 E0.01683
G1 X89.961 Y120.555 E1.73255
G1 X89.961 Y120.020 E0.01683
G1 X51.550 Y81.609 E1.70875
G1 X52.086 Y81.609 E0.01683
G1 X89.961 Y119.485 E1.68495
G1 X89.961 Y118.950 E0.01683
G1 X52.621 Y81.609 E1.66115
G1 X53.156 Y81.609 E0.01683
G1 X89.961 Y118.415 E1.63735
G1 X89.961 Y117.880 E0.01683
G1 X53.691 Y81.609 E1.61355
G1 X54.226 Y81.609 E0.01683
G1 X89.961 Y117.345 E1.58975
G1 X89.961 Y116.810 E0.01683
G1 X54.761 Y81.609 E1.56595
G1 X55.296 Y81.609 E0.01683
G1 X89.961 Y116.275 E1.54215
G1 X89.961 Y115.740 E0.01683
G1 X55.831 Y81.609 E1.51835
G1 X56.366 Y81.609 E0.01683
G1 X89.961 Y115.205 E1.49455
G1 X89.961 Y114.670 E0.01683
G1 X56.901 Y81.609 E1.47075
G1 X57.436 Y81.609 E0.01683
G1 X89.961 Y114.135 E1.44695
G1 X89.961 Y113.600 E0.01683
G1 X57.971 Y81.609 E1.42315
G1 X58.506 Y81.609 E0.01683
G1 X89.961 Y113.065 E1.39935
G1 X89.961 Y112.530 E0.01683
G1 X59.041 Y81.609 E1.37555
G1 X59.576 Y81.609 E0.01683
G1 X89.961 Y111.995 E1.35175
G1 X89.961 Y111.460 E0.01683
G1 X60.111 Y81.609 E1.32795
G1 X60.646 Y81.609 E0.01683
G1 X89.961 Y110.925 E1.30415
G1 X89.961 Y110.390 E0.01683
G1 X61.181 Y81.609 E1.28035
G1 X61.716 Y81.609 E0.01683
G1 X89.961 Y109.855 E1.25655
G1 X89.961 Y109.320 E0.01683
G1 X62.251 Y81.609 E1.23275
G1 X62.786 Y81.609 E0.01683
G1 X89.961 Y108.785 E1.20894
G1 X89.961 Y108.250 E0.01683
G1 X63.321 Y81.609 E1.18514
G1 X63.856 Y81.609 E0.01683
G1 X89.961 Y107.715 E1.16134
G1 X89.961 Y107.180 E0.01683
G1 X64.391 Y81.609 E1.13754
G1 X64.926 Y81.609 E0.01683
G1 X89.961 Y106.645 E1.11374
G1 X89.961 Y106.110 E0.01683
G1 X65.461 Y81.609 E1.08994
G1 X65.996 Y81.609 E0.01683
G1 X89.961 Y105.575 E1.06614
G1 X89.961 Y105.040 E0.01683
G1 X66.531 Y81.609 E1.04234
G1 X67.066 Y81.609 E0.01683
G1 X89.961 Y104.505 E1.01854
G1 X89.961 Y103.970 E0.01683
G1 X67.601 Y81.609 E0.99474
G1 X68.136 Y81.609 E0.01683
G1 X89.961 Y103.435 E0.97094
G1 X89.961 Y102.900 E0.01683
G1 X68.671 Y81.609 E0.94714
G1 X69.206 Y81.609 E0.01683
G1 X89.961 Y102.365 E0.92334
G1 X89.961 Y101.830 E0.01683
G1 X69.741 Y81.609 E0.89954
G1 X70.276 Y81.609 E0.01683
G1 X89.961 Y101.295 E0.87574
G1 X89.961 Y100.760 E0.01683
G1 X70.811 Y81.609 E0.85194
G1 X71.346 Y81.609 E0.01683
G1 X89.961 Y100.225 E0.82814
G1 X89.961 Y99.690 E0.01683
G1 X71.881 Y81.609 E0.80434
G1 X72.416 Y81.609 E0.01683
G1 X89.961 Y99.155 E0.78054
G1 X89.961 Y98.620 E0.01683
G1 X72.951 Y81.609 E0.75674
G1 X73.486 Y81.609 E0.01683
G1 X89.961 Y98.085 E0.73294
G1 X89.961 Y97.550 E0.01683
G1 X74.021 Y81.609 E0.70914
G1 X74.556 Y81.609 E0.01683
G1 X89.961 Y97.015 E0.68534
G1 X89.961 Y96.480 E0.01683
G1 X75.091 Y81.609 E0.66154
G1 X75.626 Y81.609 E0.01683
G1 X89.961 Y95.945 E0.63774
G1 X89.961 Y95.410 E0.01683
G1 X76.161 Y81.609 E0.61394
G1 X76.696 Y81.609 E0.01683
G1 X89.961 Y94.875 E0.59014
G1 X89.961 Y94.340 E0.01683
G1 X77.231 Y81.609 E0.56634
G1 X77.766 Y81.609 E0.01683
G1 X89.961 Y93.805 E0.54254
G1 X89.961 Y93.270 E0.01683
G1 X78.301 Y81.609 E0.51874
G1 X78.836 Y81.609 E0.01683
G1 X89.961 Y92.735 E0.49494
G1 X89.961 Y92.200 E0.01683
G1 X79.371 Y81.609 E0.47114
G1 X79.906 Y81.609 E0.01683
G1 X89.961 Y91.665 E0.44733
G1 X89.961 Y91.130 E0.01683
G1 X80.441 Y81.609 E0.42353
G1 X80.976 Y81.609 E0.01683
G1 X89.961 Y90.595 E0.39973
G1 X89.961 Y90.060 E0.01683
G1 X81.511 Y81.609 E0.37593
G1 X82.046 Y81.609 E0.01683
G1 X89.961 Y89.525 E0.35213
G1 X89.961 Y88.990 E0.01683
G1 X82.581 Y81.609 E0.32833
G1 X83.116 Y81.609 E0.01683
G1 X89.961 Y88.455 E0.30453
G1 X89.961 Y87.920 E0.01683
G1 X83.651 Y81.609 E0.28073
G1 X84.186 Y81.609 E0.01683
G1 X89.961 Y87.385 E0.25693
G1 X89.961 Y86.850 E0.01683
G1 X84.721 Y81.609 E0.23313
G1 X85.256 Y81.609 E0.01683
G1 X89.961 Y86.315 E0.20933
G1 X89.961 Y85.780 E0.01683
G1 X85.791 Y81.609 E0.18553
G1 X86.326 Y81.609 E0.01683
G1 X89.961 Y85.245 E0.16173
G1 X89.961 Y84.710 E0.01683
G1 X86.861 Y81.609 E0.13793
G1 X87.396 Y81.609 E0.01683
G1 X89.961 Y84.175 E0.11413
G1 X89.961 Y83.640 E0.01683
G1 X87.931 Y81.609 E0.09033
G1 X88.466 Y81.609 E0.01683
G1 X89.961 Y83.105 E0.06653
G1 X89.961 Y82.570 E0.01683
G1 X89.001 Y81.609 E0.04273
G1 X89.536 Y81.609 E0.01683
G1 X90.131 Y82.204 E0.02648
G1 E-0.08000
G1 F8160
G1 X89.536 Y81.609 E-0.17639
G1 X89.001 Y81.609 E-0.11212
G1 X89.961 Y82.570 E-0.28466
G1 X89.961 Y83.099 E-0.11084
G1 E-0.03600 F1800.00000
G1 Z0.800 F10200.000
G1 X100.964 Y80.964
G1 Z0.200
G1 E0.80000 F1800.00000
G1 X149.036 Y80.964 E1.50725
G1 X149.036 Y129.036 E1.50725
G1 X100.964 Y129.036 E1.50725
G1 X100.964 Y81.024 E1.50537
G1 X100.587 Y80.587 F10200.000
G1 F1800
G1 X149.413 Y80.587 E1.53090
G1 X149.413 Y129.413 E1.53090
G1 X100.587 Y129.413 E1.53090
G1 X100.587 Y80.647 E1.52902
G1 X100.210 Y80.210 F10200.000
G1 F1800
G1 X149.790 Y80.210 E1.55455
G1 X149.790 Y129.790 E1.55455
G1 X100.210 Y129.790 E1.55455
G1 X100.210 Y80.270 E1.55266
G1 X100.596 Y80.314 F10200.000
G1 E-0.08000 F1800.00000
G1 F8160
G1 X103.474 Y80.266 E-0.68400
G1 E-0.03600 F1800.00000
G1 Z0.800 F10200.000
G1 X101.077 Y128.158
G1 Z0.200
G1 E0.80000 F1800.00000
G1 X101.672 Y128.753 E0.02648
G1 X102.207 Y128.753 E0.01683
G1 X101.247 Y127.793 E0.04273
G1 X101.247 Y127.258 E0.01683
G1 X102.742 Y128.753 E0.06653
G1 X103.277 Y128.753 E0.01683
G1 X101.247 Y126.723 E0.09033
G1 X101.247 Y126.188 E0.01683
G1 X103.812 Y128.753 E0.11413
G1 X104.347 Y128.753 E0.01683
G1 X101.247 Y125.653 E0.13793
G1 X101.247 Y125.118 E0.01683
G1 X104.882 Y128.753 E0.16173
G1 X105.417 Y128.753 E0.01683
G1 X101.247 Y124.583 E0.18553
G1 X101.247 Y124.047 E0.01683
G1 X105.953 Y128.753 E0.20933
G1 X106.488 Y128.753 E0.01683
G1 X101.247 Y123.512 E0.23313
G1 X101.247 Y122.977 E0.01683
G1 X107.023 Y128.753 E0.25693
G1 X107.558 Y128.753 E0.01683
G1 X101.247 Y122.442 E0.28073
G1 X101.247 Y121.907 E0.01683
G1 X108.093 Y128.753 E0.30453
G1 X108.628 Y128.753 E0.01683
G1 X101.247 Y121.372 E0.32833
G1 X101.247 Y120.837 E0.01683
G1 X109.163 Y128.753 E0.35213
G1 X109.698 Y128.753 E0.01683
G1 X101.247 Y120.302 E0.37593
G1 X101.247 Y119.767 E0.01683
G1 X110.233 Y128.753 E0.39973
G1 X110.768 Y128.753 E0.01683
G1 X101.247 Y119.232 E0.42353
G1 X101.247 Y118.697 E0.01683
G1 X111.303 Y128.753 E0.44733
G1 X111.838 Y128.753 E0.01683
G1 X101.247 Y118.162 E0.47114
G1 X101.247 Y117.627 E0.01683
G1 X112.373 Y128.753 E0.49494
G1 X112.908 Y128.753 E0.01683
G1 X101.247 Y117.092 E0.51874
G1 X101.247 Y116.557 E0.01683
