; generated by Slic3r Prusa Edition 1.41.0+ on 2018-10-06 at 16:10:12

; 

; external perimeters extrusion width = 0.45mm
; perimeters extrusion width = 0.45mm
; infill extrusion width = 0.45mm
; solid infill extrusion width = 0.45mm
; top infill extrusion width = 0.40mm
; first layer extrusion width = 0.42mm

M201 X9000 Y9000 Z500 E10000 ; sets maximum accelerations, mm/sec^2
M203 X500 Y500 Z12 E120 ; sets maximum feedrates, mm/sec
M204 P1500 R1500 T1500 ; sets acceleration (P, T) and retract acceleration (R), mm/sec^2
M205 X10.00 Y10.00 Z0.20 E2.50 ; sets the jerk limits, mm/sec
M205 S0 T0 ; sets the minimum extruding and travel feed rate, mm/sec
M107
M115 U3.1.1-RC5 ; tell printer latest fw version
M350 E32 ;
M92 E280 ;
M221 S100 ; Set flow to 100
M201 X1000 Y1000 Z100 E10000 ; sets maximum accelerations, mm/sec^2
M203 X200 Y200 Z12 E120 ; sets maximum feedrates, mm/sec
M204 S1250 T1250 ; sets acceleration (S) and retract acceleration (T)
M205 X10 Y10 Z0.4 E2.5 ; sets the jerk limits, mm/sec
M205 S0 T0 ; sets the minimum extruding and travel feed rate, mm/sec
M83  ; extruder relative mode
M104 S215 ; set extruder temp
M140 S60 ; set bed temp
M190 S60 ; wait for bed temp
M109 S215 ; wait for extruder temp
G28 W ; home all without mesh bed level
G1 E-2 ; Retract before mesh
G80 ; mesh bed leveling
G1 Y-3.0 F1000.0 ; go outside print area
G92 E0.0
G1 E8 ; Purge Bubble
G1 X60.0 E9.0  F1000.0 ; intro line
G1 X100.0 E12.5  F1000.0 ; intro line
G92 E0.0
M201 Z400 ; Increase Z axis acceleration standard 200
M203 Z60 ; Increase Z max feedrate standard 12
M203 E60 ; Decrease extruder Max feedrate standard 120
M205 E10 ; Increase extruder jerk standard 2.5
M205 X6 Y6 ; decrease XY jerk standard 10

M117 IM PRINTING THINGS!
M900 K30; Filament gcode
G21 ; set units to millimeters
G90 ; use absolute coordinates
M83 ; use relative distances for extrusion
;BEFORE_LAYER_CHANGE
;0.2


G1 E-0.80000 F1800.00000
G1 Z0.600 F10200.000
;AFTER_LAYER_CHANGE
;0.2
G1 X99.127 Y77.993
G1 Z0.200
G1 E0.80000 F1800.00000
M204 S1000
G1 X99.972 Y77.812 E0.02709
G1 X150.004 Y77.811 E1.56870
G1 X150.823 Y77.972 E0.02620
G1 X151.526 Y78.431 E0.02631
G1 X152.003 Y79.117 E0.02620
G1 X152.188 Y79.936 E0.02631
G1 X152.188 Y130.026 E1.57053
G1 X152.026 Y130.827 E0.02563
G1 X151.582 Y131.513 E0.02563
G1 X150.863 Y132.011 E0.02743
G1 X150.002 Y132.189 E0.02754
G1 X99.974 Y132.188 E1.56859
G1 X99.173 Y132.026 E0.02563
G1 X98.487 Y131.582 E0.02563
G1 X97.989 Y130.863 E0.02743
G1 X97.811 Y130.002 E0.02754
G1 X97.812 Y79.974 E1.56859
G1 X97.974 Y79.173 E0.02563
G1 X98.418 Y78.487 E0.02563
G1 X99.078 Y78.027 E0.02521
; PURGING FINISHED
G1 E-0.08000
G1 F8160
G1 X99.972 Y77.812 E-0.19274
G1 X102.316 Y77.812 E-0.49126
G1 E-0.03600 F1800.00000
G1 Z0.800 F10200.000
G1 X100.964 Y80.964
G1 Z0.200
G1 E0.80000 F1800.00000
G1 X149.036 Y80.964 E1.50725
G1 X149.036 Y129.036 E1.50725
G1 X100.964 Y129.036 E1.50725
G1 X100.964 Y81.024 E1.50537
G1 X100.587 Y80.587 F10200.000
G1 F1800
G1 X149.413 Y80.587 E1.53090
G1 X149.413 Y129.413 E1.53090
G1 X100.587 Y129.413 E1.53090
G1 X100.587 Y80.647 E1.52902
G1 X100.210 Y80.210 F10200.000
G1 F1800
G1 X149.790 Y80.210 E1.55455
G1 X149.790 Y129.790 E1.55455
G1 X100.210 Y129.790 E1.55455
G1 X100.210 Y80.270 E1.55266
G1 X100.596 Y80.314 F10200.000
G1 E-0.08000 F1800.00000
G1 F8160
G1 X103.474 Y80.266 E-0.68400
G1 E-0.03600 F1800.00000
G1 Z0.800 F10200.000
G1 X101.077 Y128.158
G1 Z0.200
G1 E0.80000 F1800.00000
G1 X101.672 Y128.753 E0.02648
G1 X102.207 Y128.753 E0.01683
G1 X101.247 Y127.793 E0.04273
G1 X101.247 Y127.258 E0.01683
G1 X102.742 Y128.753 E0.06653
G1 X103.277 Y128.753 E0.01683
G1 X101.247 Y126.723 E0.09033
G1 X101.247 Y126.188 E0.01683
G1 X103.812 Y128.753 E0.11413
G1 X104.347 Y128.753 E0.01683
G1 X101.247 Y125.653 E0.13793
G1 X101.247 Y125.118 E0.01683
G1 X104.882 Y128.753 E0.16173
G1 X105.418 Y128.753 E0.01683
G1 X101.247 Y124.582 E0.18553
G1 X101.247 Y124.047 E0.01683
G1 X105.953 Y128.753 E0.20933
G1 X106.488 Y128.753 E0.01683
G1 X101.247 Y123.512 E0.23313
G1 X101.247 Y122.977 E0.01683
G1 X107.023 Y128.753 E0.25693
G1 X107.558 Y128.753 E0.01683
G1 X101.247 Y122.442 E0.28073
G1 X101.247 Y121.907 E0.01683
G1 X108.093 Y128.753 E0.30453
G1 X108.628 Y128.753 E0.01683
G1 X101.247 Y121.372 E0.32833
G1 X101.247 Y120.837 E0.01683
G1 X109.163 Y128.753 E0.35213
G1 X109.698 Y128.753 E0.01683
G1 X101.247 Y120.302 E0.37593
G1 X101.247 Y119.767 E0.01683
G1 X110.233 Y128.753 E0.39973
G1 X110.768 Y128.753 E0.01683
G1 X101.247 Y119.232 E0.42353
G1 X101.247 Y118.697 E0.01683
G1 X111.303 Y128.753 E0.44733
G1 X111.838 Y128.753 E0.01683
G1 X101.247 Y118.162 E0.47114
G1 X101.247 Y117.627 E0.01683
G1 X112.373 Y128.753 E0.49494
G1 X112.908 Y128.753 E0.01683
G1 X101.247 Y117.092 E0.51874
G1 X101.247 Y116.557 E0.01683
G1 X113.443 Y128.753 E0.54254
G1 X113.978 Y128.753 E0.01683
G1 X101.247 Y116.022 E0.56634
G1 X101.247 Y115.487 E0.01683
G1 X114.513 Y128.753 E0.59014
G1 X115.048 Y128.753 E0.01683
G1 X101.247 Y114.952 E0.61394
G1 X101.247 Y114.417 E0.01683
G1 X115.583 Y128.753 E0.63774
G1 X116.118 Y128.753 E0.01683
G1 X101.247 Y113.882 E0.66154
G1 X101.247 Y113.347 E0.01683
G1 X116.653 Y128.753 E0.68534
G1 X117.188 Y128.753 E0.01683
G1 X101.247 Y112.812 E0.70914
G1 X101.247 Y112.277 E0.01683
G1 X117.723 Y128.753 E0.73294
G1 X118.258 Y128.753 E0.01683
G1 X101.247 Y111.742 E0.75674
G1 X101.247 Y111.207 E0.01683
G1 X118.793 Y128.753 E0.78054
G1 X119.328 Y128.753 E0.01683
G1 X101.247 Y110.672 E0.80434
G1 X101.247 Y110.137 E0.01683
G1 X119.863 Y128.753 E0.82814
G1 X120.398 Y128.753 E0.01683
G1 X101.247 Y109.602 E0.85194
G1 X101.247 Y109.067 E0.01683
G1 X120.933 Y128.753 E0.87574
G1 X121.468 Y128.753 E0.01683
G1 X101.247 Y108.532 E0.89954
G1 X101.247 Y107.997 E0.01683
G1 X122.003 Y128.753 E0.92334
G1 X122.538 Y128.753 E0.01683
G1 X101.247 Y107.462 E0.94714
G1 X101.247 Y106.927 E0.01683
G1 X123.073 Y128.753 E0.97094
G1 X123.608 Y128.753 E0.01683
G1 X101.247 Y106.392 E0.99474
G1 X101.247 Y105.857 E0.01683
G1 X124.143 Y128.753 E1.01854
G1 X124.678 Y128.753 E0.01683
G1 X101.247 Y105.322 E1.04234
G1 X101.247 Y104.787 E0.01683
G1 X125.213 Y128.753 E1.06614
G1 X125.748 Y128.753 E0.01683
G1 X101.247 Y104.252 E1.08994
G1 X101.247 Y103.717 E0.01683
G1 X126.283 Y128.753 E1.11374
G1 X126.818 Y128.753 E0.01683
G1 X101.247 Y103.182 E1.13754
G1 X101.247 Y102.647 E0.01683
G1 X127.353 Y128.753 E1.16134
G1 X127.888 Y128.753 E0.01683
G1 X101.247 Y102.112 E1.18514
G1 X101.247 Y101.577 E0.01683
G1 X128.423 Y128.753 E1.20895
G1 X128.958 Y128.753 E0.01683
G1 X101.247 Y101.042 E1.23275
G1 X101.247 Y100.507 E0.01683
G1 X129.493 Y128.753 E1.25655
G1 X130.028 Y128.753 E0.01683
G1 X101.247 Y99.972 E1.28035
G1 X101.247 Y99.437 E0.01683
G1 X130.563 Y128.753 E1.30415
G1 X131.098 Y128.753 E0.01683
G1 X101.247 Y98.902 E1.32795
G1 X101.247 Y98.367 E0.01683
G1 X131.633 Y128.753 E1.35175
G1 X132.168 Y128.753 E0.01683
G1 X101.247 Y97.832 E1.37555
G1 X101.247 Y97.297 E0.01683
G1 X132.703 Y128.753 E1.39935
G1 X133.238 Y128.753 E0.01683
G1 X101.247 Y96.762 E1.42315
G1 X101.247 Y96.227 E0.01683
G1 X133.773 Y128.753 E1.44695
G1 X134.308 Y128.753 E0.01683
G1 X101.247 Y95.692 E1.47075
G1 X101.247 Y95.157 E0.01683
G1 X134.843 Y128.753 E1.49455
G1 X135.378 Y128.753 E0.01683
G1 X101.247 Y94.622 E1.51835
G1 X101.247 Y94.087 E0.01683
G1 X135.913 Y128.753 E1.54215
G1 X136.448 Y128.753 E0.01683
G1 X101.247 Y93.552 E1.56595
G1 X101.247 Y93.017 E0.01683
G1 X136.983 Y128.753 E1.58975
G1 X137.518 Y128.753 E0.01683
G1 X101.247 Y92.482 E1.61355
G1 X101.247 Y91.947 E0.01683
G1 X138.053 Y128.753 E1.63735
G1 X138.588 Y128.753 E0.01683
G1 X101.247 Y91.412 E1.66115
G1 X101.247 Y90.877 E0.01683
G1 X139.123 Y128.753 E1.68495
G1 X139.658 Y128.753 E0.01683
G1 X101.247 Y90.342 E1.70875
G1 X101.247 Y89.807 E0.01683
G1 X140.193 Y128.753 E1.73255
G1 X140.728 Y128.753 E0.01683
G1 X101.247 Y89.272 E1.75635
G1 X101.247 Y88.737 E0.01683
G1 X141.263 Y128.753 E1.78015
G1 X141.798 Y128.753 E0.01683
G1 X101.247 Y88.202 E1.80395
G1 X101.247 Y87.667 E0.01683
G1 X142.333 Y128.753 E1.82775
G1 X142.868 Y128.753 E0.01683
G1 X101.247 Y87.132 E1.85155
G1 X101.247 Y86.597 E0.01683
G1 X143.403 Y128.753 E1.87535
G1 X143.938 Y128.753 E0.01683
G1 X101.247 Y86.062 E1.89915
G1 X101.247 Y85.527 E0.01683
G1 X144.473 Y128.753 E1.92295
G1 X145.008 Y128.753 E0.01683
G1 X101.247 Y84.992 E1.94676
G1 X101.247 Y84.457 E0.01683
G1 X145.543 Y128.753 E1.97056
G1 X146.078 Y128.753 E0.01683
G1 X101.247 Y83.922 E1.99436
G1 X101.247 Y83.387 E0.01683
G1 X146.613 Y128.753 E2.01816
G1 X147.148 Y128.753 E0.01683
G1 X101.247 Y82.852 E2.04196
G1 X101.247 Y82.317 E0.01683
G1 X147.683 Y128.753 E2.06576
G1 X148.218 Y128.753 E0.01683
G1 X101.247 Y81.782 E2.08956
G1 X101.247 Y81.247 E0.01683
G1 X148.753 Y128.753 E2.11336
G1 X148.753 Y128.218 E0.01683
G1 X101.782 Y81.247 E2.08956
G1 X102.317 Y81.247 E0.01683
G1 X148.753 Y127.683 E2.06576
G1 X148.753 Y127.148 E0.01683
G1 X102.852 Y81.247 E2.04196
G1 X103.387 Y81.247 E0.01683
G1 X148.753 Y126.613 E2.01816
G1 X148.753 Y126.078 E0.01683
G1 X103.922 Y81.247 E1.99436
G1 X104.457 Y81.247 E0.01683
G1 X148.753 Y125.543 E1.97056
G1 X148.753 Y125.008 E0.01683
G1 X104.992 Y81.247 E1.94675
G1 X105.527 Y81.247 E0.01683
G1 X148.753 Y124.473 E1.92295
G1 X148.753 Y123.938 E0.01683
G1 X106.062 Y81.247 E1.89915
G1 X106.597 Y81.247 E0.01683
G1 X148.753 Y123.403 E1.87535
G1 X148.753 Y122.868 E0.01683
G1 X107.132 Y81.247 E1.85155
G1 X107.667 Y81.247 E0.01683
G1 X148.753 Y122.333 E1.82775
G1 X148.753 Y121.798 E0.01683
G1 X108.202 Y81.247 E1.80395
G1 X108.737 Y81.247 E0.01683
G1 X148.753 Y121.263 E1.78015
G1 X148.753 Y120.728 E0.01683
G1 X109.272 Y81.247 E1.75635
G1 X109.807 Y81.247 E0.01683
G1 X148.753 Y120.193 E1.73255
G1 X148.753 Y119.658 E0.01683
G1 X110.342 Y81.247 E1.70875
G1 X110.877 Y81.247 E0.01683
G1 X148.753 Y119.123 E1.68495
G1 X148.753 Y118.588 E0.01683
G1 X111.412 Y81.247 E1.66115
G1 X111.947 Y81.247 E0.01683
G1 X148.753 Y118.053 E1.63735
G1 X148.753 Y117.518 E0.01683
G1 X112.482 Y81.247 E1.61355
G1 X113.017 Y81.247 E0.01683
G1 X148.753 Y116.983 E1.58975
G1 X148.753 Y116.448 E0.01683
G1 X113.552 Y81.247 E1.56595
G1 X114.087 Y81.247 E0.01683
G1 X148.753 Y115.913 E1.54215
G1 X148.753 Y115.378 E0.01683
G1 X114.622 Y81.247 E1.51835
G1 X115.157 Y81.247 E0.01683
G1 X148.753 Y114.843 E1.49455
G1 X148.753 Y114.308 E0.01683
G1 X115.692 Y81.247 E1.47075
G1 X116.227 Y81.247 E0.01683
G1 X148.753 Y113.773 E1.44695
G1 X148.753 Y113.238 E0.01683
G1 X116.762 Y81.247 E1.42315
G1 X117.297 Y81.247 E0.01683
G1 X148.753 Y112.703 E1.39935
G1 X148.753 Y112.168 E0.01683
G1 X117.832 Y81.247 E1.37555
G1 X118.367 Y81.247 E0.01683
G1 X148.753 Y111.633 E1.35175
G1 X148.753 Y111.098 E0.01683
G1 X118.902 Y81.247 E1.32795
G1 X119.437 Y81.247 E0.01683
G1 X148.753 Y110.563 E1.30415
G1 X148.753 Y110.028 E0.01683
G1 X119.972 Y81.247 E1.28035
G1 X120.507 Y81.247 E0.01683
G1 X148.753 Y109.493 E1.25655
G1 X148.753 Y108.958 E0.01683
G1 X121.042 Y81.247 E1.23275
G1 X121.577 Y81.247 E0.01683
G1 X148.753 Y108.423 E1.20894
G1 X148.753 Y107.888 E0.01683
G1 X122.112 Y81.247 E1.18514
G1 X122.647 Y81.247 E0.01683
G1 X148.753 Y107.353 E1.16134
G1 X148.753 Y106.818 E0.01683
G1 X123.182 Y81.247 E1.13754
G1 X123.717 Y81.247 E0.01683
G1 X148.753 Y106.283 E1.11374
G1 X148.753 Y105.748 E0.01683
G1 X124.252 Y81.247 E1.08994
G1 X124.787 Y81.247 E0.01683
G1 X148.753 Y105.213 E1.06614
G1 X148.753 Y104.678 E0.01683
G1 X125.322 Y81.247 E1.04234
G1 X125.857 Y81.247 E0.01683
G1 X148.753 Y104.143 E1.01854
G1 X148.753 Y103.608 E0.01683
G1 X126.392 Y81.247 E0.99474
G1 X126.927 Y81.247 E0.01683
G1 X148.753 Y103.073 E0.97094
G1 X148.753 Y102.538 E0.01683
G1 X127.462 Y81.247 E0.94714
G1 X127.997 Y81.247 E0.01683
G1 X148.753 Y102.003 E0.92334
G1 X148.753 Y101.468 E0.01683
G1 X128.532 Y81.247 E0.89954
G1 X129.067 Y81.247 E0.01683
G1 X148.753 Y100.933 E0.87574
G1 X148.753 Y100.398 E0.01683
G1 X129.602 Y81.247 E0.85194
G1 X130.137 Y81.247 E0.01683
G1 X148.753 Y99.863 E0.82814
G1 X148.753 Y99.328 E0.01683
G1 X130.672 Y81.247 E0.80434
G1 X131.207 Y81.247 E0.01683
G1 X148.753 Y98.793 E0.78054
G1 X148.753 Y98.258 E0.01683
G1 X131.742 Y81.247 E0.75674
G1 X132.277 Y81.247 E0.01683
G1 X148.753 Y97.723 E0.73294
G1 X148.753 Y97.188 E0.01683
G1 X132.812 Y81.247 E0.70914
G1 X133.347 Y81.247 E0.01683
G1 X148.753 Y96.653 E0.68534
G1 X148.753 Y96.118 E0.01683
G1 X133.882 Y81.247 E0.66154
G1 X134.417 Y81.247 E0.01683
G1 X148.753 Y95.583 E0.63774
G1 X148.753 Y95.048 E0.01683
G1 X134.952 Y81.247 E0.61394
G1 X135.487 Y81.247 E0.01683
G1 X148.753 Y94.513 E0.59014
G1 X148.753 Y93.978 E0.01683
G1 X136.022 Y81.247 E0.56634
G1 X136.557 Y81.247 E0.01683
G1 X148.753 Y93.443 E0.54254
G1 X148.753 Y92.908 E0.01683
G1 X137.092 Y81.247 E0.51874
G1 X137.627 Y81.247 E0.01683
G1 X148.753 Y92.373 E0.49494
G1 X148.753 Y91.838 E0.01683
G1 X138.162 Y81.247 E0.47114
G1 X138.697 Y81.247 E0.01683
G1 X148.753 Y91.303 E0.44733
G1 X148.753 Y90.768 E0.01683
G1 X139.232 Y81.247 E0.42353
G1 X139.767 Y81.247 E0.01683
G1 X148.753 Y90.233 E0.39973
G1 X148.753 Y89.698 E0.01683
G1 X140.302 Y81.247 E0.37593
G1 X140.837 Y81.247 E0.01683
G1 X148.753 Y89.163 E0.35213
G1 X148.753 Y88.628 E0.01683
G1 X141.372 Y81.247 E0.32833
G1 X141.907 Y81.247 E0.01683
G1 X148.753 Y88.093 E0.30453
G1 X148.753 Y87.558 E0.01683
G1 X142.442 Y81.247 E0.28073
G1 X142.977 Y81.247 E0.01683
G1 X148.753 Y87.023 E0.25693
G1 X148.753 Y86.488 E0.01683
G1 X143.512 Y81.247 E0.23313
G1 X144.048 Y81.247 E0.01683
G1 X148.753 Y85.953 E0.20933
G1 X148.753 Y85.417 E0.01683
G1 X144.583 Y81.247 E0.18553
G1 X145.118 Y81.247 E0.01683
G1 X148.753 Y84.882 E0.16173
G1 X148.753 Y84.347 E0.01683
G1 X145.653 Y81.247 E0.13793
G1 X146.188 Y81.247 E0.01683
G1 X148.753 Y83.812 E0.11413
G1 X148.753 Y83.277 E0.01683
G1 X146.723 Y81.247 E0.09033
G1 X147.258 Y81.247 E0.01683
G1 X148.753 Y82.742 E0.06653
G1 X148.753 Y82.207 E0.01683
G1 X147.793 Y81.247 E0.04273
G1 X148.328 Y81.247 E0.01683
G1 X148.923 Y81.842 E0.02648
M106 S255
;BEFORE_LAYER_CHANGE
;0.35


G1 E-0.08000 F1800.00000
G1 F8160
G1 X148.328 Y81.247 E-0.17639
G1 X147.793 Y81.247 E-0.11212
G1 X148.753 Y82.207 E-0.28466
G1 X148.753 Y82.736 E-0.11084
G1 E-0.03600 F1800.00000
G1 Z0.800 F10200.000
;AFTER_LAYER_CHANGE
;0.35
M104 S210 ; set temperature
G1 X152.003 Y79.117
G1 Z0.350
G1 E0.80000 F1800.00000
G1 F3000
G1 X152.188 Y79.936 E0.02029
G1 X152.188 Y130.026 E1.21142
G1 X152.026 Y130.827 E0.01977
G1 X151.582 Y131.513 E0.01977
G1 X150.863 Y132.011 E0.02116
G1 X150.002 Y132.189 E0.02125
G1 X99.974 Y132.188 E1.20992
G1 X99.173 Y132.026 E0.01977
G1 X98.487 Y131.582 E0.01977
G1 X97.989 Y130.863 E0.02116
G1 X97.811 Y130.002 E0.02125
G1 X97.812 Y79.974 E1.20992
G1 X97.974 Y79.173 E0.01977
G1 X98.418 Y78.487 E0.01977
G1 X99.127 Y77.993 E0.02090
G1 X99.972 Y77.812 E0.02090
G1 X150.004 Y77.811 E1.21000
G1 X150.823 Y77.972 E0.02021
G1 X151.526 Y78.431 E0.02029
G1 X151.968 Y79.068 E0.01875
; PURGING FINISHED
G1 E-0.08000 F1800.00000
G1 F8160
G1 X152.188 Y79.936 E-0.18754
G1 X152.188 Y82.305 E-0.49646
G1 E-0.03600 F1800.00000
G1 Z0.950 F10200.000
G1 X148.939 Y81.061
G1 Z0.350
G1 E0.80000 F1800.00000
M204 S800
G1 F2700
G1 X148.939 Y128.939 E1.24752
G1 X101.061 Y128.939 E1.24752
G1 X101.061 Y81.061 E1.24752
G1 X148.879 Y81.061 E1.24595
M204 S1000
G1 X149.357 Y80.643 F10200.000
M204 S800
G1 F2700
G1 X149.357 Y129.357 E1.26929
G1 X100.643 Y129.357 E1.26929
G1 X100.643 Y80.643 E1.26929
G1 X149.297 Y80.643 E1.26773
M204 S1000
G1 X149.775 Y80.225 F10200.000
M204 S800
G1 F2100
G1 X149.775 Y129.775 E1.29106
G1 X100.225 Y129.775 E1.29106
G1 X100.225 Y80.225 E1.29106
G1 X149.715 Y80.225 E1.28950
M204 S1000
G1 X149.671 Y80.611 F10200.000
G1 E-0.08000 F1800.00000
G1 F8160
G1 X149.719 Y83.489 E-0.68400
G1 E-0.03600 F1800.00000
G1 Z0.950 F10200.000
G1 X102.032 Y81.186
G1 Z0.350
G1 E0.80000 F1800.00000
M204 S1500
G1 F10200
G1 X101.374 Y81.844 E0.02432
G1 X101.374 Y82.437 E0.01546
G1 X102.437 Y81.374 E0.03924
G1 X103.029 Y81.374 E0.01546
G1 X101.374 Y83.029 E0.06111
G1 X101.374 Y83.621 E0.01546
G1 X103.621 Y81.374 E0.08298
G1 X104.213 Y81.374 E0.01546
