; generated by Slic3r Prusa Edition 1.41.0+ on 2018-10-09 at 18:10:30

; 

; external perimeters extrusion width = 0.45mm
; perimeters extrusion width = 0.45mm
; infill extrusion width = 0.45mm
; solid infill extrusion width = 0.45mm
; top infill extrusion width = 0.40mm
; first layer extrusion width = 0.42mm

M201 X9000 Y9000 Z500 E10000 ; sets maximum accelerations, mm/sec^2
M203 X500 Y500 Z12 E120 ; sets maximum feedrates, mm/sec
M204 P1500 R1500 T1500 ; sets acceleration (P, T) and retract acceleration (R), mm/sec^2
M205 X10.00 Y10.00 Z0.20 E2.50 ; sets the jerk limits, mm/sec
M205 S0 T0 ; sets the minimum extruding and travel feed rate, mm/sec
M107
M115 U3.1.1-RC5 ; tell printer latest fw version
M350 E32 ;
M92 E280 ;
M221 S100 ; Set flow to 100
M201 X1000 Y1000 Z100 E10000 ; sets maximum accelerations, mm/sec^2
M203 X200 Y200 Z12 E120 ; sets maximum feedrates, mm/sec
M204 S1250 T1250 ; sets acceleration (S) and retract acceleration (T)
M205 X10 Y10 Z0.4 E2.5 ; sets the jerk limits, mm/sec
M205 S0 T0 ; sets the minimum extruding and travel feed rate, mm/sec
M83  ; extruder relative mode
M104 S215 ; set extruder temp
M140 S60 ; set bed temp
M190 S60 ; wait for bed temp
M109 S215 ; wait for extruder temp
G28 W ; home all without mesh bed level
G1 E-2 ; Retract before mesh
G80 ; mesh bed leveling
G1 Y-3.0 F1000.0 ; go outside print area
G92 E0.0
G1 E8 ; Purge Bubble
G1 X60.0 E9.0  F1000.0 ; intro line
G1 X100.0 E12.5  F1000.0 ; intro line
G92 E0.0
M201 Z400 ; Increase Z axis acceleration standard 200
M203 Z60 ; Increase Z max feedrate standard 12
M203 E60 ; Decrease extruder Max feedrate standard 120
M205 E10 ; Increase extruder jerk standard 2.5
M205 X6 Y6 ; decrease XY jerk standard 10

M117 IM PRINTING THINGS!
M900 K30; Filament gcode
G21 ; set units to millimeters
G90 ; use absolute coordinates
M83 ; use relative distances for extrusion
;BEFORE_LAYER_CHANGE
;0.2


G1 E-0.80000 F1800.00000
G1 Z0.600 F10200.000
;AFTER_LAYER_CHANGE
;0.2
G1 X99.127 Y77.993
G1 Z0.200
G1 E0.80000 F1800.00000
M204 S1000
G1 X99.972 Y77.812 E0.02709
G1 X150.004 Y77.811 E1.56870
G1 X150.823 Y77.972 E0.02620
G1 X151.526 Y78.431 E0.02631
G1 X152.003 Y79.117 E0.02620
G1 X152.188 Y79.936 E0.02631
G1 X152.188 Y130.026 E1.57053
G1 X152.026 Y130.827 E0.02563
G1 X151.582 Y131.513 E0.02563
G1 X150.863 Y132.011 E0.02743
G1 X150.002 Y132.189 E0.02754
G1 X99.974 Y132.188 E1.56859
G1 X99.173 Y132.026 E0.02563
G1 X98.487 Y131.582 E0.02563
G1 X97.989 Y130.863 E0.02743
G1 X97.811 Y130.002 E0.02754
G1 X97.812 Y79.974 E1.56859
G1 X97.974 Y79.173 E0.02563
G1 X98.418 Y78.487 E0.02563
G1 X99.078 Y78.027 E0.02521
; PURGING FINISHED
G1 E-0.08000
G1 F8160
G1 X99.972 Y77.812 E-0.19274
G1 X102.316 Y77.812 E-0.49126
G1 E-0.03600 F1800.00000
G1 Z0.800 F10200.000
G1 X104.499 Y121.377
G1 Z0.200
G1 E0.80000 F1800.00000
G1 X104.850 Y121.339 E0.01109
G1 X105.192 Y121.340 E0.01073
G1 X105.532 Y121.377 E0.01070
G1 X105.865 Y121.451 E0.01071
G1 X106.188 Y121.561 E0.01071
G1 X106.499 Y121.704 E0.01072
G1 X106.793 Y121.879 E0.01073
G1 X107.069 Y122.084 E0.01078
G1 X107.349 Y122.340 E0.01190
G1 X107.768 Y122.856 E0.02086
G1 X108.096 Y123.465 E0.02168
G1 X108.309 Y124.126 E0.02178
G1 X108.403 Y124.829 E0.02222
G1 X108.371 Y125.525 E0.02185
G1 X108.219 Y126.204 E0.02182
G1 X107.943 Y126.853 E0.02213
G1 X107.559 Y127.428 E0.02165
G1 X107.076 Y127.916 E0.02154
G1 X106.528 Y128.282 E0.02068
G1 X106.188 Y128.439 E0.01173
G1 X105.862 Y128.549 E0.01079
G1 X105.527 Y128.624 E0.01076
G1 X105.186 Y128.661 E0.01076
G1 X104.843 Y128.661 E0.01076
G1 X104.502 Y128.624 E0.01076
G1 X104.167 Y128.549 E0.01076
G1 X103.841 Y128.439 E0.01079
G1 X103.524 Y128.293 E0.01095
G1 X103.209 Y128.105 E0.01151
G1 X102.700 Y127.684 E0.02071
G1 X102.264 Y127.149 E0.02161
G1 X101.930 Y126.529 E0.02208
G1 X101.718 Y125.867 E0.02178
G1 X101.627 Y125.178 E0.02181
G1 X101.657 Y124.482 E0.02184
G1 X101.811 Y123.791 E0.02220
G1 X102.083 Y123.153 E0.02175
G1 X102.452 Y122.598 E0.02089
G1 X102.697 Y122.324 E0.01153
G1 X102.978 Y122.067 E0.01194
G1 X103.507 Y121.714 E0.01994
G1 X103.840 Y121.561 E0.01150
G1 X104.164 Y121.451 E0.01071
G1 X104.440 Y121.390 E0.00886
G1 X104.522 Y121.758 F10200.000
G1 F1800
G1 X104.870 Y121.716 E0.01100
G1 X105.171 Y121.717 E0.00943
G1 X105.470 Y121.750 E0.00942
G1 X105.763 Y121.815 E0.00943
G1 X106.049 Y121.912 E0.00945
G1 X106.323 Y122.038 E0.00948
G1 X106.584 Y122.193 E0.00951
G1 X106.829 Y122.375 E0.00957
G1 X107.074 Y122.599 E0.01041
G1 X107.453 Y123.066 E0.01886
G1 X107.747 Y123.613 E0.01948
G1 X107.940 Y124.210 E0.01964
G1 X108.024 Y124.845 E0.02011
G1 X107.996 Y125.475 E0.01975
G1 X107.859 Y126.088 E0.01970
G1 X107.610 Y126.673 E0.01995
G1 X107.266 Y127.188 E0.01941
G1 X106.835 Y127.623 E0.01921
G1 X106.342 Y127.952 E0.01856
G1 X106.048 Y128.088 E0.01016
G1 X105.761 Y128.186 E0.00951
G1 X105.466 Y128.251 E0.00948
G1 X105.165 Y128.284 E0.00947
G1 X104.863 Y128.284 E0.00947
G1 X104.563 Y128.251 E0.00947
G1 X104.268 Y128.186 E0.00948
G1 X103.981 Y128.088 E0.00951
G1 X103.700 Y127.959 E0.00969
G1 X103.427 Y127.796 E0.00998
G1 X102.968 Y127.417 E0.01865
G1 X102.579 Y126.939 E0.01932
G1 X102.279 Y126.381 E0.01987
G1 X102.088 Y125.784 E0.01964
G1 X102.005 Y125.161 E0.01972
G1 X102.032 Y124.532 E0.01975
G1 X102.172 Y123.907 E0.02007
G1 X102.416 Y123.332 E0.01958
G1 X102.751 Y122.829 E0.01894
G1 X102.965 Y122.590 E0.01009
G1 X103.211 Y122.365 E0.01044
G1 X103.692 Y122.045 E0.01812
G1 X103.980 Y121.912 E0.00995
G1 X104.266 Y121.815 E0.00945
G1 X104.463 Y121.771 E0.00635
G1 X104.545 Y122.139 F10200.000
G1 F1800
G1 X104.890 Y122.093 E0.01092
G1 X105.150 Y122.094 E0.00813
G1 X105.408 Y122.122 E0.00814
G1 X105.662 Y122.179 E0.00816
G1 X105.909 Y122.263 E0.00819
G1 X106.147 Y122.372 E0.00823
G1 X106.375 Y122.508 E0.00829
G1 X106.589 Y122.666 E0.00836
G1 X106.799 Y122.859 E0.00893
G1 X107.138 Y123.276 E0.01687
G1 X107.399 Y123.762 E0.01729
G1 X107.570 Y124.293 E0.01750
G1 X107.646 Y124.862 E0.01800
G1 X107.621 Y125.425 E0.01766
G1 X107.498 Y125.972 E0.01758
G1 X107.276 Y126.493 E0.01777
G1 X106.972 Y126.948 E0.01716
G1 X106.593 Y127.331 E0.01689
G1 X106.157 Y127.623 E0.01645
G1 X105.908 Y127.738 E0.00860
G1 X105.659 Y127.822 E0.00824
G1 X105.404 Y127.878 E0.00820
G1 X105.145 Y127.907 E0.00818
G1 X104.884 Y127.907 E0.00817
G1 X104.625 Y127.878 E0.00818
G1 X104.369 Y127.822 E0.00820
G1 X104.120 Y127.738 E0.00824
G1 X103.876 Y127.625 E0.00843
G1 X103.645 Y127.487 E0.00846
G1 X103.237 Y127.150 E0.01658
G1 X102.894 Y126.729 E0.01703
G1 X102.627 Y126.233 E0.01765
G1 X102.457 Y125.701 E0.01750
G1 X102.383 Y125.144 E0.01762
G1 X102.407 Y124.581 E0.01766
G1 X102.532 Y124.023 E0.01794
G1 X102.750 Y123.512 E0.01741
G1 X103.050 Y123.061 E0.01700
G1 X103.234 Y122.855 E0.00865
G1 X103.444 Y122.663 E0.00894
G1 X103.877 Y122.375 E0.01629
G1 X104.120 Y122.263 E0.00840
G1 X104.487 Y122.152 E0.01201
G1 X104.655 Y121.809 F10200.000
G1 E-0.08000 F1800.00000
G1 F8160
G1 X104.890 Y122.093 E-0.08549
G1 X105.150 Y122.094 E-0.05436
G1 X105.408 Y122.122 E-0.05437
G1 X105.662 Y122.179 E-0.05451
G1 X105.909 Y122.263 E-0.05474
G1 X106.147 Y122.372 E-0.05503
G1 X106.375 Y122.508 E-0.05539
G1 X106.589 Y122.666 E-0.05584
G1 X106.799 Y122.859 E-0.05969
G1 X107.138 Y123.276 E-0.11274
G1 X107.232 Y123.452 E-0.04183
G1 E-0.03600 F1800.00000
G1 Z0.800 F10200.000
G1 X141.657 Y124.482
G1 Z0.200
G1 E0.80000 F1800.00000
G1 X141.811 Y123.791 E0.02220
G1 X142.083 Y123.153 E0.02175
G1 X142.452 Y122.598 E0.02089
G1 X142.697 Y122.324 E0.01153
G1 X142.978 Y122.067 E0.01194
G1 X143.507 Y121.714 E0.01994
G1 X143.840 Y121.561 E0.01150
G1 X144.164 Y121.451 E0.01071
G1 X144.499 Y121.377 E0.01075
G1 X144.850 Y121.339 E0.01109
G1 X145.192 Y121.340 E0.01073
G1 X145.532 Y121.377 E0.01070
G1 X145.865 Y121.451 E0.01071
G1 X146.188 Y121.561 E0.01071
G1 X146.499 Y121.704 E0.01072
G1 X146.793 Y121.879 E0.01073
G1 X147.069 Y122.084 E0.01077
G1 X147.349 Y122.340 E0.01190
G1 X147.768 Y122.856 E0.02086
G1 X148.096 Y123.465 E0.02168
G1 X148.309 Y124.126 E0.02178
G1 X148.403 Y124.829 E0.02222
G1 X148.371 Y125.525 E0.02185
G1 X148.219 Y126.204 E0.02182
G1 X147.943 Y126.853 E0.02213
G1 X147.559 Y127.428 E0.02165
G1 X147.076 Y127.916 E0.02154
G1 X146.528 Y128.282 E0.02068
G1 X146.188 Y128.439 E0.01173
G1 X145.862 Y128.549 E0.01079
G1 X145.527 Y128.624 E0.01076
G1 X145.186 Y128.661 E0.01076
G1 X144.843 Y128.661 E0.01076
G1 X144.502 Y128.624 E0.01076
G1 X144.167 Y128.549 E0.01076
G1 X143.841 Y128.439 E0.01079
G1 X143.524 Y128.293 E0.01095
G1 X143.209 Y128.105 E0.01151
G1 X142.700 Y127.684 E0.02071
G1 X142.264 Y127.149 E0.02161
G1 X141.930 Y126.529 E0.02209
G1 X141.718 Y125.867 E0.02178
G1 X141.627 Y125.178 E0.02181
G1 X141.654 Y124.542 E0.01996
G1 X142.031 Y124.558 F10200.000
G1 F1800
G1 X142.172 Y123.907 E0.02089
G1 X142.416 Y123.332 E0.01958
G1 X142.751 Y122.829 E0.01894
G1 X142.965 Y122.590 E0.01009
G1 X143.211 Y122.365 E0.01044
G1 X143.692 Y122.045 E0.01812
G1 X143.980 Y121.912 E0.00995
G1 X144.266 Y121.815 E0.00945
G1 X144.560 Y121.750 E0.00946
G1 X144.870 Y121.716 E0.00978
G1 X145.171 Y121.717 E0.00943
G1 X145.470 Y121.750 E0.00942
G1 X145.763 Y121.815 E0.00943
G1 X146.049 Y121.912 E0.00945
G1 X146.323 Y122.038 E0.00948
G1 X146.584 Y122.193 E0.00951
G1 X146.829 Y122.375 E0.00957
G1 X147.074 Y122.599 E0.01041
G1 X147.453 Y123.066 E0.01886
G1 X147.747 Y123.613 E0.01948
G1 X147.940 Y124.210 E0.01964
G1 X148.024 Y124.845 E0.02011
G1 X147.996 Y125.475 E0.01975
G1 X147.859 Y126.088 E0.01970
G1 X147.610 Y126.673 E0.01995
G1 X147.266 Y127.188 E0.01941
G1 X146.835 Y127.623 E0.01921
G1 X146.342 Y127.952 E0.01856
G1 X146.048 Y128.088 E0.01016
G1 X145.761 Y128.186 E0.00951
G1 X145.466 Y128.251 E0.00948
G1 X145.165 Y128.284 E0.00947
G1 X144.863 Y128.284 E0.00947
G1 X144.563 Y128.251 E0.00947
G1 X144.268 Y128.186 E0.00948
G1 X143.981 Y128.088 E0.00951
G1 X143.700 Y127.959 E0.00969
G1 X143.427 Y127.796 E0.00998
G1 X142.968 Y127.417 E0.01865
G1 X142.579 Y126.939 E0.01932
G1 X142.279 Y126.381 E0.01987
G1 X142.088 Y125.784 E0.01964
G1 X142.005 Y125.161 E0.01972
G1 X142.028 Y124.618 E0.01704
G1 X142.405 Y124.634 F10200.000
G1 F1800
G1 X142.532 Y124.023 E0.01958
G1 X142.750 Y123.512 E0.01741
G1 X143.050 Y123.061 E0.01700
G1 X143.234 Y122.855 E0.00865
G1 X143.444 Y122.663 E0.00894
G1 X143.877 Y122.375 E0.01629
G1 X144.120 Y122.263 E0.00840
G1 X144.367 Y122.179 E0.00819
G1 X144.622 Y122.122 E0.00817
G1 X144.890 Y122.093 E0.00848
G1 X145.150 Y122.094 E0.00813
G1 X145.408 Y122.122 E0.00814
G1 X145.662 Y122.179 E0.00816
G1 X145.909 Y122.263 E0.00819
G1 X146.147 Y122.372 E0.00823
G1 X146.375 Y122.508 E0.00829
G1 X146.589 Y122.666 E0.00836
G1 X146.799 Y122.859 E0.00893
G1 X147.138 Y123.276 E0.01687
G1 X147.399 Y123.762 E0.01729
G1 X147.570 Y124.293 E0.01750
G1 X147.646 Y124.862 E0.01800
G1 X147.621 Y125.425 E0.01766
G1 X147.498 Y125.972 E0.01758
G1 X147.276 Y126.493 E0.01777
G1 X146.972 Y126.948 E0.01716
G1 X146.593 Y127.331 E0.01689
G1 X146.157 Y127.623 E0.01645
G1 X145.908 Y127.738 E0.00860
G1 X145.659 Y127.822 E0.00824
G1 X145.404 Y127.878 E0.00820
G1 X145.145 Y127.907 E0.00818
G1 X144.884 Y127.907 E0.00817
G1 X144.625 Y127.878 E0.00818
G1 X144.369 Y127.822 E0.00820
G1 X144.120 Y127.738 E0.00824
G1 X143.876 Y127.625 E0.00843
G1 X143.645 Y127.487 E0.00846
G1 X143.237 Y127.150 E0.01658
G1 X142.894 Y126.729 E0.01703
G1 X142.627 Y126.233 E0.01765
G1 X142.457 Y125.701 E0.01750
G1 X142.383 Y125.144 E0.01762
G1 X142.402 Y124.694 E0.01412
G1 X142.085 Y124.394 F10200.000
G1 E-0.08000 F1800.00000
G1 F8160
G1 X142.532 Y124.023 E-0.14327
G1 X142.750 Y123.512 E-0.11634
G1 X143.050 Y123.061 E-0.11362
G1 X143.234 Y122.855 E-0.05781
G1 X143.444 Y122.663 E-0.05975
G1 X143.877 Y122.375 E-0.10886
G1 X144.120 Y122.263 E-0.05617
G1 X144.247 Y122.219 E-0.02820
G1 E-0.03600 F1800.00000
G1 Z0.800 F10200.000
G1 X144.674 Y88.647
G1 Z0.200
G1 E0.80000 F1800.00000
G1 X144.337 Y88.592 E0.01070
G1 X144.007 Y88.500 E0.01074
G1 X143.678 Y88.369 E0.01111
G1 X143.374 Y88.209 E0.01076
G1 X143.070 Y88.005 E0.01149
G1 X142.581 Y87.558 E0.02074
G1 X142.172 Y87.003 E0.02163
G1 X141.866 Y86.368 E0.02211
G1 X141.684 Y85.697 E0.02180
G1 X141.623 Y85.003 E0.02184
G1 X141.685 Y84.297 E0.02223
G1 X141.869 Y83.626 E0.02180
G1 X142.168 Y83.002 E0.02170
G1 X142.563 Y82.466 E0.02089
G1 X142.830 Y82.196 E0.01190
G1 X143.096 Y81.978 E0.01078
G1 X143.381 Y81.788 E0.01074
G1 X143.683 Y81.628 E0.01073
G1 X144.003 Y81.501 E0.01077
G1 X144.333 Y81.409 E0.01076
G1 X144.671 Y81.353 E0.01075
G1 X145.007 Y81.335 E0.01054
G1 X145.356 Y81.353 E0.01095
G1 X145.696 Y81.409 E0.01079
G1 X146.026 Y81.501 E0.01076
G1 X146.345 Y81.628 E0.01077
G1 X146.648 Y81.788 E0.01073
G1 X146.933 Y81.977 E0.01074
G1 X147.199 Y82.196 E0.01078
G1 X147.466 Y82.466 E0.01190
G1 X147.861 Y83.002 E0.02089
G1 X148.160 Y83.626 E0.02170
G1 X148.343 Y84.297 E0.02180
G1 X148.406 Y85.003 E0.02223
G1 X148.345 Y85.697 E0.02184
G1 X148.162 Y86.368 E0.02180
G1 X147.857 Y87.003 E0.02211
G1 X147.447 Y87.558 E0.02163
G1 X146.959 Y88.005 E0.02074
G1 X146.654 Y88.209 E0.01149
G1 X146.351 Y88.369 E0.01076
G1 X146.022 Y88.500 E0.01111
G1 X145.692 Y88.592 E0.01074
G1 X145.355 Y88.647 E0.01070
G1 X145.014 Y88.666 E0.01070
G1 X144.734 Y88.650 E0.00882
G1 X144.754 Y88.274 F10200.000
G1 F1800
G1 X144.418 Y88.223 E0.01066
G1 X144.127 Y88.142 E0.00946
G1 X143.836 Y88.026 E0.00983
G1 X143.568 Y87.884 E0.00951
G1 X143.303 Y87.707 E0.00999
G1 X142.863 Y87.305 E0.01869
G1 X142.496 Y86.808 E0.01937
G1 X142.221 Y86.236 E0.01991
G1 X142.057 Y85.630 E0.01967
G1 X142.001 Y85.003 E0.01975
G1 X142.058 Y84.364 E0.02012
G1 X142.223 Y83.759 E0.01967
G1 X142.493 Y83.197 E0.01952
G1 X142.850 Y82.711 E0.01891
G1 X143.085 Y82.475 E0.01043
G1 X143.321 Y82.281 E0.00958
G1 X143.573 Y82.112 E0.00953
G1 X143.841 Y81.971 E0.00950
G1 X144.123 Y81.859 E0.00951
G1 X144.415 Y81.778 E0.00949
G1 X144.713 Y81.729 E0.00947
G1 X145.008 Y81.712 E0.00926
G1 X145.315 Y81.728 E0.00966
G1 X145.614 Y81.778 E0.00949
G1 X145.906 Y81.859 E0.00949
G1 X146.187 Y81.971 E0.00951
G1 X146.455 Y82.112 E0.00949
G1 X146.708 Y82.281 E0.00953
G1 X146.944 Y82.475 E0.00958
G1 X147.178 Y82.711 E0.01043
G1 X147.536 Y83.197 E0.01891
G1 X147.805 Y83.759 E0.01952
G1 X147.971 Y84.364 E0.01967
G1 X148.028 Y85.003 E0.02012
G1 X147.972 Y85.630 E0.01975
G1 X147.808 Y86.236 E0.01967
G1 X147.533 Y86.808 E0.01991
G1 X147.166 Y87.305 E0.01937
G1 X146.726 Y87.707 E0.01869
G1 X146.461 Y87.884 E0.00999
G1 X146.193 Y88.026 E0.00951
G1 X145.902 Y88.142 E0.00983
G1 X145.611 Y88.223 E0.00946
G1 X145.314 Y88.272 E0.00942
G1 X145.014 Y88.288 E0.00942
G1 X144.814 Y88.277 E0.00630
G1 X144.834 Y87.901 F10200.000
G1 F1800
G1 X144.499 Y87.854 E0.01061
G1 X144.248 Y87.784 E0.00818
G1 X143.994 Y87.683 E0.00855
G1 X143.761 Y87.560 E0.00827
G1 X143.536 Y87.410 E0.00848
G1 X143.145 Y87.051 E0.01665
G1 X142.821 Y86.613 E0.01710
G1 X142.576 Y86.103 E0.01771
G1 X142.429 Y85.563 E0.01754
G1 X142.380 Y85.003 E0.01765
G1 X142.431 Y84.431 E0.01801
G1 X142.578 Y83.891 E0.01754
G1 X142.818 Y83.392 E0.01735
G1 X143.138 Y82.957 E0.01694
G1 X143.339 Y82.754 E0.00896
G1 X143.545 Y82.584 E0.00839
G1 X143.766 Y82.437 E0.00832
G1 X143.999 Y82.314 E0.00826
G1 X144.244 Y82.217 E0.00825
G1 X144.496 Y82.146 E0.00822
G1 X144.754 Y82.104 E0.00819
G1 X145.008 Y82.090 E0.00798
G1 X145.275 Y82.104 E0.00836
G1 X145.532 Y82.146 E0.00820
G1 X145.785 Y82.217 E0.00822
G1 X146.029 Y82.314 E0.00825
G1 X146.263 Y82.437 E0.00826
G1 X146.483 Y82.584 E0.00832
G1 X146.690 Y82.754 E0.00839
G1 X146.891 Y82.957 E0.00896
G1 X147.211 Y83.392 E0.01694
G1 X147.451 Y83.891 E0.01735
G1 X147.598 Y84.431 E0.01754
G1 X147.649 Y85.003 E0.01801
G1 X147.599 Y85.563 E0.01765
G1 X147.453 Y86.103 E0.01754
G1 X147.208 Y86.613 E0.01771
G1 X146.884 Y87.051 E0.01710
G1 X146.492 Y87.410 E0.01665
G1 X146.268 Y87.560 E0.00848
G1 X146.034 Y87.683 E0.00827
G1 X145.781 Y87.784 E0.00855
G1 X145.530 Y87.854 E0.00818
G1 X145.273 Y87.896 E0.00814
G1 X144.894 Y87.904 E0.01189
G1 X144.645 Y88.181 F10200.000
G1 E-0.08000 F1800.00000
G1 F8160
G1 X144.499 Y87.854 E-0.08346
G1 X144.248 Y87.784 E-0.05465
