; generated by Slic3r Prusa Edition 1.41.0+ on 2018-10-10 at 17:09:03

; 

; external perimeters extrusion width = 0.45mm
; perimeters extrusion width = 0.45mm
; infill extrusion width = 0.45mm
; solid infill extrusion width = 0.45mm
; top infill extrusion width = 0.40mm
; first layer extrusion width = 0.42mm

M201 X9000 Y9000 Z500 E10000 ; sets maximum accelerations, mm/sec^2
M203 X500 Y500 Z12 E120 ; sets maximum feedrates, mm/sec
M204 P1500 R1500 T1500 ; sets acceleration (P, T) and retract acceleration (R), mm/sec^2
M205 X10.00 Y10.00 Z0.20 E2.50 ; sets the jerk limits, mm/sec
M205 S0 T0 ; sets the minimum extruding and travel feed rate, mm/sec
M107
M115 U3.1.1-RC5 ; tell printer latest fw version
M350 E32 ;
M92 E280 ;
M221 S100 ; Set flow to 100
M201 X1000 Y1000 Z100 E10000 ; sets maximum accelerations, mm/sec^2
M203 X200 Y200 Z12 E120 ; sets maximum feedrates, mm/sec
M204 S1250 T1250 ; sets acceleration (S) and retract acceleration (T)
M205 X10 Y10 Z0.4 E2.5 ; sets the jerk limits, mm/sec
M205 S0 T0 ; sets the minimum extruding and travel feed rate, mm/sec
M83  ; extruder relative mode
M104 S215 ; set extruder temp
M140 S60 ; set bed temp
M190 S60 ; wait for bed temp
M109 S215 ; wait for extruder temp
G28 W ; home all without mesh bed level
G1 E-2 ; Retract before mesh
G80 ; mesh bed leveling
G1 Y-3.0 F1000.0 ; go outside print area
G92 E0.0
G1 E8 ; Purge Bubble
G1 X60.0 E9.0  F1000.0 ; intro line
G1 X100.0 E12.5  F1000.0 ; intro line
G92 E0.0
M201 Z400 ; Increase Z axis acceleration standard 200
M203 Z60 ; Increase Z max feedrate standard 12
M203 E60 ; Decrease extruder Max feedrate standard 120
M205 E10 ; Increase extruder jerk standard 2.5
M205 X6 Y6 ; decrease XY jerk standard 10

M117 IM PRINTING THINGS!
M900 K30; Filament gcode
G21 ; set units to millimeters
G90 ; use absolute coordinates
M83 ; use relative distances for extrusion
;BEFORE_LAYER_CHANGE
;0.2


G1 E-0.80000 F1800.00000
G1 Z0.600 F10200.000
;AFTER_LAYER_CHANGE
;0.2
G1 X99.127 Y77.993
G1 Z0.200
G1 E0.80000 F1800.00000
M204 S1000
G1 X99.972 Y77.812 E0.02709
G1 X150.004 Y77.811 E1.56870
G1 X150.823 Y77.972 E0.02620
G1 X151.526 Y78.431 E0.02631
G1 X152.003 Y79.117 E0.02620
G1 X152.188 Y79.936 E0.02631
G1 X152.188 Y130.026 E1.57053
G1 X152.026 Y130.827 E0.02563
G1 X151.582 Y131.513 E0.02563
G1 X150.863 Y132.011 E0.02743
G1 X150.002 Y132.189 E0.02754
G1 X99.974 Y132.188 E1.56859
G1 X99.173 Y132.026 E0.02563
G1 X98.487 Y131.582 E0.02563
G1 X97.989 Y130.863 E0.02743
G1 X97.811 Y130.002 E0.02754
G1 X97.812 Y79.974 E1.56859
G1 X97.974 Y79.173 E0.02563
G1 X98.418 Y78.487 E0.02563
G1 X99.078 Y78.027 E0.02521
; PURGING FINISHED
G1 E-0.08000
G1 F8160
G1 X99.972 Y77.812 E-0.19274
G1 X102.316 Y77.812 E-0.49126
G1 E-0.03600 F1800.00000
G1 Z0.800 F10200.000
G1 X107.636 Y117.616
G1 Z0.200
G1 E0.80000 F1800.00000
G1 X108.273 Y117.471 E0.02050
G1 X108.653 Y117.437 E0.01195
G1 X109.306 Y117.466 E0.02050
G1 X109.964 Y117.616 E0.02118
G1 X110.586 Y117.882 E0.02118
G1 X111.149 Y118.254 E0.02118
G1 X111.622 Y118.706 E0.02050
G1 X111.859 Y119.003 E0.01194
G1 X112.188 Y119.552 E0.02005
G1 X112.432 Y120.196 E0.02159
G1 X112.553 Y120.862 E0.02123
G1 X112.553 Y121.516 E0.02050
G1 X112.502 Y121.894 E0.01195
G1 X112.328 Y122.524 E0.02050
G1 X112.035 Y123.133 E0.02118
G1 X111.638 Y123.679 E0.02118
G1 X111.149 Y124.146 E0.02118
G1 X110.604 Y124.506 E0.02050
G1 X110.260 Y124.672 E0.01195
G1 X109.638 Y124.874 E0.02050
G1 X108.969 Y124.964 E0.02118
G1 X108.316 Y124.935 E0.02050
G1 X107.941 Y124.867 E0.01194
G1 X107.333 Y124.670 E0.02006
G1 X106.725 Y124.346 E0.02159
G1 X106.196 Y123.924 E0.02123
G1 X105.766 Y123.431 E0.02050
G1 X105.556 Y123.113 E0.01194
G1 X105.278 Y122.538 E0.02005
G1 X105.093 Y121.874 E0.02159
G1 X105.032 Y121.200 E0.02123
G1 X105.093 Y120.527 E0.02118
G1 X105.272 Y119.876 E0.02118
G1 X105.565 Y119.267 E0.02118
G1 X105.962 Y118.721 E0.02118
G1 X106.451 Y118.254 E0.02118
G1 X107.014 Y117.882 E0.02118
G1 X107.580 Y117.640 E0.01930
G1 X107.729 Y117.987 F10200.000
G1 F1800
G1 X108.332 Y117.844 E0.01944
G1 X108.661 Y117.815 E0.01036
G1 X109.255 Y117.841 E0.01864
G1 X109.847 Y117.976 E0.01905
G1 X110.406 Y118.215 E0.01905
G1 X110.913 Y118.550 E0.01905
G1 X111.343 Y118.961 E0.01864
G1 X111.549 Y119.219 E0.01035
G1 X111.847 Y119.717 E0.01821
G1 X112.067 Y120.297 E0.01945
G1 X112.176 Y120.896 E0.01908
G1 X112.176 Y121.491 E0.01864
G1 X112.131 Y121.818 E0.01036
G1 X111.973 Y122.391 E0.01864
G1 X111.710 Y122.938 E0.01905
G1 X111.352 Y123.430 E0.01905
G1 X110.913 Y123.850 E0.01905
G1 X110.417 Y124.177 E0.01864
G1 X110.120 Y124.321 E0.01036
G1 X109.554 Y124.504 E0.01864
G1 X108.952 Y124.586 E0.01905
G1 X108.358 Y124.559 E0.01864
G1 X108.034 Y124.500 E0.01035
G1 X107.481 Y124.322 E0.01821
G1 X106.934 Y124.029 E0.01945
G1 X106.458 Y123.650 E0.01908
G1 X106.067 Y123.202 E0.01864
G1 X105.885 Y122.927 E0.01035
G1 X105.632 Y122.404 E0.01821
G1 X105.465 Y121.806 E0.01945
G1 X105.411 Y121.200 E0.01908
G1 X105.465 Y120.595 E0.01905
G1 X105.627 Y120.009 E0.01905
G1 X105.890 Y119.462 E0.01905
G1 X106.247 Y118.970 E0.01905
G1 X106.687 Y118.550 E0.01905
G1 X107.194 Y118.215 E0.01905
G1 X107.673 Y118.010 E0.01635
G1 X107.822 Y118.357 F10200.000
G1 F1800
G1 X108.391 Y118.217 E0.01839
G1 X108.670 Y118.192 E0.00877
G1 X109.204 Y118.216 E0.01678
G1 X109.730 Y118.337 E0.01692
G1 X110.227 Y118.549 E0.01692
G1 X110.677 Y118.846 E0.01692
G1 X111.064 Y119.216 E0.01678
G1 X111.238 Y119.434 E0.00876
G1 X111.507 Y119.882 E0.01637
G1 X111.702 Y120.399 E0.01732
G1 X111.799 Y120.930 E0.01694
G1 X111.799 Y121.465 E0.01678
G1 X111.761 Y121.742 E0.00877
G1 X111.619 Y122.258 E0.01678
G1 X111.385 Y122.744 E0.01692
G1 X111.067 Y123.181 E0.01692
G1 X110.677 Y123.554 E0.01692
G1 X110.231 Y123.849 E0.01678
G1 X109.979 Y123.970 E0.00877
G1 X109.470 Y124.135 E0.01678
G1 X108.935 Y124.208 E0.01692
G1 X108.401 Y124.184 E0.01678
G1 X108.126 Y124.134 E0.00876
G1 X107.629 Y123.973 E0.01637
G1 X107.142 Y123.713 E0.01732
G1 X106.719 Y123.376 E0.01694
G1 X106.367 Y122.973 E0.01678
G1 X106.213 Y122.740 E0.00876
G1 X105.986 Y122.270 E0.01637
G1 X105.838 Y121.738 E0.01732
G1 X105.789 Y121.200 E0.01694
G1 X105.838 Y120.662 E0.01692
G1 X105.981 Y120.142 E0.01692
G1 X106.215 Y119.656 E0.01692
G1 X106.533 Y119.219 E0.01692
G1 X106.923 Y118.846 E0.01692
G1 X107.373 Y118.549 E0.01692
G1 X107.767 Y118.381 E0.01341
G1 X107.900 Y117.965 F10200.000
G1 E-0.08000 F1800.00000
G1 F8160
G1 X108.391 Y118.217 E-0.13530
G1 X108.670 Y118.192 E-0.05858
G1 X109.204 Y118.216 E-0.11212
G1 X109.730 Y118.337 E-0.11312
G1 X110.227 Y118.549 E-0.11312
G1 X110.677 Y118.846 E-0.11312
G1 X110.811 Y118.973 E-0.03864
G1 E-0.03600 F1800.00000
G1 Z0.800 F10200.000
G1 X107.962 Y92.474
G1 Z0.200
G1 E0.80000 F1800.00000
G1 X107.319 Y92.265 E0.02118
G1 X106.724 Y91.945 E0.02118
G1 X106.196 Y91.524 E0.02118
G1 X105.752 Y91.015 E0.02118
G1 X105.416 Y90.454 E0.02050
G1 X105.266 Y90.103 E0.01195
G1 X105.093 Y89.473 E0.02050
G1 X105.032 Y88.800 E0.02118
G1 X105.093 Y88.127 E0.02118
G1 X105.272 Y87.476 E0.02118
G1 X105.565 Y86.867 E0.02118
G1 X105.962 Y86.321 E0.02118
G1 X106.451 Y85.854 E0.02118
G1 X106.996 Y85.494 E0.02050
G1 X107.340 Y85.328 E0.01195
G1 X107.962 Y85.126 E0.02050
G1 X108.631 Y85.036 E0.02118
G1 X109.306 Y85.066 E0.02118
G1 X109.964 Y85.216 E0.02118
G1 X110.586 Y85.482 E0.02118
G1 X111.149 Y85.854 E0.02118
G1 X111.638 Y86.321 E0.02118
G1 X112.022 Y86.850 E0.02050
G1 X112.203 Y87.185 E0.01195
G1 X112.432 Y87.798 E0.02050
G1 X112.553 Y88.462 E0.02118
G1 X112.553 Y89.116 E0.02050
G1 X112.502 Y89.494 E0.01195
G1 X112.328 Y90.124 E0.02050
G1 X112.035 Y90.733 E0.02118
G1 X111.638 Y91.279 E0.02118
G1 X111.165 Y91.731 E0.02050
G1 X110.857 Y91.955 E0.01194
G1 X110.294 Y92.258 E0.02006
G1 X109.640 Y92.473 E0.02159
G1 X108.991 Y92.561 E0.02055
G1 X108.609 Y92.561 E0.01195
G1 X108.021 Y92.482 E0.01862
G1 X108.072 Y92.108 F10200.000
G1 F1800
G1 X107.468 Y91.917 E0.01986
G1 X106.933 Y91.629 E0.01905
G1 X106.458 Y91.250 E0.01905
G1 X106.058 Y90.792 E0.01905
G1 X105.753 Y90.282 E0.01864
G1 X105.623 Y89.978 E0.01036
G1 X105.465 Y89.405 E0.01864
G1 X105.411 Y88.800 E0.01905
G1 X105.465 Y88.195 E0.01905
G1 X105.627 Y87.609 E0.01905
G1 X105.890 Y87.062 E0.01905
G1 X106.247 Y86.570 E0.01905
G1 X106.687 Y86.150 E0.01905
G1 X107.183 Y85.823 E0.01864
G1 X107.480 Y85.679 E0.01036
G1 X108.046 Y85.496 E0.01864
G1 X108.648 Y85.414 E0.01905
G1 X109.255 Y85.441 E0.01905
G1 X109.847 Y85.576 E0.01905
G1 X110.406 Y85.815 E0.01905
G1 X110.913 Y86.150 E0.01905
G1 X111.352 Y86.570 E0.01905
G1 X111.702 Y87.051 E0.01864
G1 X111.858 Y87.342 E0.01036
G1 X112.067 Y87.898 E0.01864
G1 X112.176 Y88.496 E0.01905
G1 X112.176 Y89.091 E0.01864
G1 X112.131 Y89.418 E0.01036
G1 X111.973 Y89.991 E0.01864
G1 X111.710 Y90.538 E0.01905
G1 X111.352 Y91.030 E0.01905
G1 X110.923 Y91.441 E0.01864
G1 X110.656 Y91.635 E0.01035
G1 X110.145 Y91.911 E0.01821
G1 X109.555 Y92.104 E0.01945
G1 X108.965 Y92.184 E0.01867
G1 X108.635 Y92.184 E0.01036
G1 X108.131 Y92.116 E0.01594
G1 X108.182 Y91.742 F10200.000
G1 F1800
G1 X107.617 Y91.569 E0.01853
G1 X107.141 Y91.313 E0.01692
G1 X106.719 Y90.976 E0.01692
G1 X106.364 Y90.570 E0.01692
G1 X106.090 Y90.110 E0.01678
G1 X105.980 Y89.853 E0.00877
G1 X105.838 Y89.338 E0.01678
G1 X105.789 Y88.800 E0.01692
G1 X105.838 Y88.262 E0.01692
G1 X105.981 Y87.742 E0.01692
G1 X106.215 Y87.256 E0.01692
G1 X106.533 Y86.819 E0.01692
G1 X106.923 Y86.446 E0.01692
G1 X107.369 Y86.151 E0.01678
G1 X107.621 Y86.030 E0.00877
G1 X108.130 Y85.865 E0.01678
G1 X108.665 Y85.792 E0.01692
G1 X109.204 Y85.816 E0.01692
G1 X109.730 Y85.937 E0.01692
G1 X110.227 Y86.149 E0.01692
G1 X110.677 Y86.446 E0.01692
G1 X111.067 Y86.819 E0.01692
G1 X111.382 Y87.252 E0.01678
G1 X111.514 Y87.498 E0.00877
G1 X111.702 Y87.999 E0.01678
G1 X111.799 Y88.530 E0.01692
G1 X111.799 Y89.065 E0.01678
G1 X111.761 Y89.342 E0.00877
G1 X111.619 Y89.858 E0.01678
G1 X111.385 Y90.344 E0.01692
G1 X111.067 Y90.781 E0.01692
G1 X110.681 Y91.151 E0.01678
G1 X110.455 Y91.315 E0.00876
G1 X109.995 Y91.563 E0.01637
G1 X109.470 Y91.735 E0.01732
G1 X108.940 Y91.807 E0.01679
G1 X108.660 Y91.807 E0.00877
G1 X108.241 Y91.750 E0.01326
G1 X107.909 Y92.035 F10200.000
G1 E-0.08000 F1800.00000
G1 F8160
G1 X107.617 Y91.569 E-0.13630
G1 X107.141 Y91.313 E-0.11312
G1 X106.719 Y90.976 E-0.11312
G1 X106.364 Y90.570 E-0.11312
G1 X106.090 Y90.110 E-0.11212
G1 X105.980 Y89.853 E-0.05858
G1 X105.932 Y89.680 E-0.03765
G1 E-0.03600 F1800.00000
G1 Z0.800 F10200.000
G1 X137.493 Y89.474
G1 Z0.200
G1 E0.80000 F1800.00000
G1 X137.432 Y88.800 E0.02123
G1 X137.493 Y88.127 E0.02118
G1 X137.672 Y87.476 E0.02118
G1 X137.965 Y86.867 E0.02118
G1 X138.362 Y86.321 E0.02118
G1 X138.851 Y85.854 E0.02118
G1 X139.396 Y85.494 E0.02050
G1 X139.740 Y85.328 E0.01195
G1 X140.362 Y85.126 E0.02050
G1 X141.031 Y85.036 E0.02118
G1 X141.684 Y85.065 E0.02050
G1 X142.059 Y85.133 E0.01194
G1 X142.667 Y85.330 E0.02005
G1 X143.275 Y85.654 E0.02159
G1 X143.804 Y86.076 E0.02123
G1 X144.248 Y86.585 E0.02118
G1 X144.595 Y87.165 E0.02118
G1 X144.832 Y87.798 E0.02118
G1 X144.953 Y88.462 E0.02118
G1 X144.953 Y89.138 E0.02118
G1 X144.832 Y89.802 E0.02118
G1 X144.603 Y90.415 E0.02050
G1 X144.422 Y90.750 E0.01195
G1 X144.038 Y91.279 E0.02050
G1 X143.549 Y91.746 E0.02118
G1 X142.986 Y92.118 E0.02118
G1 X142.384 Y92.375 E0.02050
G1 X142.017 Y92.477 E0.01195
G1 X141.391 Y92.561 E0.01982
G1 X141.009 Y92.561 E0.01195
G1 X140.362 Y92.474 E0.02050
G1 X139.719 Y92.265 E0.02118
G1 X139.124 Y91.945 E0.02118
G1 X138.596 Y91.524 E0.02118
G1 X138.166 Y91.031 E0.02050
G1 X137.956 Y90.713 E0.01194
G1 X137.678 Y90.138 E0.02005
G1 X137.509 Y89.532 E0.01971
G1 X137.872 Y89.431 F10200.000
G1 F1800
G1 X137.811 Y88.800 E0.01987
G1 X137.865 Y88.195 E0.01905
G1 X138.027 Y87.609 E0.01905
G1 X138.290 Y87.062 E0.01905
G1 X138.648 Y86.570 E0.01905
G1 X139.087 Y86.150 E0.01905
G1 X139.583 Y85.823 E0.01864
G1 X139.880 Y85.679 E0.01036
G1 X140.446 Y85.496 E0.01864
G1 X141.048 Y85.414 E0.01905
G1 X141.642 Y85.441 E0.01864
G1 X141.966 Y85.500 E0.01035
G1 X142.519 Y85.678 E0.01821
G1 X143.066 Y85.971 E0.01945
G1 X143.542 Y86.350 E0.01908
G1 X143.942 Y86.808 E0.01905
G1 X144.254 Y87.329 E0.01905
G1 X144.467 Y87.898 E0.01905
G1 X144.576 Y88.496 E0.01905
G1 X144.576 Y89.104 E0.01905
G1 X144.467 Y89.702 E0.01905
G1 X144.258 Y90.258 E0.01864
G1 X144.102 Y90.549 E0.01036
G1 X143.752 Y91.030 E0.01864
G1 X143.313 Y91.450 E0.01905
G1 X142.806 Y91.785 E0.01905
G1 X142.260 Y92.018 E0.01864
G1 X141.941 Y92.106 E0.01036
G1 X141.365 Y92.184 E0.01822
G1 X141.035 Y92.184 E0.01036
G1 X140.446 Y92.104 E0.01864
G1 X139.868 Y91.917 E0.01905
G1 X139.333 Y91.629 E0.01905
G1 X138.858 Y91.250 E0.01905
G1 X138.467 Y90.802 E0.01864
G1 X138.285 Y90.527 E0.01035
G1 X138.032 Y90.004 E0.01821
G1 X137.888 Y89.488 E0.01677
G1 X138.251 Y89.387 F10200.000
G1 F1800
G1 X138.189 Y88.800 E0.01851
G1 X138.238 Y88.262 E0.01692
G1 X138.381 Y87.742 E0.01692
G1 X138.615 Y87.256 E0.01692
G1 X138.933 Y86.819 E0.01692
G1 X139.323 Y86.446 E0.01692
G1 X139.769 Y86.151 E0.01678
G1 X140.021 Y86.030 E0.00877
G1 X140.530 Y85.865 E0.01678
G1 X141.065 Y85.792 E0.01692
G1 X141.599 Y85.816 E0.01678
G1 X141.874 Y85.866 E0.00876
G1 X142.371 Y86.027 E0.01637
G1 X142.858 Y86.287 E0.01732
G1 X143.281 Y86.624 E0.01694
G1 X143.636 Y87.030 E0.01692
G1 X143.913 Y87.494 E0.01692
G1 X144.102 Y87.999 E0.01692
G1 X144.199 Y88.530 E0.01692
G1 X144.199 Y89.070 E0.01692
G1 X144.102 Y89.601 E0.01692
G1 X143.914 Y90.102 E0.01678
G1 X143.782 Y90.348 E0.00877
G1 X143.467 Y90.781 E0.01678
G1 X143.077 Y91.154 E0.01692
G1 X142.627 Y91.451 E0.01692
G1 X142.135 Y91.662 E0.01678
G1 X141.865 Y91.736 E0.00877
G1 X141.340 Y91.807 E0.01663
G1 X141.060 Y91.807 E0.00877
G1 X140.530 Y91.735 E0.01678
G1 X140.017 Y91.569 E0.01692
G1 X139.541 Y91.313 E0.01692
G1 X139.119 Y90.976 E0.01692
G1 X138.767 Y90.573 E0.01678
G1 X138.613 Y90.340 E0.00876
G1 X138.386 Y89.870 E0.01637
G1 X138.267 Y89.445 E0.01384
G1 X137.873 Y89.256 F10200.000
G1 E-0.08000 F1800.00000
G1 F8160
G1 X138.189 Y88.800 E-0.13610
G1 X138.238 Y88.262 E-0.11312
G1 X138.381 Y87.742 E-0.11312
G1 X138.615 Y87.256 E-0.11312
G1 X138.933 Y86.819 E-0.11312
G1 X139.262 Y86.504 E-0.09543
G1 E-0.03600 F1800.00000
G1 Z0.800 F10200.000
G1 X140.036 Y117.616
G1 Z0.200
G1 E0.80000 F1800.00000
G1 X140.673 Y117.471 E0.02050
G1 X141.053 Y117.437 E0.01195
G1 X141.706 Y117.466 E0.02050
G1 X142.364 Y117.616 E0.02118
G1 X142.986 Y117.882 E0.02118
G1 X143.549 Y118.254 E0.02118
G1 X144.038 Y118.721 E0.02118
G1 X144.422 Y119.250 E0.02050
G1 X144.603 Y119.585 E0.01195
G1 X144.832 Y120.198 E0.02050
G1 X144.953 Y120.862 E0.02118
G1 X144.953 Y121.538 E0.02118
G1 X144.832 Y122.202 E0.02118
G1 X144.603 Y122.815 E0.02050
G1 X144.422 Y123.150 E0.01195
G1 X144.038 Y123.679 E0.02050
G1 X143.549 Y124.146 E0.02118
G1 X142.986 Y124.518 E0.02118
G1 X142.384 Y124.775 E0.02050
G1 X142.017 Y124.877 E0.01195
G1 X141.369 Y124.964 E0.02050
G1 X140.716 Y124.935 E0.02050
G1 X140.341 Y124.867 E0.01194
G1 X139.733 Y124.670 E0.02006
G1 X139.125 Y124.346 E0.02159
G1 X138.596 Y123.924 E0.02123
G1 X138.166 Y123.431 E0.02050
G1 X137.956 Y123.113 E0.01194
G1 X137.678 Y122.538 E0.02005
G1 X137.493 Y121.874 E0.02159
G1 X137.432 Y121.200 E0.02123
G1 X137.493 Y120.527 E0.02118
G1 X137.672 Y119.876 E0.02118
G1 X137.965 Y119.267 E0.02118
G1 X138.362 Y118.721 E0.02118
G1 X138.851 Y118.254 E0.02118
G1 X139.414 Y117.882 E0.02118
G1 X139.980 Y117.640 E0.01930
G1 X140.129 Y117.987 F10200.000
G1 F1800
G1 X140.732 Y117.844 E0.01944
G1 X141.061 Y117.815 E0.01036
G1 X141.655 Y117.841 E0.01864
G1 X142.247 Y117.976 E0.01905
G1 X142.806 Y118.215 E0.01905
G1 X143.313 Y118.550 E0.01905
G1 X143.752 Y118.970 E0.01905
G1 X144.102 Y119.451 E0.01864
G1 X144.258 Y119.742 E0.01036
G1 X144.467 Y120.298 E0.01864
G1 X144.576 Y120.896 E0.01905
G1 X144.576 Y121.504 E0.01905
G1 X144.467 Y122.102 E0.01905
G1 X144.258 Y122.658 E0.01864
G1 X144.102 Y122.949 E0.01036
G1 X143.752 Y123.430 E0.01864
G1 X143.313 Y123.850 E0.01905
G1 X142.806 Y124.185 E0.01905
G1 X142.260 Y124.418 E0.01864
G1 X141.941 Y124.506 E0.01036
