; generated by Slic3r Prusa Edition 1.41.0+ on 2018-10-11 at 17:16:37

; 

; external perimeters extrusion width = 0.45mm
; perimeters extrusion width = 0.45mm
; infill extrusion width = 0.45mm
; solid infill extrusion width = 0.45mm
; top infill extrusion width = 0.40mm
; first layer extrusion width = 0.42mm

M201 X9000 Y9000 Z500 E10000 ; sets maximum accelerations, mm/sec^2
M203 X500 Y500 Z12 E120 ; sets maximum feedrates, mm/sec
M204 P1500 R1500 T1500 ; sets acceleration (P, T) and retract acceleration (R), mm/sec^2
M205 X10.00 Y10.00 Z0.20 E2.50 ; sets the jerk limits, mm/sec
M205 S0 T0 ; sets the minimum extruding and travel feed rate, mm/sec
M107
M115 U3.1.1-RC5 ; tell printer latest fw version
M350 E32 ;
M92 E280 ;
M221 S100 ; Set flow to 100
M201 X1000 Y1000 Z100 E10000 ; sets maximum accelerations, mm/sec^2
M203 X200 Y200 Z12 E120 ; sets maximum feedrates, mm/sec
M204 S1250 T1250 ; sets acceleration (S) and retract acceleration (T)
M205 X10 Y10 Z0.4 E2.5 ; sets the jerk limits, mm/sec
M205 S0 T0 ; sets the minimum extruding and travel feed rate, mm/sec
M83  ; extruder relative mode
M104 S215 ; set extruder temp
M140 S60 ; set bed temp
M190 S60 ; wait for bed temp
M109 S215 ; wait for extruder temp
G28 W ; home all without mesh bed level
G1 E-2 ; Retract before mesh
G80 ; mesh bed leveling
G1 Y-3.0 F1000.0 ; go outside print area
G92 E0.0
G1 E8 ; Purge Bubble
G1 X60.0 E9.0  F1000.0 ; intro line
G1 X100.0 E12.5  F1000.0 ; intro line
G92 E0.0
M201 Z400 ; Increase Z axis acceleration standard 200
M203 Z60 ; Increase Z max feedrate standard 12
M203 E60 ; Decrease extruder Max feedrate standard 120
M205 E10 ; Increase extruder jerk standard 2.5
M205 X6 Y6 ; decrease XY jerk standard 10

M117 IM PRINTING THINGS!
M900 K30; Filament gcode
G21 ; set units to millimeters
G90 ; use absolute coordinates
M83 ; use relative distances for extrusion
;BEFORE_LAYER_CHANGE
;0.2


G1 E-0.80000 F1800.00000
G1 Z0.600 F10200.000
;AFTER_LAYER_CHANGE
;0.2
G1 X99.127 Y77.993
G1 Z0.200
G1 E0.80000 F1800.00000
M204 S1000
G1 X99.972 Y77.812 E0.02709
G1 X150.004 Y77.811 E1.56870
G1 X150.823 Y77.972 E0.02620
G1 X151.526 Y78.431 E0.02631
G1 X152.003 Y79.117 E0.02620
G1 X152.188 Y79.936 E0.02631
G1 X152.188 Y130.026 E1.57053
G1 X152.026 Y130.827 E0.02563
G1 X151.582 Y131.513 E0.02563
G1 X150.863 Y132.011 E0.02743
G1 X150.002 Y132.189 E0.02754
G1 X99.974 Y132.188 E1.56859
G1 X99.173 Y132.026 E0.02563
G1 X98.487 Y131.582 E0.02563
G1 X97.989 Y130.863 E0.02743
G1 X97.811 Y130.002 E0.02754
G1 X97.812 Y79.974 E1.56859
G1 X97.974 Y79.173 E0.02563
G1 X98.418 Y78.487 E0.02563
G1 X99.078 Y78.027 E0.02521
; PURGING FINISHED
G1 E-0.08000
G1 F8160
G1 X99.972 Y77.812 E-0.19274
G1 X102.316 Y77.812 E-0.49126
G1 E-0.03600 F1800.00000
G1 Z0.800 F10200.000
G1 X138.248 Y118.548
G1 Z0.200
G1 E0.80000 F1800.00000
G1 X138.753 Y118.077 E0.02167
G1 X139.298 Y117.720 E0.02043
G1 X139.642 Y117.553 E0.01199
G1 X140.271 Y117.343 E0.02077
G1 X140.954 Y117.240 E0.02167
G1 X141.606 Y117.255 E0.02043
G1 X141.984 Y117.312 E0.01199
G1 X142.599 Y117.489 E0.02008
G1 X142.950 Y117.641 E0.01200
G1 X143.518 Y117.980 E0.02074
G1 X144.036 Y118.425 E0.02139
G1 X144.469 Y118.951 E0.02139
G1 X144.806 Y119.545 E0.02139
G1 X145.029 Y120.167 E0.02073
G1 X145.111 Y120.541 E0.01200
G1 X145.168 Y121.201 E0.02077
G1 X145.107 Y121.889 E0.02167
G1 X144.940 Y122.519 E0.02043
G1 X144.796 Y122.873 E0.01199
G1 X144.469 Y123.449 E0.02074
G1 X144.048 Y123.960 E0.02078
G1 X143.762 Y124.227 E0.01228
G1 X143.233 Y124.608 E0.02042
G1 X142.619 Y124.905 E0.02138
G1 X141.964 Y125.094 E0.02139
G1 X141.285 Y125.167 E0.02139
G1 X140.604 Y125.123 E0.02142
G1 X139.932 Y124.959 E0.02167
G1 X139.334 Y124.700 E0.02043
G1 X139.006 Y124.504 E0.01199
G1 X138.486 Y124.095 E0.02073
G1 X138.031 Y123.587 E0.02139
G1 X137.669 Y123.009 E0.02139
G1 X137.411 Y122.377 E0.02139
G1 X137.270 Y121.731 E0.02073
G1 X137.237 Y121.350 E0.01200
G1 X137.265 Y120.688 E0.02077
G1 X137.414 Y120.013 E0.02167
G1 X137.661 Y119.410 E0.02043
G1 X137.850 Y119.078 E0.01199
G1 X138.212 Y118.596 E0.01889
G1 X138.513 Y118.823 F10200.000
G1 F1800
G1 X138.987 Y118.375 E0.02046
G1 X139.485 Y118.048 E0.01866
G1 X139.785 Y117.903 E0.01047
G1 X140.359 Y117.711 E0.01897
G1 X140.978 Y117.618 E0.01962
G1 X141.573 Y117.631 E0.01866
G1 X141.903 Y117.681 E0.01047
G1 X142.472 Y117.845 E0.01855
G1 X142.778 Y117.978 E0.01047
G1 X143.297 Y118.287 E0.01895
G1 X143.765 Y118.689 E0.01935
G1 X144.157 Y119.166 E0.01935
G1 X144.462 Y119.703 E0.01935
G1 X144.666 Y120.272 E0.01895
G1 X144.737 Y120.598 E0.01047
G1 X144.789 Y121.201 E0.01897
G1 X144.734 Y121.824 E0.01962
G1 X144.582 Y122.399 E0.01866
G1 X144.456 Y122.708 E0.01047
G1 X144.157 Y123.234 E0.01895
G1 X143.773 Y123.701 E0.01898
G1 X143.522 Y123.935 E0.01075
G1 X143.039 Y124.282 E0.01866
G1 X142.484 Y124.552 E0.01934
G1 X141.891 Y124.722 E0.01935
G1 X141.277 Y124.788 E0.01935
G1 X140.661 Y124.749 E0.01937
G1 X140.053 Y124.601 E0.01962
G1 X139.507 Y124.364 E0.01866
G1 X139.220 Y124.192 E0.01047
G1 X138.745 Y123.819 E0.01895
G1 X138.333 Y123.359 E0.01935
G1 X138.005 Y122.836 E0.01935
G1 X137.772 Y122.265 E0.01935
G1 X137.643 Y121.675 E0.01895
G1 X137.615 Y121.342 E0.01047
G1 X137.641 Y120.737 E0.01897
G1 X137.776 Y120.126 E0.01962
G1 X138.001 Y119.575 E0.01866
G1 X138.166 Y119.285 E0.01047
G1 X138.477 Y118.871 E0.01624
G1 X138.778 Y119.098 F10200.000
G1 F1800
G1 X139.221 Y118.672 E0.01925
G1 X139.671 Y118.377 E0.01689
G1 X139.928 Y118.252 E0.00894
G1 X140.447 Y118.079 E0.01717
G1 X141.002 Y117.996 E0.01758
G1 X141.540 Y118.008 E0.01689
G1 X141.822 Y118.051 E0.00894
G1 X142.344 Y118.200 E0.01702
G1 X142.606 Y118.314 E0.00894
G1 X143.076 Y118.594 E0.01717
G1 X143.495 Y118.954 E0.01731
G1 X143.845 Y119.380 E0.01731
G1 X144.118 Y119.860 E0.01731
G1 X144.303 Y120.376 E0.01717
G1 X144.364 Y120.655 E0.00895
G1 X144.411 Y121.200 E0.01717
G1 X144.361 Y121.759 E0.01758
G1 X144.223 Y122.279 E0.01689
G1 X144.116 Y122.543 E0.00894
G1 X143.845 Y123.020 E0.01717
G1 X143.497 Y123.443 E0.01718
G1 X143.282 Y123.643 E0.00922
G1 X142.845 Y123.957 E0.01689
G1 X142.348 Y124.198 E0.01731
G1 X141.818 Y124.351 E0.01731
G1 X141.269 Y124.410 E0.01731
G1 X140.718 Y124.374 E0.01732
G1 X140.173 Y124.242 E0.01758
G1 X139.679 Y124.027 E0.01689
G1 X139.434 Y123.881 E0.00894
G1 X139.004 Y123.542 E0.01717
G1 X138.635 Y123.132 E0.01731
G1 X138.342 Y122.664 E0.01731
G1 X138.134 Y122.153 E0.01731
G1 X138.017 Y121.618 E0.01717
G1 X137.992 Y121.334 E0.00894
G1 X138.016 Y120.786 E0.01717
G1 X138.137 Y120.239 E0.01758
G1 X138.341 Y119.740 E0.01689
G1 X138.481 Y119.492 E0.00894
G1 X138.742 Y119.146 E0.01359
G1 X138.656 Y118.717 F10200.000
G1 E-0.08000 F1800.00000
G1 F8160
G1 X139.221 Y118.672 E-0.14110
G1 X139.671 Y118.377 E-0.11288
G1 X139.928 Y118.252 E-0.05977
G1 X140.447 Y118.079 E-0.11478
G1 X141.002 Y117.996 E-0.11749
G1 X141.540 Y118.008 E-0.11288
G1 X141.659 Y118.026 E-0.02510
G1 E-0.03600 F1800.00000
G1 Z0.800 F10200.000
G1 X112.764 Y121.029
G1 Z0.200
G1 E0.80000 F1800.00000
G1 X112.735 Y121.712 E0.02142
G1 X112.586 Y122.387 E0.02167
G1 X112.339 Y122.990 E0.02043
G1 X112.150 Y123.322 E0.01199
G1 X111.752 Y123.852 E0.02077
G1 X111.247 Y124.323 E0.02167
G1 X110.702 Y124.680 E0.02043
G1 X110.358 Y124.847 E0.01199
G1 X109.730 Y125.057 E0.02074
G1 X109.056 Y125.159 E0.02139
G1 X108.393 Y125.145 E0.02078
G1 X108.006 Y125.085 E0.01228
G1 X107.380 Y124.905 E0.02042
G1 X106.767 Y124.607 E0.02138
G1 X106.213 Y124.209 E0.02139
G1 X105.736 Y123.721 E0.02139
G1 X105.349 Y123.158 E0.02142
G1 X105.062 Y122.530 E0.02167
G1 X104.896 Y121.899 E0.02043
G1 X104.847 Y121.520 E0.01199
G1 X104.847 Y120.858 E0.02077
G1 X104.967 Y120.177 E0.02167
G1 X105.187 Y119.564 E0.02043
G1 X105.362 Y119.224 E0.01199
G1 X105.736 Y118.679 E0.02073
G1 X106.199 Y118.206 E0.02073
G1 X106.500 Y117.969 E0.01200
G1 X107.067 Y117.631 E0.02073
G1 X107.705 Y117.386 E0.02142
G1 X108.384 Y117.255 E0.02167
G1 X109.035 Y117.241 E0.02043
G1 X109.416 Y117.282 E0.01199
G1 X110.060 Y117.437 E0.02077
G1 X110.693 Y117.713 E0.02167
G1 X111.238 Y118.072 E0.02043
G1 X111.528 Y118.321 E0.01199
G1 X111.970 Y118.814 E0.02077
G1 X112.336 Y119.400 E0.02167
G1 X112.581 Y120.004 E0.02043
G1 X112.679 Y120.374 E0.01199
G1 X112.756 Y120.970 E0.01885
G1 X112.382 Y121.018 F10200.000
G1 F1800
G1 X112.359 Y121.663 E0.02022
G1 X112.224 Y122.274 E0.01962
G1 X111.999 Y122.825 E0.01866
G1 X111.834 Y123.115 E0.01047
G1 X111.470 Y123.598 E0.01897
G1 X111.013 Y124.025 E0.01962
G1 X110.515 Y124.352 E0.01866
G1 X110.215 Y124.497 E0.01047
G1 X109.642 Y124.689 E0.01895
G1 X109.032 Y124.782 E0.01935
G1 X108.426 Y124.769 E0.01898
G1 X108.088 Y124.716 E0.01075
G1 X107.516 Y124.552 E0.01865
G1 X106.961 Y124.282 E0.01934
G1 X106.460 Y123.922 E0.01935
G1 X106.029 Y123.481 E0.01935
G1 X105.678 Y122.972 E0.01937
G1 X105.419 Y122.402 E0.01962
G1 X105.267 Y121.827 E0.01866
G1 X105.224 Y121.496 E0.01047
G1 X105.224 Y120.891 E0.01897
G1 X105.333 Y120.274 E0.01962
G1 X105.534 Y119.714 E0.01866
G1 X105.686 Y119.417 E0.01047
G1 X106.029 Y118.919 E0.01895
G1 X106.451 Y118.487 E0.01895
G1 X106.714 Y118.281 E0.01047
G1 X107.233 Y117.971 E0.01895
G1 X107.810 Y117.750 E0.01937
G1 X108.424 Y117.631 E0.01962
G1 X109.019 Y117.619 E0.01866
G1 X109.351 Y117.654 E0.01047
G1 X109.939 Y117.796 E0.01897
G1 X110.513 Y118.046 E0.01962
G1 X111.010 Y118.373 E0.01866
G1 X111.263 Y118.591 E0.01047
G1 X111.667 Y119.041 E0.01897
G1 X111.998 Y119.572 E0.01962
G1 X112.223 Y120.123 E0.01866
G1 X112.308 Y120.446 E0.01047
G1 X112.375 Y120.959 E0.01621
G1 X112.001 Y121.007 F10200.000
G1 F1800
G1 X111.984 Y121.614 E0.01901
G1 X111.863 Y122.161 E0.01758
G1 X111.659 Y122.660 E0.01689
G1 X111.519 Y122.908 E0.00894
G1 X111.189 Y123.345 E0.01717
G1 X110.779 Y123.728 E0.01758
G1 X110.329 Y124.023 E0.01689
G1 X110.072 Y124.148 E0.00894
G1 X109.553 Y124.321 E0.01717
G1 X109.007 Y124.404 E0.01731
G1 X108.459 Y124.392 E0.01717
G1 X108.169 Y124.347 E0.00922
G1 X107.651 Y124.198 E0.01689
G1 X107.155 Y123.957 E0.01731
G1 X106.707 Y123.635 E0.01731
G1 X106.321 Y123.240 E0.01731
G1 X106.008 Y122.785 E0.01732
G1 X105.775 Y122.275 E0.01758
G1 X105.638 Y121.754 E0.01689
G1 X105.601 Y121.471 E0.00894
G1 X105.601 Y120.924 E0.01717
G1 X105.698 Y120.372 E0.01758
G1 X105.880 Y119.865 E0.01689
G1 X106.011 Y119.611 E0.00894
G1 X106.321 Y119.160 E0.01717
G1 X106.704 Y118.769 E0.01717
G1 X106.928 Y118.592 E0.00894
G1 X107.398 Y118.311 E0.01717
G1 X107.914 Y118.114 E0.01732
G1 X108.464 Y118.007 E0.01758
G1 X109.003 Y117.996 E0.01689
G1 X109.286 Y118.027 E0.00894
G1 X109.819 Y118.155 E0.01717
G1 X110.333 Y118.379 E0.01758
G1 X110.783 Y118.675 E0.01689
G1 X110.999 Y118.861 E0.00894
G1 X111.365 Y119.268 E0.01717
G1 X111.661 Y119.744 E0.01758
G1 X111.864 Y120.243 E0.01689
G1 X111.937 Y120.519 E0.00894
G1 X111.993 Y120.948 E0.01356
G1 X112.355 Y121.193 F10200.000
G1 E-0.08000 F1800.00000
G1 F8160
G1 X111.984 Y121.614 E-0.13952
G1 X111.863 Y122.161 E-0.11749
G1 X111.659 Y122.660 E-0.11288
G1 X111.519 Y122.908 E-0.05977
G1 X111.189 Y123.345 E-0.11478
G1 X110.779 Y123.728 E-0.11749
G1 X110.691 Y123.786 E-0.02208
G1 E-0.03600 F1800.00000
G1 Z0.800 F10200.000
G1 X108.948 Y92.760
G1 Z0.200
G1 E0.80000 F1800.00000
G1 X108.513 Y92.755 E0.01365
G1 X107.869 Y92.657 E0.02042
G1 X107.223 Y92.441 E0.02138
G1 X106.622 Y92.117 E0.02139
G1 X106.086 Y91.695 E0.02139
G1 X105.644 Y91.202 E0.02078
G1 X105.423 Y90.878 E0.01228
G1 X105.126 Y90.298 E0.02042
G1 X104.924 Y89.647 E0.02138
G1 X104.836 Y88.971 E0.02139
G1 X104.865 Y88.288 E0.02142
G1 X105.014 Y87.613 E0.02167
G1 X105.261 Y87.010 E0.02043
G1 X105.450 Y86.678 E0.01199
G1 X105.848 Y86.149 E0.02074
G1 X106.331 Y85.696 E0.02078
G1 X106.650 Y85.468 E0.01228
G1 X107.223 Y85.159 E0.02042
G1 X107.871 Y84.943 E0.02141
G1 X108.554 Y84.840 E0.02167
G1 X109.206 Y84.855 E0.02043
G1 X109.584 Y84.912 E0.01199
G1 X110.200 Y85.089 E0.02012
G1 X110.559 Y85.246 E0.01228
G1 X111.119 Y85.580 E0.02042
G1 X111.621 Y86.012 E0.02077
G1 X111.882 Y86.304 E0.01228
G1 X112.250 Y86.841 E0.02042
G1 X112.535 Y87.461 E0.02138
G1 X112.709 Y88.120 E0.02139
G1 X112.768 Y88.800 E0.02139
G1 X112.709 Y89.481 E0.02142
G1 X112.531 Y90.148 E0.02167
G1 X112.259 Y90.741 E0.02043
G1 X112.056 Y91.065 E0.01199
G1 X111.636 Y91.575 E0.02073
G1 X111.118 Y92.021 E0.02142
G1 X110.523 Y92.373 E0.02167
G1 X109.915 Y92.606 E0.02043
G1 X109.543 Y92.696 E0.01199
G1 X109.008 Y92.754 E0.01687
G1 E-0.08000
G1 F8160
G1 X108.513 Y92.755 E-0.10370
G1 X107.869 Y92.657 E-0.13650
G1 X107.223 Y92.441 E-0.14288
G1 X106.622 Y92.117 E-0.14296
G1 X106.086 Y91.695 E-0.14295
G1 X106.039 Y91.641 E-0.01501
G1 E-0.03600 F1800.00000
G1 Z0.800 F10200.000
G1 X107.958 Y92.289
G1 Z0.200
G1 E0.80000 F1800.00000
G1 X107.373 Y92.093 E0.01934
G1 X106.830 Y91.800 E0.01935
G1 X106.345 Y91.419 E0.01935
G1 X105.941 Y90.968 E0.01898
G1 X105.747 Y90.685 E0.01075
G1 X105.477 Y90.155 E0.01866
G1 X105.294 Y89.566 E0.01934
G1 X105.214 Y88.954 E0.01935
G1 X105.241 Y88.337 E0.01937
G1 X105.376 Y87.726 E0.01962
G1 X105.601 Y87.175 E0.01866
G1 X105.766 Y86.885 E0.01047
G1 X106.129 Y86.402 E0.01895
G1 X106.571 Y85.988 E0.01898
G1 X106.850 Y85.789 E0.01075
G1 X107.373 Y85.506 E0.01865
G1 X107.959 Y85.311 E0.01936
G1 X108.578 Y85.218 E0.01962
G1 X109.173 Y85.231 E0.01866
G1 X109.503 Y85.281 E0.01047
G1 X110.072 Y85.445 E0.01858
G1 X110.387 Y85.582 E0.01075
G1 X110.897 Y85.887 E0.01866
G1 X111.356 Y86.282 E0.01897
G1 X111.584 Y86.537 E0.01075
G1 X111.921 Y87.028 E0.01866
G1 X112.179 Y87.589 E0.01934
G1 X112.336 Y88.185 E0.01935
G1 X112.389 Y88.800 E0.01935
G1 X112.336 Y89.415 E0.01937
G1 X112.175 Y90.020 E0.01962
G1 X111.926 Y90.561 E0.01866
G1 X111.749 Y90.844 E0.01047
G1 X111.365 Y91.311 E0.01895
G1 X110.897 Y91.713 E0.01937
G1 X110.359 Y92.033 E0.01962
G1 X109.803 Y92.245 E0.01866
G1 X109.478 Y92.324 E0.01047
G1 X108.889 Y92.387 E0.01858
G1 X108.546 Y92.379 E0.01075
G1 X108.017 Y92.298 E0.01677
G1 X108.074 Y91.925 F10200.000
G1 F1800
G1 X107.524 Y91.746 E0.01816
G1 X107.038 Y91.484 E0.01731
G1 X106.604 Y91.142 E0.01731
G1 X106.238 Y90.735 E0.01718
G1 X106.072 Y90.492 E0.00922
G1 X105.827 Y90.013 E0.01689
G1 X105.663 Y89.486 E0.01731
G1 X105.592 Y88.938 E0.01731
G1 X105.616 Y88.386 E0.01732
G1 X105.737 Y87.839 E0.01758
G1 X105.941 Y87.340 E0.01689
G1 X106.081 Y87.092 E0.00894
G1 X106.411 Y86.655 E0.01717
G1 X106.810 Y86.280 E0.01718
G1 X107.049 Y86.109 E0.00922
G1 X107.524 Y85.854 E0.01689
G1 X108.047 Y85.679 E0.01731
G1 X108.602 Y85.596 E0.01758
G1 X109.140 Y85.608 E0.01689
G1 X109.422 Y85.651 E0.00894
G1 X109.944 Y85.800 E0.01703
G1 X110.214 Y85.918 E0.00922
G1 X110.676 Y86.194 E0.01689
G1 X111.091 Y86.551 E0.01717
G1 X111.287 Y86.771 E0.00922
G1 X111.592 Y87.215 E0.01689
G1 X111.822 Y87.716 E0.01731
G1 X111.963 Y88.250 E0.01731
G1 X112.011 Y88.800 E0.01731
G1 X111.963 Y89.350 E0.01732
G1 X111.819 Y89.892 E0.01758
G1 X111.594 Y90.381 E0.01689
G1 X111.443 Y90.623 E0.00894
G1 X111.095 Y91.046 E0.01717
G1 X110.676 Y91.406 E0.01732
G1 X110.194 Y91.692 E0.01758
G1 X109.691 Y91.884 E0.01689
G1 X109.413 Y91.951 E0.00894
G1 X108.873 Y92.010 E0.01703
G1 X108.579 Y92.002 E0.00922
G1 X108.134 Y91.934 E0.01414
G1 X107.796 Y92.213 F10200.000
G1 E-0.08000 F1800.00000
G1 F8160
G1 X107.524 Y91.746 E-0.13379
G1 X107.038 Y91.484 E-0.11568
G1 X106.604 Y91.142 E-0.11568
G1 X106.238 Y90.735 E-0.11479
G1 X106.072 Y90.492 E-0.06160
G1 X105.827 Y90.013 E-0.11287
G1 X105.785 Y89.878 E-0.02959
G1 E-0.03600 F1800.00000
G1 Z0.800 F10200.000
G1 X137.411 Y89.977
G1 Z0.200
G1 E0.80000 F1800.00000
G1 X137.270 Y89.331 E0.02074
G1 X137.237 Y88.950 E0.01200
G1 X137.265 Y88.288 E0.02077
G1 X137.414 Y87.613 E0.02167
G1 X137.661 Y87.010 E0.02043
G1 X137.850 Y86.678 E0.01199
G1 X138.248 Y86.149 E0.02073
G1 X138.731 Y85.696 E0.02078
G1 X139.050 Y85.468 E0.01228
G1 X139.623 Y85.159 E0.02042
G1 X140.271 Y84.943 E0.02141
G1 X140.954 Y84.840 E0.02167
G1 X141.606 Y84.855 E0.02043
G1 X141.984 Y84.912 E0.01199
G1 X142.600 Y85.089 E0.02012
G1 X142.959 Y85.246 E0.01228
G1 X143.519 Y85.580 E0.02042
G1 X144.036 Y86.025 E0.02138
G1 X144.469 Y86.551 E0.02139
G1 X144.796 Y87.127 E0.02074
