; generated by Slic3r Prusa Edition 1.40.1+ on 2018-09-08 at 09:44:00

; 

; external perimeters extrusion width = 0.40mm
; perimeters extrusion width = 0.45mm
; infill extrusion width = 0.48mm
; solid infill extrusion width = 0.45mm
; top infill extrusion width = 0.45mm
; first layer extrusion width = 0.45mm

M107
M115 U3.1.1-RC5 ; tell printer latest fw version
M350 E32 ;
M92 E280 ;
M221 S100 ; Set flow to 100
M201 X1000 Y1000 Z100 E10000 ; sets maximum accelerations, mm/sec^2
M203 X200 Y200 Z12 E120 ; sets maximum feedrates, mm/sec
M204 S1250 T1250 ; sets acceleration (S) and retract acceleration (T)
M205 X10 Y10 Z0.4 E2.5 ; sets the jerk limits, mm/sec
M205 S0 T0 ; sets the minimum extruding and travel feed rate, mm/sec
M83  ; extruder relative mode
M104 S210 ; set extruder temp
M140 S65 ; set bed temp
M190 S65 ; wait for bed temp
M109 S210 ; wait for extruder temp
G28 W ; home all without mesh bed level
G1 E-2 ; Retract before mesh
G80 ; mesh bed leveling
G1 Y-3.0 F1000.0 ; go outside print area
G92 E0.0
G1 E8 ; Purge Bubble
G1 X60.0 E9.0  F1000.0 ; intro line
G1 X100.0 E12.5  F1000.0 ; intro line
G92 E0.0
M201 Z400 ; Increase Z axis acceleration standard 200
M203 Z60 ; Increase Z max feedrate standard 12
M203 E60 ; Decrease extruder Max feedrate standard 120
M205 E10 ; Increase extruder jerk standard 2.5
M205 X6 Y6 ; decrease XY jerk standard 10

M117 IM PRINTING THINGS!
M900 K30; Filament gcode
G21 ; set units to millimeters
G90 ; use absolute coordinates
M83 ; use relative distances for extrusion
;BEFORE_LAYER_CHANGE
;0.2


G1 E-0.80000 F1800.00000
G1 Z0.600 F6000.000
;AFTER_LAYER_CHANGE
;0.2
G1 X200.529 Y19.140
G1 Z0.200
G1 E0.80000 F1800.00000
M204 S1000
G1 F1200
G1 X200.703 Y19.979 E0.02783
G1 X200.704 Y190.007 E5.52506
G1 X200.567 Y190.765 E0.02502
G1 X200.175 Y191.432 E0.02513
G1 X199.831 Y191.756 E0.01534
G1 X199.423 Y192.001 E0.01546
G1 X198.976 Y192.152 E0.01534
G1 X198.503 Y192.204 E0.01546
G1 X51.493 Y192.204 E4.77708
G1 X50.735 Y192.067 E0.02502
G1 X50.068 Y191.675 E0.02513
G1 X49.744 Y191.331 E0.01534
G1 X49.502 Y190.930 E0.01522
G1 X49.350 Y190.483 E0.01534
G1 X49.297 Y190.018 E0.01522
G1 X49.307 Y98.788 E2.96451
G1 X66.347 Y19.529 E2.63434
G1 X66.525 Y19.022 E0.01747
G1 X66.824 Y18.570 E0.01759
G1 X67.167 Y18.246 E0.01534
G1 X67.571 Y18.002 E0.01534
G1 X68.018 Y17.850 E0.01534
G1 X68.487 Y17.796 E0.01534
G1 X198.504 Y17.796 E4.22486
G1 X199.340 Y17.963 E0.02771
G1 X200.051 Y18.434 E0.02771
G1 X200.495 Y19.091 E0.02576
G1 E-0.08000 F1800.00000
G1 F4800
G1 X200.703 Y19.979 E-0.32494
G1 X200.703 Y20.987 E-0.35906
G1 E-0.03600 F1800.00000
G1 Z0.800 F6000.000
G1 X146.177 Y162.105
G1 Z0.200
G1 E0.80000 F1800.00000
G1 F1200
G1 X146.177 Y184.183 E0.71743
G1 X124.099 Y184.183 E0.71743
G1 X124.099 Y162.105 E0.71743
G1 X146.117 Y162.105 E0.71548
G1 X145.770 Y162.512 F6000.000
G1 F1200
G1 X145.770 Y183.776 E0.69098
G1 X124.506 Y183.776 E0.69098
G1 X124.506 Y162.512 E0.69098
G1 X145.710 Y162.512 E0.68903
G1 X145.363 Y162.919 F6000.000
G1 F1200
G1 X145.363 Y183.369 E0.66452
G1 X124.913 Y183.369 E0.66452
G1 X124.913 Y162.919 E0.66452
G1 X145.303 Y162.919 E0.66257
G1 X145.749 Y162.816 F6000.000
G1 E-0.08000 F1800.00000
G1 F4800
G1 X145.308 Y164.839 E-0.68400
G1 E-0.03600 F1800.00000
G1 Z0.800 F6000.000
G1 X124.555 Y110.034
G1 Z0.200
G1 E0.80000 F1800.00000
G1 F1200
G1 X124.555 Y160.112 E1.62729
G1 X146.461 Y160.112 E0.71182
G1 X146.461 Y188.961 E0.93743
G1 X103.539 Y188.961 E1.39473
G1 X103.539 Y188.039 E0.02995
G1 X120.539 Y188.039 E0.55241
G1 X120.539 Y109.039 E2.56709
G1 X146.461 Y109.039 E0.84232
G1 X146.461 Y110.034 E0.03233
G1 X124.615 Y110.034 E0.70987
G1 X124.962 Y110.441 F6000.000
G1 F1200
G1 X124.962 Y159.705 E1.60083
G1 X146.868 Y159.705 E0.71182
G1 X146.868 Y189.368 E0.96388
G1 X103.132 Y189.368 E1.42119
G1 X103.132 Y187.632 E0.05641
G1 X120.132 Y187.632 E0.55241
G1 X120.132 Y108.632 E2.56709
G1 X146.868 Y108.632 E0.86878
G1 X146.868 Y110.441 E0.05878
G1 X125.022 Y110.441 E0.70987
G1 X125.369 Y110.848 F6000.000
G1 F1200
G1 X125.369 Y159.298 E1.57438
G1 X147.275 Y159.298 E0.71182
G1 X147.275 Y189.775 E0.99034
G1 X102.725 Y189.775 E1.44765
G1 X102.725 Y187.225 E0.08286
G1 X119.725 Y187.225 E0.55241
G1 X119.725 Y108.225 E2.56709
G1 X147.275 Y108.225 E0.89523
G1 X147.275 Y110.848 E0.08524
G1 X125.429 Y110.848 E0.70987
G1 X124.970 Y110.864 F6000.000
G1 E-0.08000 F1800.00000
G1 F4800
G1 X125.427 Y112.768 E-0.68400
G1 E-0.03600 F1800.00000
G1 Z0.800 F6000.000
G1 X124.413 Y110.210
G1 Z0.200
G1 E0.80000 F1800.00000
G1 F1200
G1 X123.568 Y109.365 E0.03889
G1 X122.991 Y109.365 E0.01877
G1 X124.230 Y110.603 E0.05700
G1 X124.230 Y111.180 E0.01877
G1 X122.415 Y109.365 E0.08355
G1 X121.838 Y109.365 E0.01877
G1 X124.230 Y111.756 E0.11009
G1 X124.230 Y112.333 E0.01877
G1 X121.261 Y109.365 E0.13664
G1 X120.865 Y109.365 E0.01290
G1 X120.865 Y109.545 E0.00587
G1 X124.230 Y112.910 E0.15489
G1 X124.230 Y113.486 E0.01877
G1 X120.865 Y110.122 E0.15489
G1 X120.865 Y110.698 E0.01877
G1 X124.230 Y114.063 E0.15489
G1 X124.230 Y114.640 E0.01877
G1 X120.865 Y111.275 E0.15489
G1 X120.865 Y111.852 E0.01877
G1 X124.230 Y115.216 E0.15489
G1 X124.230 Y115.793 E0.01877
G1 X120.865 Y112.428 E0.15489
G1 X120.865 Y113.005 E0.01877
G1 X124.230 Y116.370 E0.15489
G1 X124.230 Y116.947 E0.01877
G1 X120.865 Y113.582 E0.15489
G1 X120.865 Y114.158 E0.01877
G1 X124.230 Y117.523 E0.15489
G1 X124.230 Y118.100 E0.01877
G1 X120.865 Y114.735 E0.15489
G1 X120.865 Y115.312 E0.01877
G1 X124.230 Y118.677 E0.15489
G1 X124.230 Y119.253 E0.01877
G1 X120.865 Y115.889 E0.15489
G1 X120.865 Y116.465 E0.01877
G1 X124.230 Y119.830 E0.15489
G1 X124.230 Y120.407 E0.01877
G1 X120.865 Y117.042 E0.15489
G1 X120.865 Y117.619 E0.01877
G1 X124.230 Y120.983 E0.15489
G1 X124.230 Y121.560 E0.01877
G1 X120.865 Y118.195 E0.15489
G1 X120.865 Y118.772 E0.01877
G1 X124.230 Y122.137 E0.15489
G1 X124.230 Y122.713 E0.01877
G1 X120.865 Y119.349 E0.15489
G1 X120.865 Y119.925 E0.01877
G1 X124.230 Y123.290 E0.15489
G1 X124.230 Y123.867 E0.01877
G1 X120.865 Y120.502 E0.15489
G1 X120.865 Y121.079 E0.01877
G1 X124.230 Y124.443 E0.15489
G1 X124.230 Y125.020 E0.01877
G1 X120.865 Y121.655 E0.15489
G1 X120.865 Y122.232 E0.01877
G1 X124.230 Y125.597 E0.15489
G1 X124.230 Y126.173 E0.01877
G1 X120.865 Y122.809 E0.15489
G1 X120.865 Y123.385 E0.01877
G1 X124.230 Y126.750 E0.15489
G1 X124.230 Y127.327 E0.01877
G1 X120.865 Y123.962 E0.15489
G1 X120.865 Y124.539 E0.01877
G1 X124.230 Y127.903 E0.15489
G1 X124.230 Y128.480 E0.01877
G1 X120.865 Y125.115 E0.15489
G1 X120.865 Y125.692 E0.01877
G1 X124.230 Y129.057 E0.15489
G1 X124.230 Y129.633 E0.01877
G1 X120.865 Y126.269 E0.15489
G1 X120.865 Y126.845 E0.01877
G1 X124.230 Y130.210 E0.15489
G1 X124.230 Y130.787 E0.01877
G1 X120.865 Y127.422 E0.15489
G1 X120.865 Y127.999 E0.01877
G1 X124.230 Y131.364 E0.15489
G1 X124.230 Y131.940 E0.01877
G1 X120.865 Y128.576 E0.15489
G1 X120.865 Y129.152 E0.01877
G1 X124.230 Y132.517 E0.15489
G1 X124.230 Y133.094 E0.01877
G1 X120.865 Y129.729 E0.15489
G1 X120.865 Y130.306 E0.01877
G1 X124.230 Y133.670 E0.15489
G1 X124.230 Y134.247 E0.01877
G1 X120.865 Y130.882 E0.15489
G1 X120.865 Y131.459 E0.01877
G1 X124.230 Y134.824 E0.15489
G1 X124.230 Y135.400 E0.01877
G1 X120.865 Y132.036 E0.15489
G1 X120.865 Y132.612 E0.01877
G1 X124.230 Y135.977 E0.15489
G1 X124.230 Y136.554 E0.01877
G1 X120.865 Y133.189 E0.15489
G1 X120.865 Y133.766 E0.01877
G1 X124.230 Y137.130 E0.15489
G1 X124.230 Y137.707 E0.01877
G1 X120.865 Y134.342 E0.15489
G1 X120.865 Y134.919 E0.01877
G1 X124.230 Y138.284 E0.15489
G1 X124.230 Y138.860 E0.01877
G1 X120.865 Y135.496 E0.15489
G1 X120.865 Y136.072 E0.01877
G1 X124.230 Y139.437 E0.15489
G1 X124.230 Y140.014 E0.01877
G1 X120.865 Y136.649 E0.15489
G1 X120.865 Y137.226 E0.01877
G1 X124.230 Y140.590 E0.15489
G1 X124.230 Y141.167 E0.01877
G1 X120.865 Y137.802 E0.15489
G1 X120.865 Y138.379 E0.01877
G1 X124.230 Y141.744 E0.15489
G1 X124.230 Y142.320 E0.01877
G1 X120.865 Y138.956 E0.15489
G1 X120.865 Y139.532 E0.01877
G1 X124.230 Y142.897 E0.15489
G1 X124.230 Y143.474 E0.01877
G1 X120.865 Y140.109 E0.15489
G1 X120.865 Y140.686 E0.01877
G1 X124.230 Y144.051 E0.15489
G1 X124.230 Y144.627 E0.01877
G1 X120.865 Y141.262 E0.15489
G1 X120.865 Y141.839 E0.01877
G1 X124.230 Y145.204 E0.15489
G1 X124.230 Y145.781 E0.01877
G1 X120.865 Y142.416 E0.15489
G1 X120.865 Y142.993 E0.01877
G1 X124.230 Y146.357 E0.15489
G1 X124.230 Y146.934 E0.01877
G1 X120.865 Y143.569 E0.15489
G1 X120.865 Y144.146 E0.01877
G1 X124.230 Y147.511 E0.15489
G1 X124.230 Y148.087 E0.01877
G1 X120.865 Y144.723 E0.15489
G1 X120.865 Y145.299 E0.01877
G1 X124.230 Y148.664 E0.15489
G1 X124.230 Y149.241 E0.01877
G1 X120.865 Y145.876 E0.15489
G1 X120.865 Y146.453 E0.01877
G1 X124.230 Y149.817 E0.15489
G1 X124.230 Y150.394 E0.01877
G1 X120.865 Y147.029 E0.15489
G1 X120.865 Y147.606 E0.01877
G1 X124.230 Y150.971 E0.15489
G1 X124.230 Y151.547 E0.01877
G1 X120.865 Y148.183 E0.15489
G1 X120.865 Y148.759 E0.01877
G1 X124.230 Y152.124 E0.15489
G1 X124.230 Y152.701 E0.01877
G1 X120.865 Y149.336 E0.15489
G1 X120.865 Y149.913 E0.01877
G1 X124.230 Y153.277 E0.15489
G1 X124.230 Y153.854 E0.01877
G1 X120.865 Y150.489 E0.15489
G1 X120.865 Y151.066 E0.01877
G1 X124.230 Y154.431 E0.15489
G1 X124.230 Y155.007 E0.01877
G1 X120.865 Y151.643 E0.15489
G1 X120.865 Y152.219 E0.01877
G1 X124.230 Y155.584 E0.15489
G1 X124.230 Y156.161 E0.01877
G1 X120.865 Y152.796 E0.15489
G1 X120.865 Y153.373 E0.01877
G1 X124.230 Y156.738 E0.15489
G1 X124.230 Y157.314 E0.01877
G1 X120.865 Y153.949 E0.15489
G1 X120.865 Y154.526 E0.01877
G1 X124.230 Y157.891 E0.15489
G1 X124.230 Y158.468 E0.01877
G1 X120.865 Y155.103 E0.15489
G1 X120.865 Y155.680 E0.01877
G1 X124.230 Y159.044 E0.15489
G1 X124.230 Y159.621 E0.01877
G1 X120.865 Y156.256 E0.15489
G1 X120.865 Y156.833 E0.01877
G1 X125.811 Y161.779 E0.22770
G1 X126.388 Y161.779 E0.01877
G1 X125.047 Y160.438 E0.06175
G1 X125.623 Y160.438 E0.01877
G1 X126.965 Y161.779 E0.06175
G1 X127.541 Y161.779 E0.01877
G1 X126.200 Y160.438 E0.06175
G1 X126.777 Y160.438 E0.01877
G1 X128.118 Y161.779 E0.06175
G1 X128.695 Y161.779 E0.01877
G1 X127.353 Y160.438 E0.06175
G1 X127.930 Y160.438 E0.01877
G1 X129.271 Y161.779 E0.06175
G1 X129.848 Y161.779 E0.01877
G1 X128.507 Y160.438 E0.06175
G1 X129.083 Y160.438 E0.01877
G1 X130.425 Y161.779 E0.06175
G1 X131.001 Y161.779 E0.01877
G1 X129.660 Y160.438 E0.06175
G1 X130.237 Y160.438 E0.01877
G1 X131.578 Y161.779 E0.06175
G1 X132.155 Y161.779 E0.01877
G1 X130.813 Y160.438 E0.06175
G1 X131.390 Y160.438 E0.01877
G1 X132.731 Y161.779 E0.06175
G1 X133.308 Y161.779 E0.01877
G1 X131.967 Y160.438 E0.06175
G1 X132.543 Y160.438 E0.01877
G1 X133.885 Y161.779 E0.06175
G1 X134.461 Y161.779 E0.01877
G1 X133.120 Y160.438 E0.06175
G1 X133.697 Y160.438 E0.01877
G1 X135.038 Y161.779 E0.06175
G1 X135.615 Y161.779 E0.01877
G1 X134.273 Y160.438 E0.06175
G1 X134.850 Y160.438 E0.01877
G1 X136.192 Y161.779 E0.06175
G1 X136.768 Y161.779 E0.01877
G1 X135.427 Y160.438 E0.06175
G1 X136.004 Y160.438 E0.01877
G1 X137.345 Y161.779 E0.06175
G1 X137.922 Y161.779 E0.01877
G1 X136.580 Y160.438 E0.06175
G1 X137.157 Y160.438 E0.01877
G1 X138.498 Y161.779 E0.06175
G1 X139.075 Y161.779 E0.01877
G1 X137.734 Y160.438 E0.06175
G1 X138.310 Y160.438 E0.01877
G1 X139.652 Y161.779 E0.06175
G1 X140.228 Y161.779 E0.01877
G1 X138.887 Y160.438 E0.06175
G1 X139.464 Y160.438 E0.01877
G1 X140.805 Y161.779 E0.06175
G1 X141.382 Y161.779 E0.01877
G1 X140.040 Y160.438 E0.06175
G1 X140.617 Y160.438 E0.01877
G1 X141.958 Y161.779 E0.06175
G1 X142.535 Y161.779 E0.01877
G1 X141.194 Y160.438 E0.06175
G1 X141.770 Y160.438 E0.01877
G1 X143.112 Y161.779 E0.06175
G1 X143.688 Y161.779 E0.01877
G1 X142.347 Y160.438 E0.06175
G1 X142.924 Y160.438 E0.01877
G1 X144.265 Y161.779 E0.06175
G1 X144.842 Y161.779 E0.01877
G1 X143.500 Y160.438 E0.06175
G1 X144.077 Y160.438 E0.01877
G1 X145.418 Y161.779 E0.06175
G1 X145.995 Y161.779 E0.01877
G1 X144.654 Y160.438 E0.06175
G1 X145.230 Y160.438 E0.01877
G1 X146.135 Y161.343 E0.04165
G1 X146.135 Y160.766 E0.01877
G1 X145.624 Y160.255 E0.02354
G1 E-0.08000 F1800.00000
G1 F4800
G1 X146.135 Y160.766 E-0.25760
G1 X146.135 Y161.343 E-0.20544
G1 X145.697 Y160.904 E-0.22095
G1 E-0.03600 F1800.00000
G1 Z0.800 F6000.000
G1 X125.418 Y161.963
G1 Z0.200
G1 E0.80000 F1800.00000
G1 F1200
G1 X120.865 Y157.410 E0.20959
G1 X120.865 Y157.986 E0.01877
G1 X124.658 Y161.779 E0.17461
G1 X124.081 Y161.779 E0.01877
G1 X120.865 Y158.563 E0.14806
G1 X120.865 Y159.140 E0.01877
G1 X123.773 Y162.048 E0.13387
G1 X123.773 Y162.624 E0.01877
G1 X120.865 Y159.716 E0.13387
G1 X120.865 Y160.293 E0.01877
G1 X123.773 Y163.201 E0.13387
G1 X123.773 Y163.778 E0.01877
G1 X120.865 Y160.870 E0.13387
G1 X120.865 Y161.446 E0.01877
G1 X123.773 Y164.354 E0.13387
G1 X123.773 Y164.931 E0.01877
G1 X120.865 Y162.023 E0.13387
G1 X120.865 Y162.600 E0.01877
G1 X123.773 Y165.508 E0.13387
G1 X123.773 Y166.085 E0.01877
G1 X120.865 Y163.176 E0.13387
G1 X120.865 Y163.753 E0.01877
G1 X123.773 Y166.661 E0.13387
G1 X123.773 Y167.238 E0.01877
G1 X120.865 Y164.330 E0.13387
G1 X120.865 Y164.906 E0.01877
G1 X123.773 Y167.815 E0.13387
G1 X123.773 Y168.391 E0.01877
G1 X120.865 Y165.483 E0.13387
G1 X120.865 Y166.060 E0.01877
G1 X123.773 Y168.968 E0.13387
G1 X123.773 Y169.545 E0.01877
G1 X120.865 Y166.636 E0.13387
G1 X120.865 Y167.213 E0.01877
G1 X123.773 Y170.121 E0.13387
G1 X123.773 Y170.698 E0.01877
G1 X120.865 Y167.790 E0.13387
G1 X120.865 Y168.367 E0.01877
G1 X123.773 Y171.275 E0.13387
G1 X123.773 Y171.851 E0.01877
G1 X120.865 Y168.943 E0.13387
G1 X120.865 Y169.520 E0.01877
G1 X123.773 Y172.428 E0.13387
G1 X123.773 Y173.005 E0.01877
G1 X120.865 Y170.097 E0.13387
G1 X120.865 Y170.673 E0.01877
G1 X123.773 Y173.581 E0.13387
G1 X123.773 Y174.158 E0.01877
G1 X120.865 Y171.250 E0.13387
G1 X120.865 Y171.827 E0.01877
G1 X123.773 Y174.735 E0.13387
G1 X123.773 Y175.311 E0.01877
G1 X120.865 Y172.403 E0.13387
G1 X120.865 Y172.980 E0.01877
G1 X123.773 Y175.888 E0.13387
G1 X123.773 Y176.465 E0.01877
G1 X120.865 Y173.557 E0.13387
G1 X120.865 Y174.133 E0.01877
G1 X123.773 Y177.041 E0.13387
G1 X123.773 Y177.618 E0.01877
G1 X120.865 Y174.710 E0.13387
G1 X120.865 Y175.287 E0.01877
G1 X123.773 Y178.195 E0.13387
G1 X123.773 Y178.772 E0.01877
G1 X120.865 Y175.863 E0.13387
G1 X120.865 Y176.440 E0.01877
G1 X123.773 Y179.348 E0.13387
G1 X123.773 Y179.925 E0.01877
G1 X120.865 Y177.017 E0.13387
G1 X120.865 Y177.593 E0.01877
G1 X123.773 Y180.502 E0.13387
G1 X123.773 Y181.078 E0.01877
G1 X120.865 Y178.170 E0.13387
G1 X120.865 Y178.747 E0.01877
G1 X123.773 Y181.655 E0.13387
G1 X123.773 Y182.232 E0.01877
G1 X120.865 Y179.323 E0.13387
G1 X120.865 Y179.900 E0.01877
G1 X123.773 Y182.808 E0.13387
G1 X123.773 Y183.385 E0.01877
G1 X120.865 Y180.477 E0.13387
G1 X120.865 Y181.053 E0.01877
G1 X123.773 Y183.962 E0.13387
G1 X123.773 Y184.509 E0.01781
G1 X124.320 Y184.509 E0.01781
G1 X128.447 Y188.635 E0.18995
G1 X129.023 Y188.635 E0.01877
G1 X124.897 Y184.509 E0.18995
G1 X125.474 Y184.509 E0.01877
G1 X129.600 Y188.635 E0.18995
G1 X130.177 Y188.635 E0.01877
G1 X126.050 Y184.509 E0.18995
G1 X126.627 Y184.509 E0.01877
G1 X130.753 Y188.635 E0.18995
G1 X131.330 Y188.635 E0.01877
G1 X127.204 Y184.509 E0.18995
G1 X127.780 Y184.509 E0.01877
G1 X131.907 Y188.635 E0.18995
G1 X132.483 Y188.635 E0.01877
G1 X128.357 Y184.509 E0.18995
G1 X128.934 Y184.509 E0.01877
G1 X133.060 Y188.635 E0.18995
G1 X133.637 Y188.635 E0.01877
G1 X129.510 Y184.509 E0.18995
G1 X130.087 Y184.509 E0.01877
G1 X134.213 Y188.635 E0.18995
G1 X134.790 Y188.635 E0.01877
G1 X130.664 Y184.509 E0.18995
G1 X131.240 Y184.509 E0.01877
G1 X135.367 Y188.635 E0.18995
G1 X135.943 Y188.635 E0.01877
G1 X131.817 Y184.509 E0.18995
G1 X132.394 Y184.509 E0.01877
G1 X136.520 Y188.635 E0.18995
G1 X137.097 Y188.635 E0.01877
G1 X132.970 Y184.509 E0.18995
G1 X133.547 Y184.509 E0.01877
G1 X137.673 Y188.635 E0.18995
G1 X138.250 Y188.635 E0.01877
G1 X134.124 Y184.509 E0.18995
G1 X134.701 Y184.509 E0.01877
G1 X138.827 Y188.635 E0.18995
G1 X139.403 Y188.635 E0.01877
G1 X135.277 Y184.509 E0.18995
