; generated by Slic3r Prusa Edition 1.40.1+ on 2018-08-19 at 09:56:02

; 

; external perimeters extrusion width = 0.40mm
; perimeters extrusion width = 0.45mm
; infill extrusion width = 0.48mm
; solid infill extrusion width = 0.45mm
; top infill extrusion width = 0.45mm
; support material extrusion width = 0.35mm
; first layer extrusion width = 0.45mm

M107
M115 U3.1.1-RC5 ; tell printer latest fw version
M350 E32 ;
M92 E280 ;
M221 S100 ; Set flow to 100
M201 X1000 Y1000 Z100 E10000 ; sets maximum accelerations, mm/sec^2
M203 X200 Y200 Z12 E120 ; sets maximum feedrates, mm/sec
M204 S1250 T1250 ; sets acceleration (S) and retract acceleration (T)
M205 X10 Y10 Z0.4 E2.5 ; sets the jerk limits, mm/sec
M205 S0 T0 ; sets the minimum extruding and travel feed rate, mm/sec
M83  ; extruder relative mode
M104 S210 ; set extruder temp
M140 S65 ; set bed temp
M190 S65 ; wait for bed temp
M109 S210 ; wait for extruder temp
G28 W ; home all without mesh bed level
G1 E-2 ; Retract before mesh
G80 ; mesh bed leveling
G1 Y-3.0 F1000.0 ; go outside print area
G92 E0.0
G1 E8 ; Purge Bubble
G1 X60.0 E9.0  F1000.0 ; intro line
G1 X100.0 E12.5  F1000.0 ; intro line
G92 E0.0
M201 Z400 ; Increase Z axis acceleration standard 200
M203 Z60 ; Increase Z max feedrate standard 12
M203 E60 ; Decrease extruder Max feedrate standard 120
M205 E10 ; Increase extruder jerk standard 2.5
M205 X6 Y6 ; decrease XY jerk standard 10

M117 IM PRINTING THINGS!
M900 K30; Filament gcode
G21 ; set units to millimeters
G90 ; use absolute coordinates
M83 ; use relative distances for extrusion
;BEFORE_LAYER_CHANGE
;0.2


G1 E-0.80000 F1800.00000
G1 Z0.600 F6000.000
;AFTER_LAYER_CHANGE
;0.2
G1 X115.764 Y71.422
G1 Z0.200
G1 E0.80000 F1800.00000
M204 S1000
G1 F1200
G1 X116.380 Y70.336 E0.04054
G1 X119.795 Y65.247 E0.19918
G1 X120.745 Y64.141 E0.04737
G1 X121.852 Y63.180 E0.04762
G1 X122.964 Y62.460 E0.04307
G1 X124.163 Y61.893 E0.04307
G1 X125.425 Y61.491 E0.04307
G1 X126.730 Y61.259 E0.04307
G1 X127.774 Y61.200 E0.03396
G1 X139.867 Y61.200 E0.39299
G1 X140.919 Y61.256 E0.03421
G1 X141.951 Y61.421 E0.03396
G1 X142.960 Y61.694 E0.03396
G1 X143.941 Y62.073 E0.03421
G1 X144.871 Y62.550 E0.03396
G1 X145.752 Y63.127 E0.03421
G1 X146.562 Y63.787 E0.03396
G1 X147.303 Y64.535 E0.03421
G1 X148.263 Y65.802 E0.05167
G1 X149.010 Y67.206 E0.05167
G1 X151.057 Y72.452 E0.18297
G1 X151.513 Y74.257 E0.06051
G1 X151.631 Y75.787 E0.04988
G1 X151.631 Y134.949 E1.92244
G1 X151.515 Y136.449 E0.04888
G1 X151.207 Y137.810 E0.04534
G1 X150.712 Y139.114 E0.04534
G1 X147.579 Y144.980 E0.21608
G1 X146.795 Y146.029 E0.04256
G1 X145.880 Y146.967 E0.04256
G1 X144.851 Y147.776 E0.04256
G1 X143.724 Y148.444 E0.04256
G1 X142.761 Y148.869 E0.03421
G1 X141.751 Y149.193 E0.03446
G1 X140.712 Y149.408 E0.03446
G1 X139.657 Y149.511 E0.03446
G1 X127.602 Y149.335 E0.39176
G1 X126.297 Y149.221 E0.04256
G1 X125.297 Y149.014 E0.03320
G1 X124.323 Y148.706 E0.03320
G1 X123.385 Y148.299 E0.03320
G1 X122.495 Y147.799 E0.03320
G1 X121.660 Y147.210 E0.03320
G1 X120.889 Y146.539 E0.03320
G1 X120.192 Y145.793 E0.03320
G1 X119.574 Y144.979 E0.03320
G1 X116.317 Y140.104 E0.19051
G1 X115.561 Y138.670 E0.05268
G1 X115.118 Y137.405 E0.04357
G1 X113.142 Y129.917 E0.25166
G1 X112.958 Y128.025 E0.06177
G1 X112.958 Y82.685 E1.47330
G1 X113.074 Y81.193 E0.04863
G1 X115.115 Y73.142 E0.26990
G1 X115.743 Y71.478 E0.05780
G1 E-0.08000 F1800.00000
G1 F4800
G1 X116.380 Y70.336 E-0.46556
G1 X116.721 Y69.827 E-0.21844
G1 E-0.03600 F1800.00000
G1 Z0.800 F6000.000
G1 X114.970 Y77.046
G1 Z0.200
G1 E0.80000 F1800.00000
G1 F1200
G1 X115.027 Y74.509 E0.08248
G1 X116.142 Y71.063 E0.11769
G1 X117.336 Y69.383 E0.06697
G1 X118.548 Y68.211 E0.05478
G1 X118.893 Y67.154 E0.03614
G1 X120.252 Y64.951 E0.08410
G1 X121.334 Y63.848 E0.05022
G1 X122.558 Y62.883 E0.05064
G1 X126.842 Y61.414 E0.14716
G1 X140.919 Y61.425 E0.45743
G1 X145.196 Y62.933 E0.14739
G1 X146.596 Y64.087 E0.05894
G1 X147.808 Y65.454 E0.05937
G1 X148.854 Y67.308 E0.06917
G1 X149.406 Y68.956 E0.05648
G1 X149.506 Y70.022 E0.03480
G1 X149.971 Y70.606 E0.02424
G1 X150.813 Y72.308 E0.06173
G1 X151.378 Y74.664 E0.07873
G1 X151.428 Y105.746 E1.01000
G1 X151.281 Y106.528 E0.02585
G1 X151.416 Y107.236 E0.02342
G1 X151.285 Y136.798 E0.96062
G1 X150.700 Y138.685 E0.06422
G1 X149.802 Y140.334 E0.06101
G1 X148.795 Y141.427 E0.04828
G1 X148.444 Y142.829 E0.04695
G1 X147.455 Y144.798 E0.07163
G1 X145.776 Y146.725 E0.08302
G1 X143.711 Y148.142 E0.08139
G1 X140.334 Y149.109 E0.11416
G1 X137.273 Y149.135 E0.09947
G1 X126.309 Y149.037 E0.35629
G1 X124.508 Y148.581 E0.06035
G1 X122.801 Y147.779 E0.06130
G1 X120.862 Y146.238 E0.08047
G1 X119.243 Y144.099 E0.08718
G1 X118.462 Y142.192 E0.06695
G1 X116.656 Y140.298 E0.08505
G1 X115.656 Y138.421 E0.06911
G1 X115.077 Y136.347 E0.06999
G1 X114.993 Y133.640 E0.08799
G1 X114.689 Y133.267 E0.01565
G1 X113.913 Y131.822 E0.05331
G1 X113.288 Y129.780 E0.06939
G1 X113.171 Y107.549 E0.72238
G1 X113.608 Y105.439 E0.07003
G1 X113.160 Y103.402 E0.06776
G1 X113.342 Y80.674 E0.73857
G1 X114.001 Y78.701 E0.06761
G1 X114.748 Y77.329 E0.05076
G1 X114.933 Y77.094 E0.00972
G1 X115.374 Y77.194 F6000.000
G1 F1200
G1 X115.424 Y74.604 E0.08417
G1 X116.492 Y71.273 E0.11368
G1 X117.656 Y69.634 E0.06532
G1 X118.904 Y68.433 E0.05629
G1 X119.253 Y67.345 E0.03712
G1 X120.559 Y65.220 E0.08106
G1 X121.615 Y64.142 E0.04904
G1 X122.782 Y63.224 E0.04825
G1 X126.875 Y61.821 E0.14059
G1 X140.884 Y61.833 E0.45522
G1 X144.965 Y63.270 E0.14060
G1 X146.324 Y64.391 E0.05725
G1 X147.489 Y65.708 E0.05711
G1 X148.475 Y67.455 E0.06521
G1 X149.013 Y69.062 E0.05505
G1 X149.111 Y70.182 E0.03653
G1 X149.616 Y70.807 E0.02611
G1 X150.437 Y72.468 E0.06022
G1 X150.976 Y74.735 E0.07573
G1 X151.021 Y105.727 E1.00706
G1 X150.866 Y106.529 E0.02655
G1 X151.009 Y107.255 E0.02405
G1 X150.888 Y136.707 E0.95704
G1 X150.332 Y138.509 E0.06127
G1 X149.457 Y140.117 E0.05950
G1 X148.425 Y141.227 E0.04925
G1 X148.070 Y142.668 E0.04821
G1 X147.130 Y144.552 E0.06841
G1 X145.524 Y146.404 E0.07966
G1 X143.508 Y147.788 E0.07946
G1 X140.303 Y148.702 E0.10831
G1 X137.274 Y148.728 E0.09841
G1 X126.385 Y148.636 E0.35386
G1 X124.628 Y148.191 E0.05891
G1 X122.996 Y147.421 E0.05861
G1 X121.137 Y145.936 E0.07733
G1 X119.584 Y143.876 E0.08383
G1 X118.810 Y141.967 E0.06693
G1 X117.002 Y140.082 E0.08488
G1 X116.026 Y138.250 E0.06745
G1 X115.476 Y136.262 E0.06701
G1 X115.397 Y133.487 E0.09021
G1 X115.038 Y133.056 E0.01824
G1 X114.281 Y131.647 E0.05195
G1 X113.686 Y129.690 E0.06648
G1 X113.578 Y107.569 E0.71882
G1 X114.024 Y105.436 E0.07081
G1 X113.567 Y103.382 E0.06839
G1 X113.739 Y80.772 E0.73473
G1 X114.368 Y78.879 E0.06481
G1 X115.096 Y77.540 E0.04954
G1 X115.337 Y77.241 E0.01247
G1 X115.781 Y77.201 F6000.000
G1 F1200
G1 X115.821 Y74.699 E0.08132
G1 X116.842 Y71.483 E0.10964
G1 X117.978 Y69.885 E0.06370
G1 X119.050 Y68.841 E0.04863
G1 X119.248 Y68.699 E0.00792
G1 X119.613 Y67.536 E0.03961
G1 X120.866 Y65.488 E0.07801
G1 X121.878 Y64.454 E0.04700
G1 X123.007 Y63.565 E0.04670
G1 X126.908 Y62.228 E0.13401
G1 X140.849 Y62.240 E0.45300
G1 X144.734 Y63.607 E0.13384
G1 X146.030 Y64.673 E0.05452
G1 X147.169 Y65.961 E0.05588
G1 X148.095 Y67.603 E0.06124
G1 X148.619 Y69.167 E0.05361
G1 X148.715 Y70.342 E0.03830
G1 X149.262 Y71.009 E0.02801
G1 X150.062 Y72.627 E0.05868
G1 X150.575 Y74.806 E0.07271
G1 X150.613 Y105.707 E1.00412
G1 X150.450 Y106.530 E0.02728
G1 X150.602 Y107.275 E0.02470
G1 X150.490 Y136.617 E0.95346
G1 X149.965 Y138.332 E0.05830
G1 X149.112 Y139.899 E0.05797
G1 X148.054 Y141.027 E0.05024
G1 X147.695 Y142.507 E0.04949
G1 X146.777 Y144.346 E0.06680
G1 X145.235 Y146.117 E0.07630
G1 X143.306 Y147.433 E0.07588
G1 X140.272 Y148.295 E0.10250
G1 X137.276 Y148.321 E0.09737
G1 X126.460 Y148.236 E0.35146
G1 X124.783 Y147.814 E0.05619
G1 X123.192 Y147.064 E0.05718
G1 X121.412 Y145.635 E0.07416
G1 X119.926 Y143.653 E0.08048
G1 X119.159 Y141.741 E0.06695
G1 X117.347 Y139.864 E0.08476
G1 X116.412 Y138.119 E0.06434
G1 X115.875 Y136.178 E0.06545
G1 X115.800 Y133.333 E0.09248
G1 X115.386 Y132.844 E0.02083
G1 X114.650 Y131.473 E0.05056
G1 X114.085 Y129.601 E0.06354
G1 X113.985 Y107.589 E0.71526
G1 X114.441 Y105.434 E0.07160
G1 X113.975 Y103.362 E0.06902
G1 X114.145 Y80.808 E0.73290
G1 X114.734 Y79.059 E0.05997
G1 X115.444 Y77.752 E0.04832
G1 X115.779 Y77.343 E0.01718
G1 X115.780 Y77.261 E0.00268
G1 X116.185 Y77.493 F6000.000
G1 F1200
G1 X116.219 Y74.792 E0.08780
G1 X117.193 Y71.692 E0.10560
G1 X118.275 Y70.163 E0.06085
G1 X119.321 Y69.145 E0.04744
G1 X119.596 Y68.953 E0.01088
G1 X119.975 Y67.725 E0.04175
G1 X121.174 Y65.755 E0.07493
G1 X122.140 Y64.766 E0.04494
G1 X123.232 Y63.907 E0.04515
G1 X126.942 Y62.635 E0.12744
G1 X140.814 Y62.647 E0.45078
G1 X144.503 Y63.945 E0.12707
G1 X145.759 Y64.977 E0.05282
G1 X146.850 Y66.214 E0.05360
G1 X147.715 Y67.751 E0.05729
G1 X148.224 Y69.272 E0.05215
G1 X148.319 Y70.503 E0.04011
G1 X148.908 Y71.211 E0.02993
G1 X149.687 Y72.787 E0.05711
G1 X150.173 Y74.875 E0.06968
G1 X150.206 Y105.686 E1.00120
G1 X150.034 Y106.531 E0.02804
G1 X150.195 Y107.296 E0.02538
G1 X150.091 Y136.527 E0.94988
G1 X149.597 Y138.156 E0.05531
G1 X148.767 Y139.681 E0.05641
G1 X147.684 Y140.826 E0.05123
G1 X147.320 Y142.347 E0.05083
G1 X146.452 Y144.100 E0.06354
G1 X144.983 Y145.795 E0.07289
G1 X143.104 Y147.078 E0.07394
G1 X140.242 Y147.888 E0.09667
G1 X137.277 Y147.914 E0.09633
G1 X126.536 Y147.835 E0.34904
G1 X124.902 Y147.424 E0.05474
G1 X123.388 Y146.706 E0.05444
G1 X121.688 Y145.335 E0.07100
G1 X120.269 Y143.432 E0.07714
G1 X119.573 Y141.691 E0.06091
G1 X119.535 Y141.545 E0.00491
G1 X117.692 Y139.647 E0.08597
G1 X116.782 Y137.947 E0.06265
G1 X116.274 Y136.095 E0.06242
G1 X116.203 Y133.177 E0.09483
G1 X115.734 Y132.631 E0.02341
G1 X115.018 Y131.298 E0.04914
G1 X114.483 Y129.512 E0.06059
G1 X114.392 Y107.610 E0.71172
G1 X114.858 Y105.431 E0.07240
G1 X114.382 Y103.341 E0.06966
G1 X114.542 Y80.906 E0.72902
G1 X115.100 Y79.237 E0.05719
G1 X115.792 Y77.965 E0.04706
G1 X116.146 Y77.540 E0.01800
G1 X116.592 Y77.497 F6000.000
G1 F1200
G1 X116.616 Y74.883 E0.08494
G1 X117.544 Y71.900 E0.10154
G1 X118.573 Y70.442 E0.05797
G1 X119.592 Y69.450 E0.04622
G1 X119.944 Y69.209 E0.01386
G1 X120.336 Y67.914 E0.04398
G1 X121.482 Y66.023 E0.07183
G1 X122.422 Y65.060 E0.04374
G1 X123.456 Y64.248 E0.04273
G1 X126.975 Y63.042 E0.12088
G1 X140.780 Y63.054 E0.44857
G1 X144.272 Y64.282 E0.12031
G1 X145.488 Y65.281 E0.05112
G1 X146.530 Y66.467 E0.05131
G1 X147.335 Y67.898 E0.05336
G1 X147.830 Y69.377 E0.05067
G1 X147.922 Y70.664 E0.04195
G1 X148.554 Y71.414 E0.03187
G1 X149.311 Y72.945 E0.05551
G1 X149.771 Y74.944 E0.06663
G1 X149.799 Y105.665 E0.99827
G1 X149.618 Y106.533 E0.02883
G1 X149.787 Y107.317 E0.02607
G1 X149.693 Y136.437 E0.94627
G1 X149.214 Y138.017 E0.05366
G1 X148.423 Y139.461 E0.05349
G1 X147.313 Y140.625 E0.05227
G1 X146.945 Y142.188 E0.05218
G1 X146.099 Y143.896 E0.06191
G1 X144.694 Y145.508 E0.06949
G1 X142.903 Y146.723 E0.07033
G1 X140.211 Y147.481 E0.09089
G1 X137.278 Y147.507 E0.09530
G1 X126.611 Y147.434 E0.34666
G1 X125.058 Y147.048 E0.05199
G1 X123.585 Y146.349 E0.05297
G1 X121.964 Y145.035 E0.06780
G1 X120.612 Y143.211 E0.07378
G1 X119.958 Y141.557 E0.05779
G1 X119.907 Y141.342 E0.00718
G1 X118.037 Y139.428 E0.08696
G1 X117.168 Y137.817 E0.05947
G1 X116.673 Y136.011 E0.06084
G1 X116.607 Y133.020 E0.09723
G1 X116.081 Y132.417 E0.02600
G1 X115.387 Y131.124 E0.04769
G1 X114.882 Y129.424 E0.05763
G1 X114.799 Y107.629 E0.70822
G1 X115.212 Y105.671 E0.06502
G1 X115.287 Y105.481 E0.00667
G1 X114.789 Y103.319 E0.07208
G1 X114.949 Y80.942 E0.72716
G1 X115.466 Y79.417 E0.05234
G1 X116.139 Y78.178 E0.04580
G1 X116.591 Y77.645 E0.02271
G1 X116.591 Y77.557 E0.00285
G1 X116.997 Y77.797 F6000.000
G1 F1200
G1 X117.014 Y74.974 E0.09174
G1 X117.896 Y72.107 E0.09747
G1 X118.870 Y70.720 E0.05507
G1 X119.862 Y69.755 E0.04497
G1 X120.293 Y69.466 E0.01685
G1 X120.699 Y68.101 E0.04627
G1 X121.790 Y66.290 E0.06870
G1 X122.684 Y65.372 E0.04165
G1 X123.681 Y64.589 E0.04117
G1 X127.009 Y63.449 E0.11431
G1 X140.745 Y63.461 E0.44636
G1 X144.042 Y64.619 E0.11356
G1 X145.193 Y65.562 E0.04834
G1 X146.210 Y66.720 E0.05007
G1 X146.955 Y68.046 E0.04942
G1 X147.435 Y69.481 E0.04918
G1 X147.524 Y70.826 E0.04382
G1 X148.201 Y71.618 E0.03384
G1 X148.936 Y73.104 E0.05388
G1 X149.369 Y75.012 E0.06356
G1 X149.392 Y105.643 E0.99536
G1 X149.201 Y106.535 E0.02965
G1 X149.380 Y107.339 E0.02678
G1 X149.295 Y136.349 E0.94266
G1 X148.846 Y137.841 E0.05063
G1 X148.079 Y139.242 E0.05190
G1 X146.906 Y140.459 E0.05494
G1 X146.888 Y140.694 E0.00763
G1 X146.570 Y142.028 E0.04457
G1 X145.746 Y143.691 E0.06030
G1 X144.406 Y145.219 E0.06606
G1 X142.703 Y146.367 E0.06673
G1 X140.181 Y147.075 E0.08513
G1 X137.279 Y147.099 E0.09428
G1 X126.685 Y147.033 E0.34426
G1 X125.176 Y146.658 E0.05052
G1 X123.783 Y145.992 E0.05018
G1 X122.242 Y144.736 E0.06461
G1 X120.956 Y142.992 E0.07043
G1 X120.343 Y141.425 E0.05465
G1 X120.266 Y141.078 E0.01156
G1 X120.099 Y140.963 E0.00658
G1 X118.381 Y139.210 E0.07976
G1 X117.538 Y137.645 E0.05777
G1 X117.073 Y135.930 E0.05775
G1 X117.011 Y132.861 E0.09972
G1 X116.428 Y132.203 E0.02858
G1 X115.756 Y130.950 E0.04621
G1 X115.280 Y129.337 E0.05465
G1 X115.206 Y107.650 E0.70472
G1 X115.605 Y105.778 E0.06220
G1 X115.733 Y105.477 E0.01064
G1 X115.667 Y105.316 E0.00563
G1 X115.196 Y103.298 E0.06736
G1 X115.345 Y81.041 E0.72324
G1 X115.832 Y79.596 E0.04957
G1 X116.486 Y78.392 E0.04450
G1 X116.958 Y77.843 E0.02354
G1 X117.404 Y77.798 F6000.000
G1 F1200
G1 X117.413 Y75.063 E0.08888
G1 X118.248 Y72.313 E0.09339
G1 X119.168 Y70.998 E0.05215
G1 X120.132 Y70.061 E0.04369
G1 X120.642 Y69.724 E0.01986
G1 X121.062 Y68.287 E0.04863
G1 X122.098 Y66.556 E0.06556
G1 X122.946 Y65.683 E0.03954
G1 X123.905 Y64.931 E0.03961
G1 X127.042 Y63.856 E0.10775
G1 X140.710 Y63.868 E0.44415
G1 X143.812 Y64.957 E0.10683
G1 X144.898 Y65.844 E0.04556
G1 X145.890 Y66.972 E0.04880
G1 X146.590 Y68.227 E0.04670
G1 X147.041 Y69.583 E0.04644
G1 X147.126 Y70.989 E0.04576
G1 X147.847 Y71.822 E0.03583
G1 X148.560 Y73.263 E0.05222
G1 X148.967 Y75.078 E0.06047
G1 X148.985 Y105.620 E0.99245
G1 X148.783 Y106.537 E0.03050
G1 X148.973 Y107.362 E0.02752
G1 X148.897 Y136.260 E0.93903
G1 X148.463 Y137.703 E0.04896
G1 X147.736 Y139.021 E0.04890
G1 X146.508 Y140.284 E0.05726
G1 X146.487 Y140.619 E0.01090
G1 X146.195 Y141.868 E0.04169
G1 X145.394 Y143.486 E0.05865
G1 X144.119 Y144.930 E0.06259
G1 X142.504 Y146.010 E0.06314
G1 X140.150 Y146.668 E0.07941
G1 X137.280 Y146.692 E0.09327
G1 X126.759 Y146.632 E0.34189
G1 X125.333 Y146.281 E0.04772
G1 X123.981 Y145.636 E0.04869
G1 X122.520 Y144.437 E0.06140
G1 X121.325 Y142.818 E0.06539
G1 X120.729 Y141.293 E0.05321
G1 X120.629 Y140.823 E0.01561
G1 X120.370 Y140.658 E0.00996
G1 X118.726 Y138.991 E0.07610
G1 X117.907 Y137.473 E0.05603
G1 X117.472 Y135.849 E0.05464
G1 X117.416 Y132.702 E0.10228
G1 X116.775 Y131.988 E0.03116
G1 X116.124 Y130.777 E0.04469
G1 X115.679 Y129.251 E0.05165
G1 X115.614 Y107.671 E0.70124
G1 X115.998 Y105.886 E0.05933
G1 X116.182 Y105.472 E0.01472
G1 X116.058 Y105.199 E0.00975
G1 X115.603 Y103.276 E0.06423
G1 X115.741 Y81.139 E0.71933
G1 X116.198 Y79.774 E0.04678
G1 X116.833 Y78.607 E0.04317
G1 X117.404 Y77.951 E0.02828
G1 X117.404 Y77.858 E0.00299
G1 E-0.08000 F1800.00000
G1 F4800
G1 X117.410 Y75.938 E-0.68400
G1 E-0.03600 F1800.00000
G1 Z0.800 F6000.000
G1 X116.634 Y105.468
G1 Z0.200
G1 E0.80000 F1800.00000
G1 F1200
G1 X116.448 Y105.081 E0.01393
G1 X116.011 Y103.253 E0.06108
G1 X116.137 Y81.237 E0.71542
G1 X116.564 Y79.953 E0.04398
G1 X117.179 Y78.822 E0.04181
G1 X117.811 Y78.105 E0.03107
G1 X117.811 Y75.151 E0.09598
G1 X118.601 Y72.519 E0.08930
G1 X119.466 Y71.276 E0.04920
G1 X120.401 Y70.367 E0.04238
G1 X120.991 Y69.982 E0.02288
G1 X121.425 Y68.472 E0.05106
G1 X122.407 Y66.823 E0.06239
G1 X123.228 Y65.977 E0.03830
G1 X124.129 Y65.272 E0.03715
G1 X127.075 Y64.263 E0.10121
G1 X140.676 Y64.275 E0.44193
G1 X143.583 Y65.295 E0.10013
G1 X144.604 Y66.125 E0.04276
G1 X145.569 Y67.224 E0.04752
G1 X146.224 Y68.407 E0.04394
G1 X146.645 Y69.684 E0.04371
